;FLAVOR:Marlin
;TIME:4855
;Filament used: 3.49779m
;Layer height: 0.2
;MINX:89
;MINY:79.001
;MINZ:0.2
;MAXX:131
;MAXY:141
;MAXZ:42
;Generated with Cura_SteamEngine 4.6.1
M140 S50
M105
M190 S50
M104 S200
M105
M109 S200
M82 ;absolute extrusion mode
M201 X500.00 Y500.00 Z100.00 E5000.00 ;Setup machine max acceleration
M203 X500.00 Y500.00 Z10.00 E50.00 ;Setup machine max feedrate
M204 P500.00 R1000.00 T500.00 ;Setup Print/Retract/Travel acceleration
M205 X8.00 Y8.00 Z0.40 E5.00 ;Setup Jerk
M220 S100 ;Reset Feedrate
M221 S100 ;Reset Flowrate

G28 ;Home

G92 E0 ;Reset Extruder
G1 Z2.0 F3000 ;Move Z Axis up
G1 X10.1 Y20 Z0.28 F5000.0 ;Move to start position
G1 X10.1 Y200.0 Z0.28 F1500.0 E15 ;Draw the first line
G1 X10.4 Y200.0 Z0.28 F5000.0 ;Move to side a little
G1 X10.4 Y20 Z0.28 F1500.0 E30 ;Draw the second line
G92 E0 ;Reset Extruder
G1 Z2.0 F3000 ;Move Z Axis up

G92 E0
G92 E0
G1 F2700 E-5
;LAYER_COUNT:210
;LAYER:0
M107
G0 F6000 X116.625 Y79.81 Z0.2
;TYPE:SKIRT
G1 F2700 E0
G1 F1200 X117.805 Y79.895 E0.03935
G1 X118.271 Y79.956 E0.05498
G1 X118.759 Y80.031 E0.0714
G1 X119.643 Y80.216 E0.10144
G1 X120.507 Y80.479 E0.13148
G1 X121.03 Y80.679 E0.1501
G1 X121.667 Y80.944 E0.17305
G1 X122.484 Y81.328 E0.20308
G1 X123.638 Y82.034 E0.24807
G1 X124 Y82.29 E0.26282
G1 X124.54 Y82.699 E0.28535
G1 X124.827 Y82.932 E0.29764
G1 X125.502 Y83.532 E0.32768
G1 X125.983 Y84.032 E0.35076
G1 X126.17 Y84.24 E0.36006
G1 X126.536 Y84.669 E0.37882
G1 X126.888 Y85.107 E0.3975
G1 X127.422 Y85.836 E0.42756
G1 X127.674 Y86.233 E0.4432
G1 X127.821 Y86.477 E0.45267
G1 X128.065 Y86.906 E0.46909
G1 X128.36 Y87.454 E0.48979
G1 X128.827 Y88.446 E0.52626
G1 X128.936 Y88.714 E0.53588
G1 X129.13 Y89.229 E0.55418
G1 X129.343 Y89.846 E0.57589
G1 X129.648 Y90.918 E0.61296
G1 X129.839 Y91.781 E0.64236
G1 X129.934 Y92.268 E0.65886
G1 X130.091 Y93.418 E0.69747
G1 X130.149 Y94.187 E0.72312
G1 X130.163 Y94.445 E0.73171
G1 X130.176 Y94.81 E0.74386
G1 X130.2 Y96.195 E0.78993
G1 X130.196 Y124.237 E1.72261
G1 X130.19 Y124.694 E1.73781
G1 X130.18 Y125.041 E1.74936
G1 X130.137 Y125.951 E1.77966
G1 X130.114 Y126.306 E1.79149
G1 X130.089 Y126.61 E1.80164
G1 X129.988 Y127.43 E1.82912
G1 X129.95 Y127.661 E1.8369
G1 X129.867 Y128.104 E1.85189
G1 X129.712 Y128.841 E1.87694
G1 X129.393 Y130.008 E1.91718
G1 X129.125 Y130.788 E1.94461
G1 X128.97 Y131.206 E1.95944
G1 X128.529 Y132.222 E1.99628
G1 X128.41 Y132.46 E2.00513
G1 X128.19 Y132.876 E2.02078
G1 X127.911 Y133.375 E2.0398
G1 X127.436 Y134.143 E2.06983
G1 X127.066 Y134.651 E2.09073
G1 X126.629 Y135.214 E2.11444
G1 X126.044 Y135.902 E2.14447
G1 X125.345 Y136.586 E2.177
G1 X124.709 Y137.151 E2.2053
G1 X124.008 Y137.72 E2.23533
G1 X123.321 Y138.187 E2.26296
G1 X123.128 Y138.307 E2.27052
G1 X122.34 Y138.75 E2.30058
G1 X121.926 Y138.947 E2.31583
G1 X121.388 Y139.189 E2.33545
G1 X120.549 Y139.523 E2.36549
G1 X119.684 Y139.781 E2.39551
G1 X118.952 Y139.936 E2.4204
G1 X118.676 Y139.984 E2.42971
G1 X118.278 Y140.045 E2.44311
G1 X117.911 Y140.094 E2.45542
G1 X116.743 Y140.182 E2.49438
G1 X115.664 Y140.2 E2.53027
G1 X104.046 Y140.199 E2.91669
G1 X103.385 Y140.19 E2.93867
G1 X102.194 Y140.104 E2.97839
G1 X101.692 Y140.038 E2.99523
G1 X101.161 Y139.956 E3.0131
G1 X100.278 Y139.77 E3.04311
G1 X99.414 Y139.506 E3.07316
G1 X98.905 Y139.31 E3.0913
G1 X98.59 Y139.179 E3.10265
G1 X98.132 Y138.975 E3.11933
G1 X97.795 Y138.815 E3.13173
G1 X96.997 Y138.392 E3.16177
G1 X96.05 Y137.761 E3.19962
G1 X95.81 Y137.581 E3.2096
G1 X95.431 Y137.283 E3.22564
G1 X95.108 Y137.016 E3.23957
G1 X94.438 Y136.41 E3.26962
G1 X93.803 Y135.721 E3.30079
G1 X93.304 Y135.128 E3.32656
G1 X92.753 Y134.412 E3.35661
G1 X92.314 Y133.729 E3.38362
G1 X91.922 Y133.062 E3.40935
G1 X91.681 Y132.628 E3.42586
G1 X91.561 Y132.399 E3.43446
G1 X91.097 Y131.382 E3.47164
G1 X90.998 Y131.129 E3.48068
G1 X90.843 Y130.705 E3.49569
G1 X90.624 Y130.063 E3.51825
G1 X90.314 Y128.953 E3.55658
G1 X90.204 Y128.451 E3.57368
G1 X90.137 Y128.119 E3.58494
G1 X90.046 Y127.626 E3.60162
G1 X89.905 Y126.53 E3.63837
G1 X89.834 Y125.462 E3.67397
G1 X89.823 Y125.144 E3.68455
G1 X89.8 Y123.844 E3.7278
G1 X89.801 Y95.807 E4.66031
G1 X89.808 Y95.317 E4.67661
G1 X89.818 Y94.984 E4.68769
G1 X89.86 Y94.09 E4.71746
G1 X89.882 Y93.747 E4.72889
G1 X89.909 Y93.413 E4.74004
G1 X90.012 Y92.573 E4.76818
G1 X90.049 Y92.349 E4.77573
G1 X90.131 Y91.915 E4.79042
G1 X90.291 Y91.153 E4.81632
G1 X90.598 Y90.017 E4.85546
G1 X90.755 Y89.547 E4.87194
G1 X90.875 Y89.21 E4.88384
G1 X90.999 Y88.878 E4.89563
G1 X91.461 Y87.826 E4.93384
G1 X91.774 Y87.21 E4.95682
G1 X92.042 Y86.711 E4.97566
G1 X92.513 Y85.94 E5.00571
G1 X92.863 Y85.452 E5.02569
G1 X93.29 Y84.892 E5.04911
G1 X93.869 Y84.199 E5.07914
G1 X94.511 Y83.556 E5.10937
G1 X95.095 Y83.021 E5.13571
G1 X95.787 Y82.441 E5.16574
G1 X96.183 Y82.153 E5.18203
G1 X96.41 Y81.996 E5.19121
G1 X97.175 Y81.516 E5.22124
G1 X97.921 Y81.132 E5.24915
G1 X98.473 Y80.876 E5.26939
G1 X99.308 Y80.532 E5.29942
G1 X100.17 Y80.264 E5.32945
G1 X100.857 Y80.109 E5.35287
G1 X101.125 Y80.058 E5.36195
G1 X101.532 Y79.989 E5.37568
G1 X101.949 Y79.927 E5.3897
G1 X103.233 Y79.818 E5.43256
G1 X103.916 Y79.806 E5.45528
G1 X115.989 Y79.801 E5.85683
G1 X116.625 Y79.81 E5.87798
G0 F6000 X116.631 Y79.41
G1 F1200 X117.857 Y79.499 E5.91887
G1 X118.824 Y79.636 E5.95135
G1 X119.725 Y79.824 E5.98196
G1 X120.607 Y80.09 E6.0126
G1 X121.183 Y80.31 E6.03311
G1 X121.82 Y80.575 E6.05606
G1 X122.654 Y80.965 E6.08668
G1 X123.451 Y81.426 E6.1173
G1 X123.869 Y81.707 E6.13406
G1 X124.231 Y81.963 E6.1488
G1 X124.792 Y82.389 E6.17223
G1 X125.079 Y82.622 E6.18453
G1 X125.768 Y83.232 E6.21513
G1 X126.281 Y83.764 E6.23971
G1 X126.468 Y83.972 E6.24902
G1 X126.847 Y84.419 E6.26851
G1 X127.199 Y84.857 E6.2872
G1 X127.744 Y85.599 E6.31782
G1 X128.017 Y86.027 E6.3347
G1 X128.164 Y86.271 E6.34418
G1 X128.418 Y86.717 E6.36125
G1 X128.713 Y87.265 E6.38195
G1 X129.198 Y88.295 E6.41982
G1 X129.307 Y88.563 E6.42944
G1 X129.508 Y89.098 E6.44845
G1 X129.721 Y89.715 E6.47016
G1 X130.038 Y90.83 E6.50871
G1 X130.232 Y91.704 E6.53849
G1 X130.327 Y92.191 E6.55499
G1 X130.49 Y93.386 E6.59511
G1 X130.548 Y94.166 E6.62112
G1 X130.562 Y94.424 E6.62971
G1 X130.576 Y94.803 E6.64233
G1 X130.6 Y96.195 E6.68863
G1 X130.596 Y124.242 E7.62148
G1 X130.59 Y124.699 E7.63668
G1 X130.579 Y125.06 E7.64869
G1 X130.536 Y125.97 E7.67899
G1 X130.512 Y126.339 E7.69129
G1 X130.487 Y126.643 E7.70144
G1 X130.382 Y127.495 E7.72999
G1 X130.344 Y127.726 E7.73778
G1 X130.258 Y128.187 E7.75337
G1 X130.103 Y128.924 E7.77842
G1 X129.772 Y130.136 E7.82021
G1 X129.5 Y130.927 E7.84803
G1 X129.345 Y131.345 E7.86286
G1 X128.887 Y132.4 E7.90111
G1 X128.768 Y132.638 E7.90996
G1 X128.539 Y133.071 E7.92625
G1 X128.26 Y133.57 E7.94527
G1 X127.776 Y134.353 E7.97589
G1 X127.382 Y134.897 E7.99823
G1 X126.945 Y135.46 E8.02193
G1 X126.349 Y136.162 E8.05256
G1 X125.611 Y136.885 E8.08692
G1 X124.975 Y137.45 E8.11522
G1 X124.261 Y138.031 E8.14583
G1 X123.532 Y138.527 E8.17516
G1 X123.339 Y138.647 E8.18272
G1 X122.537 Y139.099 E8.21334
G1 X122.09 Y139.312 E8.22981
G1 X121.552 Y139.554 E8.24943
G1 X120.697 Y139.895 E8.28004
G1 X119.816 Y140.16 E8.31064
G1 X119.02 Y140.33 E8.33771
G1 X118.744 Y140.378 E8.34703
G1 X118.331 Y140.442 E8.36093
G1 X117.964 Y140.491 E8.37325
G1 X116.75 Y140.582 E8.41374
G1 X115.664 Y140.6 E8.44986
G1 X104.041 Y140.599 E8.83645
G1 X103.38 Y140.59 E8.85843
G1 X102.142 Y140.501 E8.89972
G1 X101.64 Y140.435 E8.91656
G1 X101.096 Y140.351 E8.93486
G1 X100.195 Y140.161 E8.96549
G1 X99.314 Y139.895 E8.9961
G1 X98.752 Y139.679 E9.01612
G1 X98.437 Y139.548 E9.02747
G1 X97.961 Y139.337 E9.04479
G1 X97.624 Y139.177 E9.0572
G1 X96.81 Y138.746 E9.08783
G1 X95.81 Y138.081 E9.12777
G1 X95.57 Y137.901 E9.13775
G1 X95.176 Y137.591 E9.15443
G1 X94.853 Y137.324 E9.16836
G1 X94.17 Y136.707 E9.19898
G1 X93.496 Y135.979 E9.23198
G1 X92.997 Y135.386 E9.25775
G1 X92.436 Y134.656 E9.28837
G1 X91.969 Y133.932 E9.31703
G1 X91.577 Y133.265 E9.34276
G1 X91.327 Y132.814 E9.35991
G1 X91.207 Y132.585 E9.36851
G1 X90.725 Y131.528 E9.40715
G1 X90.626 Y131.275 E9.41619
G1 X90.465 Y130.834 E9.4318
G1 X90.246 Y130.192 E9.45436
G1 X89.924 Y129.039 E9.49418
G1 X89.814 Y128.537 E9.51127
G1 X89.744 Y128.192 E9.52298
G1 X89.653 Y127.699 E9.53965
G1 X89.506 Y126.56 E9.57785
G1 X89.434 Y125.482 E9.61379
G1 X89.423 Y125.151 E9.6248
G1 X89.4 Y123.844 E9.66828
G1 X89.401 Y95.802 E10.60096
G1 X89.408 Y95.312 E10.61726
G1 X89.419 Y94.966 E10.62877
G1 X89.461 Y94.072 E10.65854
G1 X89.483 Y93.715 E10.67044
G1 X89.51 Y93.381 E10.68158
G1 X89.618 Y92.508 E10.71084
G1 X89.655 Y92.284 E10.71839
G1 X89.739 Y91.833 E10.73365
G1 X89.899 Y91.071 E10.75954
G1 X90.219 Y89.891 E10.80021
G1 X90.376 Y89.421 E10.81669
G1 X90.5 Y89.07 E10.82907
G1 X90.624 Y88.738 E10.84086
G1 X91.104 Y87.645 E10.88056
G1 X91.417 Y87.029 E10.90355
G1 X91.692 Y86.518 E10.92285
G1 X92.171 Y85.732 E10.95346
G1 X92.545 Y85.21 E10.97482
G1 X92.972 Y84.65 E10.99824
G1 X93.561 Y83.943 E11.02885
G1 X94.241 Y83.261 E11.06088
G1 X94.825 Y82.726 E11.08722
G1 X95.53 Y82.134 E11.11784
G1 X95.955 Y81.824 E11.13534
G1 X96.182 Y81.667 E11.14452
G1 X96.962 Y81.177 E11.17515
G1 X97.752 Y80.769 E11.20473
G1 X98.304 Y80.513 E11.22496
G1 X99.156 Y80.162 E11.25561
G1 X100.034 Y79.887 E11.28621
G1 X100.782 Y79.716 E11.31173
G1 X101.05 Y79.665 E11.32081
G1 X101.473 Y79.593 E11.33508
G1 X101.89 Y79.531 E11.3491
G1 X103.224 Y79.418 E11.39363
G1 X103.916 Y79.406 E11.41665
G1 X115.995 Y79.401 E11.8184
G1 X116.631 Y79.41 E11.83955
G0 F6000 X116.637 Y79.01
G1 F1200 X117.909 Y79.102 E11.88197
G1 X118.375 Y79.163 E11.8976
G1 X118.888 Y79.241 E11.91486
G1 X119.807 Y79.432 E11.94608
G1 X120.705 Y79.7 E11.97725
G1 X121.337 Y79.941 E11.99975
G1 X121.974 Y80.206 E12.02269
G1 X122.824 Y80.603 E12.0539
G1 X123.637 Y81.07 E12.08508
G1 X124.1 Y81.381 E12.10363
G1 X124.462 Y81.637 E12.11838
G1 X125.044 Y82.078 E12.14267
G1 X125.331 Y82.311 E12.15496
G1 X126.033 Y82.933 E12.18616
G1 X126.578 Y83.497 E12.21224
G1 X126.765 Y83.705 E12.22154
G1 X127.159 Y84.168 E12.24176
G1 X127.511 Y84.606 E12.26045
G1 X128.067 Y85.362 E12.29167
G1 X128.359 Y85.821 E12.30976
G1 X128.506 Y86.065 E12.31924
G1 X128.77 Y86.527 E12.33693
G1 X129.065 Y87.075 E12.35763
G1 X129.568 Y88.145 E12.39696
G1 X129.677 Y88.413 E12.40658
G1 X129.886 Y88.967 E12.42627
G1 X130.099 Y89.584 E12.44798
G1 X130.429 Y90.741 E12.488
G1 X130.556 Y91.301 E12.5071
G1 X130.624 Y91.628 E12.51821
G1 X130.719 Y92.115 E12.53471
G1 X130.889 Y93.355 E12.57634
G1 X130.948 Y94.144 E12.60265
G1 X130.962 Y94.402 E12.61125
G1 X130.976 Y94.796 E12.62436
G1 X131 Y96.195 E12.6709
G1 X130.996 Y124.247 E13.60391
G1 X130.99 Y124.704 E13.61911
G1 X130.979 Y125.079 E13.63159
G1 X130.936 Y125.989 E13.66189
G1 X130.911 Y126.372 E13.67466
G1 X130.886 Y126.676 E13.6848
G1 X130.777 Y127.56 E13.71443
G1 X130.739 Y127.791 E13.72221
G1 X130.65 Y128.269 E13.73839
G1 X130.495 Y129.006 E13.76343
G1 X130.151 Y130.264 E13.80681
G1 X129.875 Y131.066 E13.83502
G1 X129.72 Y131.484 E13.84985
G1 X129.245 Y132.579 E13.88955
G1 X129.126 Y132.817 E13.8984
G1 X128.888 Y133.266 E13.9153
G1 X128.609 Y133.765 E13.93432
G1 X128.117 Y134.564 E13.96552
G1 X127.698 Y135.142 E13.98927
G1 X127.261 Y135.705 E14.01297
G1 X126.654 Y136.42 E14.04417
G1 X125.877 Y137.184 E14.08041
G1 X125.241 Y137.749 E14.10871
G1 X124.514 Y138.341 E14.13989
G1 X123.743 Y138.867 E14.17093
G1 X123.55 Y138.987 E14.17849
G1 X122.733 Y139.447 E14.20968
G1 X122.254 Y139.677 E14.22735
G1 X121.716 Y139.919 E14.24697
G1 X120.846 Y140.267 E14.27814
G1 X119.948 Y140.539 E14.30934
G1 X119.089 Y140.724 E14.33857
G1 X118.813 Y140.772 E14.34789
G1 X118.384 Y140.838 E14.36232
G1 X118.017 Y140.887 E14.37464
G1 X116.757 Y140.982 E14.41666
G1 X115.664 Y141 E14.45302
G1 X104.035 Y140.999 E14.8398
G1 X103.374 Y140.99 E14.86179
G1 X102.09 Y140.897 E14.90461
G1 X101.588 Y140.831 E14.92145
G1 X101.031 Y140.745 E14.94019
G1 X100.113 Y140.553 E14.97139
G1 X99.215 Y140.284 E15.00257
G1 X98.598 Y140.049 E15.02453
G1 X98.283 Y139.918 E15.03587
G1 X97.789 Y139.698 E15.05386
G1 X97.452 Y139.538 E15.06627
G1 X96.623 Y139.1 E15.09745
G1 X95.57 Y138.401 E15.13949
G1 X95.33 Y138.221 E15.14947
G1 X94.922 Y137.899 E15.16675
G1 X94.599 Y137.632 E15.18069
G1 X93.902 Y137.005 E15.21187
G1 X93.19 Y136.236 E15.24673
G1 X92.691 Y135.643 E15.27251
G1 X92.119 Y134.901 E15.30367
G1 X91.625 Y134.134 E15.33401
G1 X91.233 Y133.467 E15.35975
G1 X90.973 Y133 E15.37752
G1 X90.853 Y132.771 E15.38612
G1 X90.352 Y131.673 E15.42626
G1 X90.253 Y131.42 E15.4353
G1 X90.086 Y130.963 E15.45148
G1 X89.867 Y130.321 E15.47404
G1 X89.533 Y129.124 E15.51538
G1 X89.423 Y128.622 E15.53247
G1 X89.351 Y128.265 E15.54458
G1 X89.26 Y127.772 E15.56126
G1 X89.107 Y126.59 E15.6009
G1 X89.035 Y125.502 E15.63716
G1 X89.023 Y125.159 E15.64858
G1 X89 Y123.844 E15.69232
G1 X89.001 Y95.796 E16.6252
G1 X89.008 Y95.306 E16.6415
G1 X89.019 Y94.947 E16.65345
G1 X89.061 Y94.053 E16.68322
G1 X89.085 Y93.683 E16.69555
G1 X89.112 Y93.349 E16.70669
G1 X89.223 Y92.442 E16.73709
G1 X89.26 Y92.218 E16.74464
G1 X89.348 Y91.751 E16.76044
G1 X89.508 Y90.989 E16.78634
G1 X89.84 Y89.764 E16.82855
G1 X89.997 Y89.294 E16.84503
G1 X90.125 Y88.93 E16.85787
G1 X90.249 Y88.598 E16.86965
G1 X90.747 Y87.464 E16.91085
G1 X91.06 Y86.848 E16.93383
G1 X91.342 Y86.324 E16.95362
G1 X91.829 Y85.523 E16.9848
G1 X92.227 Y84.967 E17.00754
G1 X92.654 Y84.407 E17.03097
G1 X93.254 Y83.686 E17.06216
G1 X93.971 Y82.966 E17.09596
G1 X94.555 Y82.431 E17.1223
G1 X95.272 Y81.828 E17.15346
G1 X95.728 Y81.495 E17.17224
G1 X95.955 Y81.338 E17.18142
G1 X96.748 Y80.838 E17.2126
G1 X97.584 Y80.406 E17.2439
G1 X98.136 Y80.15 E17.26414
G1 X99.003 Y79.792 E17.29534
G1 X99.897 Y79.509 E17.32653
G1 X100.708 Y79.323 E17.3542
G1 X100.976 Y79.272 E17.36327
G1 X101.414 Y79.198 E17.37805
G1 X101.831 Y79.136 E17.39207
G1 X103.216 Y79.018 E17.4383
G1 X103.915 Y79.006 E17.46155
G1 X116.001 Y79.001 E17.86354
G1 X116.637 Y79.01 E17.88469
G1 F2700 E12.88469
;MESH:Combined.stl
G0 F6000 X116.488 Y89.336
G0 X116.489 Y90.42
G0 X117.881 Y91.413
G0 X118.312 Y91.934
G0 X118.692 Y92.619
G0 X118.971 Y93.39
G0 X119.167 Y94.33
G0 X119.229 Y95.283
G0 X119.226 Y124.768
G0 X119.167 Y125.683
G0 X118.992 Y126.55
G0 X118.704 Y127.361
G0 X118.341 Y128.03
G0 X117.988 Y128.466
G0 X117.029 Y129.317
;TYPE:WALL-INNER
G1 F2700 E17.88469
G1 F1200 X116.474 Y129.4 E17.90336
G1 X103.526 Y129.4 E18.33401
G1 X102.971 Y129.317 E18.35267
G1 X102.466 Y129.086 E18.37114
G1 X101.975 Y128.69 E18.39212
G1 X101.518 Y128.126 E18.41627
G1 X101.138 Y127.427 E18.44273
G1 X100.843 Y126.596 E18.47206
G1 X100.663 Y125.692 E18.50272
G1 X100.6 Y124.73 E18.53478
G1 X100.6 Y95.27 E19.51463
G1 X100.662 Y94.305 E19.54679
G1 X100.844 Y93.402 E19.57743
G1 X101.122 Y92.615 E19.60519
G1 X101.497 Y91.911 E19.63172
G1 X101.95 Y91.34 E19.65596
G1 X102.44 Y90.935 E19.6771
G1 X102.947 Y90.695 E19.69576
G1 X103.492 Y90.606 E19.71413
G1 X116.475 Y90.6 E20.14594
G1 X116.999 Y90.677 E20.16356
G1 X117.509 Y90.902 E20.1821
G1 X118.002 Y91.29 E20.20296
G1 X118.454 Y91.838 E20.22659
G1 X118.845 Y92.542 E20.25337
G1 X119.137 Y93.35 E20.28195
G1 X119.337 Y94.307 E20.31447
G1 X119.4 Y95.27 E20.34657
G1 X119.397 Y124.781 E21.32811
G1 X119.337 Y125.703 E21.35884
G1 X119.157 Y126.596 E21.38913
G1 X118.862 Y127.427 E21.41846
G1 X118.482 Y128.126 E21.44493
G1 X118.025 Y128.69 E21.46907
G1 X117.534 Y129.086 E21.49005
G1 X117.029 Y129.317 E21.50852
G0 F6000 X117.143 Y129.705
;TYPE:WALL-OUTER
G1 F1200 X116.506 Y129.8 E21.52994
G1 X103.494 Y129.8 E21.96272
G1 X102.857 Y129.705 E21.98414
G1 X102.255 Y129.43 E22.00616
G1 X101.689 Y128.973 E22.03035
G1 X101.186 Y128.352 E22.05693
G1 X100.77 Y127.587 E22.08589
G1 X100.457 Y126.704 E22.11705
G1 X100.266 Y125.756 E22.14922
G1 X100.264 Y125.715 E22.15058
G1 X100.2 Y124.741 E22.18305
G1 X100.2 Y95.259 E23.16362
G1 X100.265 Y94.252 E23.19719
G1 X100.457 Y93.296 E23.22962
G1 X100.755 Y92.452 E23.25939
G1 X101.162 Y91.69 E23.28812
G1 X101.662 Y91.059 E23.3149
G1 X102.225 Y90.594 E23.33918
G1 X102.827 Y90.309 E23.36134
G1 X103.457 Y90.206 E23.38257
G1 X116.507 Y90.2 E23.81661
