;FLAVOR:Marlin
;TIME:3905
;Filament used: 2.94534m
;Layer height: 0.2
;MINX:91.241
;MINY:79.077
;MINZ:0.2
;MAXX:128.709
;MAXY:140.9
;MAXZ:29.8
;Generated with Cura_SteamEngine 4.6.1
M140 S52
M105
M190 S52
M104 S203
M105
M109 S203
M82 ;absolute extrusion mode
M201 X500.00 Y500.00 Z100.00 E5000.00 ;Setup machine max acceleration
M203 X500.00 Y500.00 Z10.00 E50.00 ;Setup machine max feedrate
M204 P500.00 R1000.00 T500.00 ;Setup Print/Retract/Travel acceleration
M205 X8.00 Y8.00 Z0.40 E5.00 ;Setup Jerk
M220 S100 ;Reset Feedrate
M221 S100 ;Reset Flowrate

G28 ;Home

G92 E0 ;Reset Extruder
G1 Z2.0 F3000 ;Move Z Axis up
G1 X10.1 Y20 Z0.28 F5000.0 ;Move to start position
G1 X10.1 Y200.0 Z0.28 F1500.0 E15 ;Draw the first line
G1 X10.4 Y200.0 Z0.28 F5000.0 ;Move to side a little
G1 X10.4 Y20 Z0.28 F1500.0 E30 ;Draw the second line
G92 E0 ;Reset Extruder
G1 Z2.0 F3000 ;Move Z Axis up

G92 E0
G92 E0
G1 F2700 E-5
;LAYER_COUNT:149
;LAYER:0
M107
G0 F6000 X118.678 Y79.931 Z0.2
;TYPE:SKIRT
G1 F2700 E0
G1 F1200 X119.572 Y80.058 E0.03003
G1 X120.451 Y80.263 E0.06005
G1 X121.309 Y80.546 E0.0901
G1 X122.138 Y80.903 E0.12012
G1 X122.933 Y81.332 E0.15017
G1 X123.686 Y81.83 E0.1802
G1 X124.393 Y82.393 E0.21026
G1 X125.047 Y83.016 E0.2403
G1 X125.643 Y83.694 E0.27032
G1 X126.177 Y84.422 E0.30035
G1 X126.644 Y85.195 E0.33039
G1 X127.042 Y86.006 E0.36044
G1 X127.366 Y86.849 E0.39047
G1 X127.614 Y87.717 E0.4205
G1 X127.784 Y88.604 E0.45054
G1 X127.889 Y89.85 E0.49213
G1 X127.902 Y90.518 E0.51435
G1 X127.909 Y118.532 E1.4461
G1 X127.9 Y119.191 E1.46802
G1 X127.848 Y120.093 E1.49807
G1 X127.716 Y120.986 E1.52809
G1 X127.506 Y121.865 E1.55815
G1 X127.218 Y122.721 E1.58819
G1 X126.681 Y123.89 E1.63098
G1 X125.838 Y125.454 E1.69007
G1 X124.634 Y127.785 E1.77733
G1 X123.542 Y130.056 E1.86114
G1 X122.426 Y132.564 E1.95245
G1 X121.887 Y133.822 E1.99797
G1 X121.495 Y134.636 E2.02802
G1 X121.032 Y135.411 E2.05804
G1 X120.503 Y136.143 E2.08808
G1 X119.911 Y136.825 E2.11812
G1 X119.261 Y137.452 E2.14816
G1 X118.558 Y138.019 E2.1782
G1 X117.808 Y138.522 E2.20823
G1 X117.016 Y138.956 E2.23827
G1 X116.189 Y139.319 E2.26831
G1 X115.333 Y139.607 E2.29835
G1 X114.455 Y139.818 E2.32838
G1 X113.562 Y139.951 E2.35841
G1 X112.804 Y140.001 E2.38368
G1 X111.582 Y140.034 E2.42433
G1 X103.059 Y140.1 E2.70782
G1 X102.363 Y140.097 E2.73097
G1 X101.461 Y140.053 E2.761
G1 X100.566 Y139.93 E2.79105
G1 X99.686 Y139.727 E2.82109
G1 X98.827 Y139.448 E2.85113
G1 X97.997 Y139.094 E2.88114
G1 X97.2 Y138.668 E2.9112
G1 X96.445 Y138.173 E2.94123
G1 X95.736 Y137.613 E2.97128
G1 X95.08 Y136.993 E3.0013
G1 X94.481 Y136.317 E3.03134
G1 X93.944 Y135.591 E3.06137
G1 X93.474 Y134.82 E3.09141
G1 X93.073 Y134.01 E3.12147
G1 X92.746 Y133.169 E3.15148
G1 X92.494 Y132.301 E3.18154
G1 X92.321 Y131.415 E3.21157
G1 X92.214 Y130.283 E3.24938
G1 X92.2 Y129.806 E3.26526
G1 X92.195 Y129.386 E3.27923
G1 X92.04 Y90.701 E4.5659
G1 X92.046 Y90.081 E4.58653
G1 X92.095 Y89.18 E4.61654
G1 X92.223 Y88.286 E4.64658
G1 X92.43 Y87.406 E4.67664
G1 X92.714 Y86.549 E4.70667
G1 X93.073 Y85.72 E4.73672
G1 X93.503 Y84.926 E4.76675
G1 X94.002 Y84.174 E4.79677
G1 X94.566 Y83.468 E4.82682
G1 X95.189 Y82.815 E4.85684
G1 X95.869 Y82.22 E4.88689
G1 X96.598 Y81.687 E4.91693
G1 X97.371 Y81.22 E4.94697
G1 X98.183 Y80.824 E4.97702
G1 X99.026 Y80.502 E5.00703
G1 X99.895 Y80.255 E5.03708
G1 X100.782 Y80.086 E5.06711
G1 X101.953 Y79.984 E5.10621
G1 X102.986 Y79.957 E5.14058
G1 X117.045 Y79.877 E5.60819
G1 X117.776 Y79.883 E5.6325
G1 X118.678 Y79.931 E5.66254
G0 F6000 X118.698 Y79.531
G1 F1200 X119.61 Y79.658 E5.69317
G1 X120.508 Y79.864 E5.72381
G1 X121.384 Y80.147 E5.75443
G1 X122.232 Y80.504 E5.78503
G1 X123.046 Y80.935 E5.81567
G1 X123.82 Y81.434 E5.8463
G1 X124.547 Y81.998 E5.8769
G1 X125.223 Y82.623 E5.90752
G1 X125.842 Y83.305 E5.93816
G1 X126.399 Y84.038 E5.96878
G1 X126.891 Y84.816 E5.99939
G1 X127.313 Y85.634 E6.03001
G1 X127.663 Y86.486 E6.06064
G1 X127.937 Y87.364 E6.09123
G1 X128.135 Y88.264 E6.12188
G1 X128.253 Y89.177 E6.1525
G1 X128.289 Y89.841 E6.17462
G1 X128.302 Y90.518 E6.19714
G1 X128.309 Y118.538 E7.12909
G1 X128.3 Y119.197 E7.15101
G1 X128.247 Y120.116 E7.18163
G1 X128.115 Y121.027 E7.21224
G1 X127.905 Y121.923 E7.24285
G1 X127.617 Y122.798 E7.27349
G1 X127.255 Y123.644 E7.3041
G1 X127.033 Y124.08 E7.32037
G1 X126.175 Y125.672 E7.38052
G1 X125.014 Y127.921 E7.4647
G1 X123.899 Y130.239 E7.55025
G1 X122.763 Y132.793 E7.64322
G1 X122.254 Y133.98 E7.68618
G1 X121.855 Y134.809 E7.71678
G1 X121.386 Y135.601 E7.74739
G1 X120.849 Y136.349 E7.77802
G1 X120.25 Y137.048 E7.80864
G1 X119.592 Y137.693 E7.83928
G1 X118.881 Y138.277 E7.86989
G1 X118.122 Y138.798 E7.90051
G1 X117.321 Y139.251 E7.93111
G1 X116.483 Y139.633 E7.96174
G1 X115.615 Y139.94 E7.99237
G1 X114.724 Y140.171 E8.02298
G1 X113.816 Y140.324 E8.05361
G1 X112.816 Y140.401 E8.08697
G1 X111.585 Y140.434 E8.12792
G1 X103.057 Y140.5 E8.41157
G1 X102.361 Y140.497 E8.43472
G1 X101.442 Y140.453 E8.46532
G1 X100.529 Y140.329 E8.49597
G1 X99.631 Y140.127 E8.52658
G1 X98.754 Y139.848 E8.55719
G1 X97.904 Y139.493 E8.58783
G1 X97.089 Y139.066 E8.61843
G1 X96.313 Y138.57 E8.64907
G1 X95.583 Y138.009 E8.67969
G1 X94.905 Y137.386 E8.71031
G1 X94.284 Y136.707 E8.74092
G1 X93.724 Y135.976 E8.77154
G1 X93.229 Y135.2 E8.80216
G1 X92.803 Y134.383 E8.8328
G1 X92.45 Y133.533 E8.86342
G1 X92.172 Y132.656 E8.89401
G1 X91.971 Y131.757 E8.92465
G1 X91.849 Y130.844 E8.95529
G1 X91.815 Y130.299 E8.97345
G1 X91.8 Y129.81 E8.98972
G1 X91.795 Y129.388 E9.00376
G1 X91.64 Y90.697 E10.29064
G1 X91.646 Y90.077 E10.31126
G1 X91.695 Y89.158 E10.34187
G1 X91.824 Y88.246 E10.37251
G1 X92.031 Y87.349 E10.40312
G1 X92.315 Y86.474 E10.43372
G1 X92.674 Y85.626 E10.46435
G1 X93.105 Y84.813 E10.49495
G1 X93.606 Y84.04 E10.52559
G1 X94.171 Y83.313 E10.55622
G1 X94.797 Y82.638 E10.58684
G1 X95.48 Y82.02 E10.61747
G1 X96.213 Y81.464 E10.64807
G1 X96.992 Y80.973 E10.6787
G1 X97.811 Y80.552 E10.70933
G1 X98.663 Y80.204 E10.73994
G1 X99.542 Y79.931 E10.77055
G1 X100.442 Y79.735 E10.80119
G1 X101.355 Y79.617 E10.8318
G1 X101.941 Y79.584 E10.85133
G1 X102.984 Y79.557 E10.88603
G1 X117.048 Y79.477 E11.35381
G1 X117.779 Y79.483 E11.37812
G1 X118.698 Y79.531 E11.40873
G0 F6000 X118.719 Y79.131
G1 F1200 X119.648 Y79.258 E11.43991
G1 X120.563 Y79.464 E11.47111
G1 X121.457 Y79.747 E11.5023
G1 X122.324 Y80.106 E11.53351
G1 X123.157 Y80.537 E11.5647
G1 X123.95 Y81.037 E11.59588
G1 X124.698 Y81.603 E11.62708
G1 X125.395 Y82.23 E11.65826
G1 X126.036 Y82.915 E11.68947
G1 X126.616 Y83.652 E11.72066
G1 X127.132 Y84.436 E11.75188
G1 X127.578 Y85.26 E11.78304
G1 X127.953 Y86.12 E11.81424
G1 X128.254 Y87.008 E11.84543
G1 X128.477 Y87.919 E11.87662
G1 X128.622 Y88.846 E11.90783
G1 X128.689 Y89.832 E11.9407
G1 X128.702 Y90.518 E11.96352
G1 X128.709 Y118.543 E12.89564
G1 X128.7 Y119.202 E12.91756
G1 X128.647 Y120.139 E12.94877
G1 X128.515 Y121.067 E12.97995
G1 X128.304 Y121.981 E13.01115
G1 X128.016 Y122.873 E13.04232
G1 X127.653 Y123.738 E13.07352
G1 X127.385 Y124.27 E13.09334
G1 X126.525 Y125.866 E13.15364
G1 X125.364 Y128.113 E13.23776
G1 X124.266 Y130.397 E13.32205
G1 X123.139 Y132.93 E13.41426
G1 X122.622 Y134.137 E13.45793
G1 X122.216 Y134.983 E13.48914
G1 X121.74 Y135.791 E13.52033
G1 X121.196 Y136.555 E13.55153
G1 X120.59 Y137.27 E13.5827
G1 X119.925 Y137.931 E13.61388
G1 X119.205 Y138.533 E13.6451
G1 X118.438 Y139.072 E13.67628
G1 X117.627 Y139.543 E13.70747
G1 X116.779 Y139.943 E13.73866
G1 X115.899 Y140.27 E13.76988
G1 X114.996 Y140.521 E13.80105
G1 X114.074 Y140.693 E13.83225
G1 X112.827 Y140.8 E13.87388
G1 X111.588 Y140.834 E13.9151
G1 X103.056 Y140.9 E14.19889
G1 X102.36 Y140.897 E14.22204
G1 X101.423 Y140.853 E14.25323
G1 X100.493 Y140.729 E14.28444
G1 X99.577 Y140.527 E14.31564
G1 X98.682 Y140.247 E14.34683
G1 X97.814 Y139.892 E14.37802
G1 X96.979 Y139.465 E14.40921
G1 X96.184 Y138.968 E14.4404
G1 X95.434 Y138.404 E14.47161
G1 X94.735 Y137.78 E14.50277
G1 X94.091 Y137.097 E14.53399
G1 X93.508 Y136.363 E14.56517
G1 X92.989 Y135.581 E14.59639
G1 X92.54 Y134.758 E14.62757
G1 X92.161 Y133.9 E14.65877
G1 X91.858 Y133.013 E14.68994
G1 X91.63 Y132.103 E14.72115
G1 X91.482 Y131.177 E14.75233
G1 X91.415 Y130.314 E14.78112
G1 X91.4 Y129.815 E14.79773
G1 X91.395 Y129.389 E14.8119
G1 X91.241 Y90.694 E16.09891
G1 X91.247 Y90.074 E16.11953
G1 X91.296 Y89.137 E16.15074
G1 X91.424 Y88.208 E16.18193
G1 X91.632 Y87.293 E16.21314
G1 X91.916 Y86.4 E16.24431
G1 X92.276 Y85.533 E16.27553
G1 X92.708 Y84.701 E16.30671
G1 X93.209 Y83.908 E16.33791
G1 X93.776 Y83.161 E16.3691
G1 X94.405 Y82.465 E16.4003
G1 X95.09 Y81.825 E16.43148
G1 X95.828 Y81.246 E16.46268
G1 X96.612 Y80.732 E16.49386
G1 X97.438 Y80.287 E16.52507
G1 X98.298 Y79.913 E16.55626
G1 X99.187 Y79.614 E16.58745
G1 X100.098 Y79.392 E16.61864
G1 X101.025 Y79.248 E16.64984
G1 X101.929 Y79.185 E16.67998
G1 X102.982 Y79.157 E16.71502
G1 X117.051 Y79.077 E17.18296
G1 X117.782 Y79.083 E17.20728
G1 X118.719 Y79.131 E17.23848
G1 F2700 E12.23848
;MESH:Combined-1.stl
G0 F6000 X117.275 Y89.411
G0 X117.282 Y90.495
G0 X116.911 Y116.518
G0 X108.327 Y104.822
G0 X107.687 Y105.087
G0 X111.798 Y129.232
;TYPE:WALL-INNER
G1 F2700 E17.23848
G1 F1200 X111.563 Y129.232 E17.2463
G1 X111.562 Y129.233 E17.24635
G1 X103.194 Y129.3 E17.52468
G1 X102.994 Y129.301 E17.53133
G1 X102.994 Y129.101 E17.53563
G1 X102.84 Y90.758 E18.81093
G1 X116.902 Y90.677 E19.27864
G1 X117.102 Y90.676 E19.28529
G1 X117.102 Y90.876 E19.28959
G1 X117.11 Y116.513 E20.14228
G1 X117.11 Y116.514 E20.14232
G1 X117.11 Y117.149 E20.16344
G1 X116.747 Y116.627 E20.17449
G1 X108.388 Y104.613 E20.66128
G1 X107.497 Y104.982 E20.69336
G1 X111.757 Y129 E21.50467
G1 X111.798 Y129.232 E21.50951
G0 F6000 X112.275 Y129.628
;TYPE:WALL-OUTER
G1 F1200 X102.596 Y129.704 E21.83144
G1 X102.438 Y90.36 E23.14004
G1 X117.502 Y90.274 E23.64108
G1 X117.51 Y118.424 E24.57735
G1 X108.244 Y105.106 E25.11697
G1 X107.947 Y105.229 E25.12766
G1 X112.275 Y129.628 E25.95185
G0 F6000 X111.961 Y129.367
G0 X111.609 Y128.798
G0 X111.334 Y128.846
;TYPE:SKIN
G1 F1200 X103.382 Y128.908 E26.21634
G1 X103.232 Y91.146 E27.47232
G1 X116.712 Y91.068 E27.92067
G1 X116.72 Y115.905 E28.74675
G1 X108.529 Y104.133 E29.22375
G1 X107.058 Y104.742 E29.2767
G1 X111.334 Y128.846 E30.09092
G0 F6000 X111.609 Y128.798
G0 X111.578 Y129.049
G0 X103.854 Y129.184
G0 X103.852 Y128.742
G1 F1200 X103.539 Y128.429 E30.10564
G0 F6000 X103.537 Y127.861
G1 F1200 X104.413 Y128.737 E30.14685
G0 F6000 X104.974 Y128.733
G1 F1200 X103.534 Y127.293 E30.21458
G0 F6000 X103.532 Y126.725
G1 F1200 X105.536 Y128.729 E30.30884
G0 F6000 X106.097 Y128.725
G1 F1200 X103.53 Y126.157 E30.42961
G0 F6000 X103.528 Y125.589
G1 F1200 X106.659 Y128.721 E30.5769
G0 F6000 X107.22 Y128.716
G1 F1200 X103.526 Y125.022 E30.75066
G0 F6000 X103.523 Y124.453
G1 F1200 X107.782 Y128.712 E30.95099
G0 F6000 X108.343 Y128.708
G1 F1200 X103.521 Y123.885 E31.17782
G0 F6000 X103.519 Y123.318
G1 F1200 X108.905 Y128.704 E31.43117
G0 F6000 X109.466 Y128.699
G1 F1200 X103.516 Y122.75 E31.71101
G0 F6000 X103.514 Y122.182
G1 F1200 X110.027 Y128.695 E32.01736
G0 F6000 X110.588 Y128.69
G1 F1200 X103.512 Y121.614 E32.3502
G0 F6000 X103.509 Y121.046
G1 F1200 X111.142 Y128.678 E32.70921
G0 F6000 X111.02 Y127.991
G1 F1200 X103.507 Y120.478 E33.06259
G0 F6000 X103.505 Y119.91
G1 F1200 X110.898 Y127.303 E33.41034
G0 F6000 X110.776 Y126.615
G1 F1200 X103.503 Y119.342 E33.75244
G0 F6000 X103.501 Y118.774
G1 F1200 X110.654 Y125.927 E34.08889
G0 F6000 X110.532 Y125.239
G1 F1200 X103.498 Y118.206 E34.41973
G0 F6000 X103.496 Y117.638
G1 F1200 X110.41 Y124.552 E34.74494
G0 F6000 X110.288 Y123.864
G1 F1200 X103.494 Y117.07 E35.06451
G0 F6000 X103.492 Y116.502
G1 F1200 X110.166 Y123.177 E35.37846
G0 F6000 X110.044 Y122.489
G1 F1200 X103.49 Y115.935 E35.68674
G0 F6000 X103.487 Y115.366
G1 F1200 X109.921 Y121.801 E35.9894
G0 F6000 X109.8 Y121.113
G1 F1200 X103.485 Y114.798 E36.28644
G0 F6000 X103.482 Y114.23
G1 F1200 X109.677 Y120.425 E36.57783
G0 F6000 X109.556 Y119.738
G1 F1200 X103.48 Y113.663 E36.8636
G0 F6000 X103.478 Y113.095
G1 F1200 X109.433 Y119.05 E37.14371
G0 F6000 X109.311 Y118.362
G1 F1200 X103.476 Y112.527 E37.41817
G0 F6000 X103.473 Y111.959
G1 F1200 X109.19 Y117.675 E37.68705
G0 F6000 X109.067 Y116.987
G1 F1200 X103.471 Y111.391 E37.95027
G0 F6000 X103.469 Y110.823
G1 F1200 X108.946 Y116.299 E38.20787
G0 F6000 X108.823 Y115.611
G1 F1200 X103.467 Y110.255 E38.4598
G0 F6000 X103.465 Y109.687
G1 F1200 X108.701 Y114.923 E38.70609
G0 F6000 X108.579 Y114.236
G1 F1200 X103.462 Y109.119 E38.94677
G0 F6000 X103.46 Y108.551
G1 F1200 X108.457 Y113.548 E39.18182
G0 F6000 X108.335 Y112.861
G1 F1200 X103.458 Y107.983 E39.41124
G0 F6000 X103.456 Y107.415
G1 F1200 X108.213 Y112.173 E39.63502
G0 F6000 X108.091 Y111.485
G1 F1200 X103.453 Y106.848 E39.85315
G0 F6000 X103.451 Y106.279
G1 F1200 X107.969 Y110.797 E40.06567
G0 F6000 X107.847 Y110.109
G1 F1200 X103.449 Y105.711 E40.27253
G0 F6000 X103.446 Y105.143
G1 F1200 X107.725 Y109.422 E40.4738
G0 F6000 X107.603 Y108.734
G1 F1200 X103.444 Y104.576 E40.66941
G0 F6000 X103.442 Y104.008
G1 F1200 X107.48 Y108.046 E40.85934
G0 F6000 X107.359 Y107.359
G1 F1200 X103.44 Y103.44 E41.04368
G0 F6000 X103.437 Y102.872
G1 F1200 X107.236 Y106.671 E41.22237
G0 F6000 X107.115 Y105.983
G1 F1200 X103.435 Y102.304 E41.39545
G0 F6000 X103.433 Y101.736
G1 F1200 X106.993 Y105.295 E41.56287
G0 F6000 X106.897 Y104.634
G1 F1200 X103.431 Y101.168 E41.7259
G0 F6000 X103.429 Y100.6
G1 F1200 X107.297 Y104.469 E41.90787
G0 F6000 X107.697 Y104.303
G1 F1200 X103.426 Y100.032 E42.10876
G0 F6000 X103.424 Y99.464
G1 F1200 X108.097 Y104.137 E42.32857
G0 F6000 X108.497 Y103.971
G1 F1200 X103.422 Y98.896 E42.56728
G0 F6000 X103.42 Y98.328
G1 F1200 X116.558 Y111.467 E43.18527
G0 F6000 X116.558 Y110.901
G1 F1200 X103.417 Y97.761 E43.80336
G0 F6000 X103.415 Y97.193
G1 F1200 X116.558 Y110.335 E44.42154
G0 F6000 X116.558 Y109.769
G1 F1200 X103.412 Y96.624 E45.03987
G0 F6000 X103.41 Y96.056
G1 F1200 X116.558 Y109.204 E45.65831
G0 F6000 X116.557 Y108.637
G1 F1200 X103.408 Y95.489 E46.27677
G0 F6000 X103.406 Y94.921
G1 F1200 X116.557 Y108.072 E46.89536
G0 F6000 X116.557 Y107.506
G1 F1200 X103.404 Y94.353 E47.51403
G0 F6000 X103.401 Y93.784
G1 F1200 X116.557 Y106.94 E48.13285
G0 F6000 X116.556 Y106.374
G1 F1200 X103.399 Y93.217 E48.75172
G0 F6000 X103.397 Y92.649
G1 F1200 X116.556 Y105.808 E49.37068
G0 F6000 X116.556 Y105.242
G1 F1200 X103.395 Y92.081 E49.98973
G0 F6000 X103.393 Y91.513
G1 F1200 X116.556 Y104.677 E50.6089
G0 F6000 X116.555 Y104.11
G1 F1200 X103.748 Y91.303 E51.2113
G0 F6000 X104.31 Y91.3
G1 F1200 X116.555 Y103.545 E51.78727
G0 F6000 X116.555 Y102.979
G1 F1200 X104.873 Y91.296 E52.33678
G0 F6000 X105.435 Y91.293
G1 F1200 X116.555 Y102.413 E52.85983
G0 F6000 X116.555 Y101.847
G1 F1200 X105.998 Y91.29 E53.3564
G0 F6000 X106.56 Y91.287
G1 F1200 X116.555 Y101.281 E53.82651
G0 F6000 X116.555 Y100.716
G1 F1200 X107.123 Y91.283 E54.27018
G0 F6000 X107.685 Y91.28
G1 F1200 X116.555 Y100.15 E54.6874
G0 F6000 X116.554 Y99.583
G1 F1200 X108.248 Y91.277 E55.07809
G0 F6000 X108.81 Y91.274
G1 F1200 X116.554 Y99.018 E55.44234
G0 F6000 X116.554 Y98.452
G1 F1200 X109.372 Y91.27 E55.78016
G0 F6000 X109.935 Y91.267
G1 F1200 X116.554 Y97.886 E56.0915
G0 F6000 X116.553 Y97.32
G1 F1200 X110.497 Y91.264 E56.37636
G0 F6000 X111.06 Y91.261
G1 F1200 X116.553 Y96.754 E56.63473
G0 F6000 X116.553 Y96.189
G1 F1200 X111.622 Y91.257 E56.86669
G0 F6000 X112.184 Y91.254
G1 F1200 X116.553 Y95.623 E57.0722
G0 F6000 X116.553 Y95.057
G1 F1200 X112.747 Y91.251 E57.25122
G0 F6000 X113.309 Y91.247
G1 F1200 X116.553 Y94.491 E57.40381
G0 F6000 X116.553 Y93.925
G1 F1200 X113.871 Y91.244 E57.52994
G0 F6000 X114.434 Y91.241
G1 F1200 X116.552 Y93.359 E57.62956
G0 F6000 X116.552 Y92.793
G1 F1200 X114.996 Y91.237 E57.70275
G0 F6000 X115.559 Y91.235
G1 F1200 X116.552 Y92.227 E57.74944
G0 F6000 X116.552 Y91.662
G1 F1200 X116.121 Y91.231 E57.76971
G1 F2700 E52.76971
G0 F6000 X116.12 Y90.791
G0 X116.92 Y90.859
G0 X116.911 Y116.518
G0 X108.509 Y104.594
G0 X108.869 Y104.344
