;FLAVOR:Marlin
;TIME:3985
;Filament used: 3.1831m
;Layer height: 0.2
;MINX:88
;MINY:77.013
;MINZ:0.2
;MAXX:132
;MAXY:142.997
;MAXZ:31.6
;Generated with Cura_SteamEngine 4.6.1
M140 S52
M105
M190 S52
M104 S203
M105
M109 S203
M82 ;absolute extrusion mode
M201 X500.00 Y500.00 Z100.00 E5000.00 ;Setup machine max acceleration
M203 X500.00 Y500.00 Z10.00 E50.00 ;Setup machine max feedrate
M204 P500.00 R1000.00 T500.00 ;Setup Print/Retract/Travel acceleration
M205 X8.00 Y8.00 Z0.40 E5.00 ;Setup Jerk
M220 S100 ;Reset Feedrate
M221 S100 ;Reset Flowrate

G28 ;Home

G92 E0 ;Reset Extruder
G1 Z2.0 F3000 ;Move Z Axis up
G1 X10.1 Y20 Z0.28 F5000.0 ;Move to start position
G1 X10.1 Y200.0 Z0.28 F1500.0 E15 ;Draw the first line
G1 X10.4 Y200.0 Z0.28 F5000.0 ;Move to side a little
G1 X10.4 Y20 Z0.28 F1500.0 E30 ;Draw the second line
G92 E0 ;Reset Extruder
G1 Z2.0 F3000 ;Move Z Axis up

G92 E0
G92 E0
G1 F2700 E-5
;LAYER_COUNT:158
;LAYER:0
M107
G0 F6000 X118.847 Y77.962 Z0.2
;TYPE:SKIRT
G1 F2700 E0
G1 F1200 X119.741 Y78.088 E0.03003
G1 X120.62 Y78.293 E0.06005
G1 X121.478 Y78.574 E0.09008
G1 X122.308 Y78.931 E0.12013
G1 X123.135 Y79.378 E0.1514
G1 X124.491 Y80.195 E0.20405
G1 X125.243 Y80.695 E0.23409
G1 X125.948 Y81.26 E0.26413
G1 X126.6 Y81.884 E0.29415
G1 X127.195 Y82.564 E0.3242
G1 X127.601 Y83.108 E0.34678
G1 X128.496 Y84.401 E0.39908
G1 X128.855 Y84.945 E0.42076
G1 X129.319 Y85.72 E0.45081
G1 X129.712 Y86.533 E0.48084
G1 X129.901 Y87.003 E0.49769
G1 X130.098 Y87.532 E0.51646
G1 X130.2 Y87.821 E0.52666
G1 X130.352 Y88.27 E0.54242
G1 X130.654 Y89.354 E0.57985
G1 X130.782 Y89.937 E0.5997
G1 X130.848 Y90.266 E0.61086
G1 X130.946 Y90.795 E0.62876
G1 X131.066 Y91.638 E0.65708
G1 X131.125 Y92.303 E0.67928
G1 X131.164 Y93.015 E0.703
G1 X131.176 Y93.352 E0.71422
G1 X131.2 Y94.732 E0.76012
G1 X131.195 Y125.747 E1.79168
G1 X131.188 Y126.213 E1.80719
G1 X131.178 Y126.531 E1.81777
G1 X131.136 Y127.439 E1.848
G1 X131.091 Y128.066 E1.86891
G1 X130.977 Y128.972 E1.89928
G1 X130.849 Y129.714 E1.92432
G1 X130.773 Y130.107 E1.93764
G1 X130.676 Y130.562 E1.95311
G1 X130.449 Y131.436 E1.98314
G1 X130.13 Y132.322 E2.01446
G1 X129.803 Y133.105 E2.04269
G1 X129.447 Y133.904 E2.07178
G1 X129.17 Y134.506 E2.09382
G1 X128.757 Y135.309 E2.12385
G1 X128.274 Y136.072 E2.15389
G1 X127.467 Y137.086 E2.19699
G1 X126.944 Y137.664 E2.22292
G1 X126.614 Y138.012 E2.23887
G1 X126.356 Y138.27 E2.251
G1 X125.826 Y138.791 E2.27572
G1 X125.155 Y139.395 E2.30575
G1 X124.433 Y139.937 E2.33578
G1 X123.665 Y140.413 E2.36583
G1 X122.903 Y140.8 E2.39426
G1 X122.679 Y140.902 E2.40244
G1 X121.484 Y141.358 E2.44498
G1 X120.898 Y141.538 E2.46537
G1 X120.041 Y141.785 E2.49504
G1 X119.163 Y141.996 E2.52507
G1 X118.27 Y142.129 E2.5551
G1 X117.436 Y142.182 E2.58289
G1 X116.614 Y142.197 E2.61024
G1 X115.865 Y142.197 E2.63515
G1 X102.66 Y142.1 E3.07436
G1 X101.913 Y142.084 E3.09921
G1 X101.011 Y142.024 E3.12928
G1 X100.119 Y141.886 E3.1593
G1 X99.242 Y141.668 E3.18936
G1 X98.388 Y141.375 E3.21939
G1 X97.564 Y141.006 E3.24942
G1 X96.966 Y140.682 E3.27204
G1 X96.077 Y140.16 E3.30633
G1 X95.724 Y139.942 E3.32013
G1 X95.197 Y139.603 E3.34097
G1 X94.46 Y139.082 E3.37099
G1 X93.772 Y138.497 E3.40102
G1 X93.138 Y137.853 E3.43108
G1 X92.564 Y137.156 E3.46111
G1 X92.298 Y136.787 E3.47624
G1 X91.743 Y135.974 E3.50898
G1 X91.446 Y135.523 E3.52694
G1 X91.073 Y134.942 E3.54991
G1 X90.619 Y134.162 E3.57992
G1 X90.166 Y133.171 E3.61616
G1 X90.049 Y132.874 E3.62678
G1 X89.889 Y132.438 E3.64223
G1 X89.672 Y131.804 E3.66452
G1 X89.345 Y130.623 E3.70527
G1 X89.095 Y129.427 E3.74591
G1 X89.055 Y129.211 E3.75322
G1 X88.932 Y128.342 E3.78241
G1 X88.907 Y128.085 E3.791
G1 X88.876 Y127.677 E3.80461
G1 X88.838 Y127.01 E3.82683
G1 X88.823 Y126.623 E3.83971
G1 X88.8 Y125.319 E3.88309
G1 X88.801 Y94.328 E4.91385
G1 X88.808 Y93.849 E4.92979
G1 X88.818 Y93.518 E4.9408
G1 X88.863 Y92.562 E4.97263
G1 X88.885 Y92.22 E4.98403
G1 X88.917 Y91.824 E4.99725
G1 X89.042 Y90.86 E5.02958
G1 X89.116 Y90.444 E5.04363
G1 X89.185 Y90.089 E5.05566
G1 X89.328 Y89.423 E5.07831
G1 X89.557 Y88.549 E5.10836
G1 X89.834 Y87.768 E5.13593
G1 X90.163 Y86.981 E5.1643
G1 X90.527 Y86.159 E5.1942
G1 X90.825 Y85.507 E5.21804
G1 X91.236 Y84.703 E5.24807
G1 X91.717 Y83.939 E5.2781
G1 X92.264 Y83.22 E5.30815
G1 X92.749 Y82.678 E5.33234
G1 X93.503 Y81.894 E5.36852
G1 X94.025 Y81.36 E5.39336
G1 X94.684 Y80.743 E5.42338
G1 X95.396 Y80.186 E5.45345
G1 X96.153 Y79.695 E5.48346
G1 X96.951 Y79.272 E5.5135
G1 X98.191 Y78.781 E5.55786
G1 X98.579 Y78.656 E5.57141
G1 X99.757 Y78.276 E5.61258
G1 X100.631 Y78.049 E5.64262
G1 X101.521 Y77.899 E5.67264
G1 X102.645 Y77.825 E5.7101
G1 X103.818 Y77.813 E5.74912
G1 X117.945 Y77.915 E6.219
G1 X118.847 Y77.962 E6.24904
G0 F6000 X118.867 Y77.562
G1 F1200 X119.779 Y77.688 E6.27966
G1 X120.677 Y77.893 E6.31029
G1 X121.553 Y78.175 E6.3409
G1 X122.402 Y78.532 E6.37153
G1 X123.341 Y79.036 E6.40698
G1 X124.697 Y79.853 E6.45963
G1 X125.465 Y80.362 E6.49028
G1 X126.185 Y80.935 E6.52088
G1 X126.852 Y81.569 E6.55149
G1 X127.463 Y82.258 E6.58212
G1 X127.929 Y82.88 E6.60797
G1 X128.83 Y84.181 E6.66061
G1 X129.189 Y84.725 E6.68228
G1 X129.662 Y85.514 E6.71288
G1 X130.065 Y86.342 E6.74351
G1 X130.276 Y86.864 E6.76224
G1 X130.473 Y87.393 E6.78101
G1 X130.579 Y87.693 E6.79159
G1 X130.731 Y88.142 E6.80736
G1 X131.044 Y89.268 E6.84623
G1 X131.242 Y90.193 E6.87769
G1 X131.34 Y90.722 E6.89559
G1 X131.464 Y91.598 E6.92501
G1 X131.524 Y92.273 E6.94755
G1 X131.54 Y92.529 E6.95608
G1 X131.564 Y92.995 E6.9716
G1 X131.576 Y93.344 E6.98322
G1 X131.6 Y94.732 E7.02939
G1 X131.595 Y125.753 E8.06115
G1 X131.588 Y126.219 E8.07665
G1 X131.578 Y126.55 E8.08767
G1 X131.536 Y127.458 E8.1179
G1 X131.49 Y128.099 E8.13927
G1 X131.371 Y129.04 E8.17082
G1 X131.243 Y129.782 E8.19587
G1 X131.164 Y130.19 E8.20969
G1 X131.067 Y130.645 E8.22516
G1 X130.836 Y131.536 E8.25578
G1 X130.5 Y132.475 E8.28895
G1 X130.169 Y133.268 E8.31753
G1 X129.811 Y134.071 E8.34677
G1 X129.534 Y134.673 E8.36881
G1 X129.113 Y135.492 E8.39944
G1 X128.622 Y136.271 E8.43006
G1 X128.066 Y137.005 E8.46069
G1 X127.764 Y137.354 E8.47604
G1 X127.241 Y137.932 E8.50197
G1 X126.898 Y138.294 E8.51855
G1 X126.637 Y138.555 E8.53083
G1 X126.107 Y139.076 E8.55555
G1 X125.423 Y139.693 E8.58619
G1 X124.688 Y140.247 E8.6168
G1 X123.908 Y140.736 E8.64742
G1 X123.069 Y141.164 E8.67875
G1 X122.845 Y141.266 E8.68693
G1 X121.603 Y141.74 E8.73115
G1 X121.009 Y141.922 E8.75181
G1 X120.152 Y142.169 E8.78147
G1 X119.257 Y142.386 E8.8121
G1 X118.346 Y142.524 E8.84275
G1 X117.445 Y142.582 E8.87278
G1 X116.614 Y142.597 E8.90042
G1 X115.862 Y142.597 E8.92544
G1 X102.651 Y142.5 E9.36485
G1 X101.904 Y142.484 E9.3897
G1 X100.985 Y142.424 E9.42033
G1 X100.075 Y142.285 E9.45095
G1 X99.181 Y142.067 E9.48155
G1 X98.308 Y141.773 E9.51219
G1 X97.465 Y141.404 E9.5428
G1 X96.764 Y141.027 E9.56927
G1 X95.875 Y140.505 E9.60356
G1 X95.507 Y140.279 E9.61792
G1 X94.98 Y139.94 E9.63876
G1 X94.228 Y139.409 E9.66938
G1 X93.525 Y138.814 E9.70002
G1 X92.877 Y138.161 E9.73061
G1 X92.287 Y137.454 E9.76124
G1 X91.968 Y137.012 E9.77937
G1 X91.41 Y136.195 E9.81228
G1 X91.109 Y135.74 E9.83042
G1 X90.736 Y135.159 E9.85339
G1 X90.273 Y134.363 E9.88401
G1 X89.794 Y133.317 E9.92228
G1 X89.677 Y133.02 E9.9329
G1 X89.51 Y132.568 E9.94892
G1 X89.293 Y131.934 E9.97121
G1 X88.954 Y130.706 E10.01358
G1 X88.701 Y129.5 E10.05457
G1 X88.661 Y129.284 E10.06187
G1 X88.534 Y128.38 E10.09224
G1 X88.509 Y128.123 E10.10082
G1 X88.476 Y127.7 E10.11494
G1 X88.438 Y127.033 E10.13716
G1 X88.423 Y126.63 E10.15057
G1 X88.4 Y125.319 E10.19418
G1 X88.401 Y94.322 E11.22514
G1 X88.408 Y93.843 E11.24108
G1 X88.419 Y93.5 E11.25249
G1 X88.464 Y92.544 E11.28432
G1 X88.486 Y92.188 E11.29619
G1 X88.518 Y91.792 E11.3094
G1 X88.648 Y90.79 E11.34301
G1 X88.722 Y90.374 E11.35706
G1 X88.794 Y90.005 E11.36956
G1 X88.937 Y89.339 E11.39222
G1 X89.169 Y88.448 E11.42284
G1 X89.463 Y87.619 E11.4521
G1 X89.639 Y87.186 E11.46764
G1 X89.797 Y86.82 E11.4809
G1 X90.163 Y85.993 E11.51098
G1 X90.461 Y85.341 E11.53483
G1 X90.88 Y84.521 E11.56545
G1 X91.368 Y83.74 E11.59608
G1 X91.922 Y83.005 E11.6267
G1 X92.46 Y82.401 E11.6536
G1 X93.217 Y81.614 E11.68992
G1 X93.739 Y81.08 E11.71476
G1 X94.411 Y80.451 E11.74537
G1 X95.134 Y79.881 E11.77599
G1 X95.904 Y79.377 E11.8066
G1 X96.716 Y78.942 E11.83724
G1 X97.562 Y78.578 E11.86787
G1 X98.069 Y78.401 E11.88573
G1 X98.402 Y78.294 E11.89737
G1 X99.639 Y77.894 E11.94061
G1 X100.53 Y77.661 E11.97124
G1 X101.437 Y77.507 E12.00184
G1 X102.641 Y77.425 E12.04197
G1 X103.821 Y77.413 E12.08122
G1 X117.948 Y77.515 E12.5511
G1 X118.867 Y77.562 E12.58171
G0 F6000 X118.887 Y77.162
G1 F1200 X119.816 Y77.288 E12.61289
G1 X120.732 Y77.493 E12.64411
G1 X121.626 Y77.776 E12.6753
G1 X122.493 Y78.133 E12.70648
G1 X123.548 Y78.693 E12.74621
G1 X124.904 Y79.51 E12.79886
G1 X125.686 Y80.028 E12.83006
G1 X126.421 Y80.61 E12.86124
G1 X127.104 Y81.253 E12.89244
G1 X127.729 Y81.952 E12.92363
G1 X128.258 Y82.651 E12.95279
G1 X129.164 Y83.96 E13.00573
G1 X129.523 Y84.504 E13.02741
G1 X130.006 Y85.308 E13.05861
G1 X130.418 Y86.151 E13.08982
G1 X130.65 Y86.724 E13.11038
G1 X130.958 Y87.565 E13.14017
G1 X131.11 Y88.014 E13.15593
G1 X131.435 Y89.182 E13.19626
G1 X131.563 Y89.765 E13.21611
G1 X131.635 Y90.12 E13.22816
G1 X131.733 Y90.649 E13.24605
G1 X131.862 Y91.558 E13.27659
G1 X131.923 Y92.242 E13.29943
G1 X131.963 Y92.974 E13.32381
G1 X131.976 Y93.337 E13.33589
G1 X132 Y94.732 E13.3823
G1 X131.995 Y125.759 E14.41426
G1 X131.988 Y126.225 E14.42976
G1 X131.977 Y126.568 E14.44117
G1 X131.935 Y127.476 E14.47141
G1 X131.911 Y127.861 E14.48424
G1 X131.889 Y128.131 E14.49325
G1 X131.765 Y129.108 E14.526
G1 X131.637 Y129.85 E14.55104
G1 X131.555 Y130.274 E14.56541
G1 X131.458 Y130.729 E14.58088
G1 X131.224 Y131.637 E14.61207
G1 X130.87 Y132.627 E14.64704
G1 X130.534 Y133.431 E14.67602
G1 X130.174 Y134.238 E14.70541
G1 X129.897 Y134.84 E14.72745
G1 X129.469 Y135.675 E14.75866
G1 X128.971 Y136.47 E14.78986
G1 X128.408 Y137.219 E14.82103
G1 X128.061 Y137.622 E14.83871
G1 X127.538 Y138.2 E14.86464
G1 X127.181 Y138.576 E14.88188
G1 X126.917 Y138.84 E14.8943
G1 X126.387 Y139.361 E14.91902
G1 X125.691 Y139.99 E14.95022
G1 X124.944 Y140.557 E14.98141
G1 X124.151 Y141.058 E15.01261
G1 X123.235 Y141.528 E15.04686
G1 X123.011 Y141.63 E15.05504
G1 X121.722 Y142.122 E15.10093
G1 X121.119 Y142.307 E15.12191
G1 X120.262 Y142.554 E15.15157
G1 X119.351 Y142.775 E15.18275
G1 X118.424 Y142.917 E15.21394
G1 X117.453 Y142.981 E15.24631
G1 X116.614 Y142.997 E15.27422
G1 X115.859 Y142.997 E15.29933
G1 X102.642 Y142.899 E15.73894
G1 X101.895 Y142.883 E15.76379
G1 X100.959 Y142.823 E15.79499
G1 X100.032 Y142.684 E15.82617
G1 X99.12 Y142.466 E15.85735
G1 X98.23 Y142.171 E15.88854
G1 X97.368 Y141.801 E15.91974
G1 X96.561 Y141.372 E15.95014
G1 X95.672 Y140.85 E15.98443
G1 X95.291 Y140.615 E15.99931
G1 X94.764 Y140.276 E16.02016
G1 X93.998 Y139.736 E16.05133
G1 X93.28 Y139.132 E16.08253
G1 X92.616 Y138.469 E16.11374
G1 X92.012 Y137.752 E16.14492
G1 X91.638 Y137.238 E16.16607
G1 X91.076 Y136.416 E16.19919
G1 X90.772 Y135.956 E16.21752
G1 X90.399 Y135.375 E16.24049
G1 X89.927 Y134.565 E16.27167
G1 X89.422 Y133.464 E16.31196
G1 X89.305 Y133.167 E16.32257
G1 X89.132 Y132.697 E16.33923
G1 X88.915 Y132.063 E16.36152
G1 X88.563 Y130.789 E16.40548
G1 X88.308 Y129.573 E16.4468
G1 X88.268 Y129.357 E16.45411
G1 X88.136 Y128.419 E16.48562
G1 X88.111 Y128.162 E16.4942
G1 X88.077 Y127.723 E16.50885
G1 X88.039 Y127.056 E16.53107
G1 X88.023 Y126.638 E16.54498
G1 X88 Y125.319 E16.58886
G1 X88.001 Y94.316 E17.62002
G1 X88.008 Y93.837 E17.63596
G1 X88.019 Y93.481 E17.6478
G1 X88.064 Y92.525 E17.67963
G1 X88.088 Y92.156 E17.69193
G1 X88.12 Y91.76 E17.70515
G1 X88.254 Y90.72 E17.74002
G1 X88.328 Y90.304 E17.75408
G1 X88.403 Y89.921 E17.76706
G1 X88.546 Y89.255 E17.78971
G1 X88.782 Y88.347 E17.82092
G1 X89.091 Y87.47 E17.85184
G1 X89.431 Y86.658 E17.88112
G1 X89.799 Y85.826 E17.91138
G1 X90.097 Y85.174 E17.93523
G1 X90.523 Y84.339 E17.9664
G1 X91.019 Y83.542 E17.99763
G1 X91.58 Y82.791 E18.0288
G1 X92.172 Y82.124 E18.05847
G1 X92.931 Y81.335 E18.09488
G1 X93.453 Y80.801 E18.11972
G1 X94.137 Y80.159 E18.15092
G1 X94.872 Y79.577 E18.1821
G1 X95.655 Y79.06 E18.21331
G1 X96.479 Y78.612 E18.2445
G1 X97.338 Y78.236 E18.27569
G1 X97.946 Y78.02 E18.29715
G1 X98.334 Y77.895 E18.31071
G1 X99.521 Y77.511 E18.3522
G1 X100.429 Y77.274 E18.38342
G1 X101.353 Y77.114 E18.4146
G1 X102.636 Y77.025 E18.45738
G1 X103.823 Y77.013 E18.49686
G1 X117.95 Y77.115 E18.96674
G1 X118.887 Y77.162 E18.99794
G1 F2700 E13.99794
;MESH:Combined-3.stl
G0 F6000 X117.009 Y87.446
G0 X117.007 Y88.53
G0 X102.981 Y88.779
G0 X101.774 Y89.141
G0 X100.741 Y90.181
G0 X100.029 Y91.797
G0 X99.839 Y92.745
G0 X99.771 Y93.807
G0 X99.771 Y126.193
G0 X99.84 Y127.259
G0 X100.034 Y128.219
G0 X100.339 Y129.088
G0 X101.249 Y130.46
G0 X102.267 Y131.297
;TYPE:WALL-INNER
G1 F2700 E18.99794
G1 F1200 X101.126 Y130.586 E19.04266
G1 X100.185 Y129.166 E19.09932
G1 X99.868 Y128.261 E19.13121
G1 X99.67 Y127.28 E19.1645
G1 X99.6 Y126.206 E19.20029
G1 X99.6 Y93.794 E20.27832
G1 X99.669 Y92.726 E20.31392
G1 X99.865 Y91.746 E20.34716
G1 X100.598 Y90.083 E20.4076
G1 X101.682 Y88.99 E20.4588
G1 X102.957 Y88.608 E20.50307
G1 X117.008 Y88.711 E20.97042
G1 X117.707 Y88.706 E20.99367
G1 X118.865 Y89.43 E21.0391
G1 X119.772 Y90.799 E21.09372
G1 X119.825 Y90.864 E21.09651
G1 X120.13 Y91.722 E21.12679
G1 X120.33 Y92.72 E21.16065
G1 X120.4 Y93.794 E21.19644
G1 X120.396 Y126.27 E22.2766
G1 X120.326 Y127.299 E22.3109
G1 X120.13 Y128.273 E22.34395
G1 X119.378 Y129.971 E22.40571
G1 X118.321 Y131.036 E22.45562
G1 X117.127 Y131.393 E22.49707
G1 X116.348 Y131.4 E22.52298
G1 X102.267 Y131.297 E22.99133
G0 F6000 X102.168 Y131.696
;TYPE:WALL-OUTER
G1 F1200 X102.102 Y131.666 E22.99374
G1 X100.842 Y130.881 E23.04312
G1 X99.824 Y129.344 E23.10443
G1 X99.484 Y128.386 E23.13824
G1 X99.475 Y128.337 E23.1399
G1 X99.273 Y127.333 E23.17396
G1 X99.2 Y126.217 E23.21116
G1 X99.2 Y93.783 E24.28992
G1 X99.272 Y92.675 E24.32685
G1 X99.482 Y91.624 E24.3625
G1 X100.262 Y89.855 E24.4268
G1 X101.417 Y88.689 E24.48139
G1 X101.449 Y88.642 E24.48328
G1 X102.787 Y88.241 E24.52974
G1 X102.841 Y88.206 E24.53188
G1 X117.008 Y88.311 E25.00309
G1 X117.82 Y88.305 E25.03009
G1 X119.093 Y89.1 E25.08001
G1 X119.135 Y89.113 E25.08147
G1 X120.094 Y90.561 E25.13924
G1 X120.179 Y90.665 E25.14371
G1 X120.516 Y91.614 E25.1772
G1 X120.727 Y92.667 E25.21292
G1 X120.8 Y93.783 E25.25012
G1 X120.796 Y126.282 E26.33104
G1 X120.726 Y127.335 E26.36614
G1 X120.718 Y127.378 E26.3676
G1 X120.516 Y128.383 E26.40169
G1 X120.502 Y128.422 E26.40307
G1 X119.732 Y130.16 E26.46629
G1 X119.689 Y130.226 E26.46891
G1 X118.552 Y131.371 E26.52258
G1 X118.512 Y131.396 E26.52415
G1 X117.187 Y131.793 E26.57016
G1 X116.348 Y131.8 E26.59806
G1 X102.168 Y131.696 E27.0697
G0 F6000 X102.263 Y131.267
G0 X102.38 Y130.907
;TYPE:SKIN
G1 F1200 X101.404 Y130.3 E27.10793
G1 X100.537 Y128.992 E27.16013
G1 X100.245 Y128.157 E27.18955
G1 X100.058 Y127.235 E27.22084
G1 X99.99 Y126.181 E27.25597
G1 X99.99 Y93.819 E28.33233
G1 X100.058 Y92.767 E28.36739
G1 X100.237 Y91.868 E28.39788
G1 X100.926 Y90.307 E28.45463
G1 X101.89 Y89.335 E28.50017
G1 X103.014 Y88.998 E28.53919
G1 X117.008 Y89.101 E29.00465
G1 X117.596 Y89.096 E29.02421
G1 X118.588 Y89.717 E29.06313
G1 X119.481 Y91.058 E29.11672
G1 X119.754 Y91.828 E29.14389
G1 X119.94 Y92.758 E29.17544
G1 X120.01 Y93.819 E29.2108
G1 X120.006 Y126.243 E30.28923
G1 X119.938 Y127.256 E30.323
G1 X119.758 Y128.15 E30.35333
G1 X119.05 Y129.747 E30.41143
G1 X118.114 Y130.691 E30.45564
G1 X117.068 Y131.003 E30.49195
G1 X116.346 Y131.01 E30.51596
G1 X102.38 Y130.907 E30.98049
G0 F6000 X102.461 Y130.746
G1 F1200 X100.773 Y129.057 E31.05991
G0 F6000 X100.406 Y129.3
G0 X99.969 Y128.205
G0 X100.401 Y128.119
G1 F1200 X103.031 Y130.75 E31.18364
G0 F6000 X103.601 Y130.754
G1 F1200 X100.255 Y127.408 E31.34103
G0 F6000 X100.188 Y126.775
G1 F1200 X104.171 Y130.758 E31.52837
G0 F6000 X104.741 Y130.763
G1 F1200 X100.149 Y126.171 E31.74437
G0 F6000 X100.149 Y125.605
