;FLAVOR:Marlin
;TIME:5857
;Filament used: 7.6711m
;Layer height: 0.28
;MINX:27.748
;MINY:41.849
;MINZ:0.28
;MAXX:192.252
;MAXY:178.149
;MAXZ:1.96
;Generated with Cura_SteamEngine 4.6.1
M140 S50
M105
M190 S50
M104 S200
M105
M109 S200
M82 ;absolute extrusion mode
M201 X500.00 Y500.00 Z100.00 E5000.00 ;Setup machine max acceleration
M203 X500.00 Y500.00 Z10.00 E50.00 ;Setup machine max feedrate
M204 P500.00 R1000.00 T500.00 ;Setup Print/Retract/Travel acceleration
M205 X8.00 Y8.00 Z0.40 E5.00 ;Setup Jerk
M220 S100 ;Reset Feedrate
M221 S100 ;Reset Flowrate

G28 ;Home

G92 E0 ;Reset Extruder
G1 Z2.0 F3000 ;Move Z Axis up
G1 X10.1 Y20 Z0.28 F5000.0 ;Move to start position
G1 X10.1 Y200.0 Z0.28 F1500.0 E15 ;Draw the first line
G1 X10.4 Y200.0 Z0.28 F5000.0 ;Move to side a little
G1 X10.4 Y20 Z0.28 F1500.0 E30 ;Draw the second line
G92 E0 ;Reset Extruder
G1 Z2.0 F3000 ;Move Z Axis up

G92 E0
G92 E0
G1 F2700 E-5
;LAYER_COUNT:7
;LAYER:0
M107
G0 F6000 X181.387 Y42.66 Z0.28
;TYPE:SKIRT
G1 F2700 E0
G1 F1200 X182.289 Y42.713 E0.04207
G1 X183.182 Y42.845 E0.08411
G1 X184.06 Y43.056 E0.12615
G1 X184.916 Y43.344 E0.16821
G1 X185.743 Y43.706 E0.21025
G1 X186.535 Y44.141 E0.25232
G1 X187.286 Y44.643 E0.29438
G1 X187.989 Y45.21 E0.33644
G1 X188.639 Y45.837 E0.37849
G1 X189.231 Y46.519 E0.42054
G1 X189.761 Y47.25 E0.46259
G1 X190.223 Y48.026 E0.50464
G1 X190.616 Y48.839 E0.54669
G1 X190.934 Y49.684 E0.58873
G1 X191.177 Y50.554 E0.63079
G1 X191.342 Y51.442 E0.67285
G1 X191.437 Y52.572 E0.72565
G1 X191.45 Y53.177 E0.75383
G1 X191.452 Y57.823 E0.97016
G1 X191.452 Y122.774 E3.99456
G1 X191.449 Y166.555 E6.03318
G1 X191.439 Y167.282 E6.06704
G1 X191.387 Y168.184 E6.10911
G1 X191.255 Y169.077 E6.15114
G1 X191.044 Y169.956 E6.19323
G1 X190.757 Y170.812 E6.23527
G1 X190.395 Y171.639 E6.27731
G1 X189.961 Y172.431 E6.31936
G1 X189.459 Y173.182 E6.36143
G1 X188.893 Y173.885 E6.40345
G1 X188.266 Y174.536 E6.44554
G1 X187.585 Y175.128 E6.48756
G1 X186.854 Y175.658 E6.5296
G1 X186.078 Y176.121 E6.57168
G1 X185.265 Y176.514 E6.61372
G1 X184.42 Y176.834 E6.6558
G1 X183.551 Y177.077 E6.69781
G1 X182.663 Y177.242 E6.73987
G1 X181.518 Y177.338 E6.79337
G1 X180.954 Y177.349 E6.81964
G1 X117.541 Y177.166 E9.77243
G1 X51.228 Y176.974 E12.86025
G1 X39.269 Y176.938 E13.41712
G1 X38.604 Y176.927 E13.44808
G1 X37.703 Y176.872 E13.49012
G1 X36.81 Y176.737 E13.53217
G1 X35.932 Y176.524 E13.57424
G1 X35.077 Y176.235 E13.61627
G1 X34.25 Y175.871 E13.65834
G1 X33.459 Y175.435 E13.7004
G1 X32.71 Y174.931 E13.74243
G1 X32.008 Y174.362 E13.78451
G1 X31.36 Y173.734 E13.82653
G1 X30.769 Y173.051 E13.86859
G1 X30.241 Y172.318 E13.91065
G1 X29.78 Y171.541 E13.95272
G1 X29.39 Y170.727 E13.99475
G1 X29.073 Y169.881 E14.03682
G1 X28.832 Y169.011 E14.07885
G1 X28.669 Y168.123 E14.12089
G1 X28.576 Y166.962 E14.17513
G1 X28.55 Y165.724 E14.23279
G1 X28.548 Y102.241 E17.18882
G1 X28.551 Y53.37 E19.46446
G1 X28.561 Y52.705 E19.49543
G1 X28.615 Y51.803 E19.5375
G1 X28.748 Y50.91 E19.57954
G1 X28.959 Y50.032 E19.62159
G1 X29.248 Y49.176 E19.66366
G1 X29.611 Y48.349 E19.70572
G1 X30.045 Y47.558 E19.74773
G1 X30.548 Y46.807 E19.78982
G1 X31.116 Y46.105 E19.83187
G1 X31.743 Y45.455 E19.87392
G1 X32.425 Y44.863 E19.91597
G1 X33.157 Y44.334 E19.95802
G1 X33.933 Y43.872 E20.00008
G1 X34.747 Y43.481 E20.04213
G1 X35.592 Y43.162 E20.08418
G1 X36.462 Y42.92 E20.12623
G1 X37.35 Y42.756 E20.16828
G1 X38.473 Y42.662 E20.22076
G1 X39.08 Y42.649 E20.24903
G1 X180.543 Y42.649 E26.83614
G1 X180.689 Y42.65 E26.84293
G1 X181.387 Y42.66 E26.87544
G0 F6000 X181.393 Y42.26
G1 F1200 X182.312 Y42.313 E26.9183
G1 X183.223 Y42.446 E26.96117
G1 X184.119 Y42.657 E27.00404
G1 X184.993 Y42.945 E27.04689
G1 X185.84 Y43.308 E27.08979
G1 X186.651 Y43.743 E27.13265
G1 X187.421 Y44.247 E27.1755
G1 X188.145 Y44.816 E27.21838
G1 X188.817 Y45.446 E27.26127
G1 X189.432 Y46.131 E27.30414
G1 X189.985 Y46.867 E27.347
G1 X190.472 Y47.648 E27.38986
G1 X190.889 Y48.469 E27.43274
G1 X191.234 Y49.323 E27.47563
G1 X191.503 Y50.203 E27.51847
G1 X191.695 Y51.104 E27.56137
G1 X191.808 Y52.017 E27.60421
G1 X191.837 Y52.561 E27.62957
G1 X191.85 Y53.176 E27.65822
G1 X191.852 Y57.822 E27.87456
G1 X191.852 Y122.774 E30.89899
G1 X191.849 Y166.561 E32.9379
G1 X191.839 Y167.288 E32.97175
G1 X191.786 Y168.207 E33.01462
G1 X191.654 Y169.118 E33.05748
G1 X191.443 Y170.014 E33.10034
G1 X191.156 Y170.889 E33.14322
G1 X190.793 Y171.735 E33.18609
G1 X190.359 Y172.547 E33.22896
G1 X189.855 Y173.318 E33.27185
G1 X189.287 Y174.042 E33.3147
G1 X188.658 Y174.714 E33.35756
G1 X187.973 Y175.329 E33.40043
G1 X187.237 Y175.882 E33.44329
G1 X186.456 Y176.37 E33.48618
G1 X185.636 Y176.788 E33.52903
G1 X184.782 Y177.133 E33.57192
G1 X183.902 Y177.402 E33.61477
G1 X183.001 Y177.595 E33.65768
G1 X182.088 Y177.708 E33.70051
G1 X181.529 Y177.738 E33.72658
G1 X180.952 Y177.749 E33.75345
G1 X117.539 Y177.566 E36.70624
G1 X51.226 Y177.374 E39.79406
G1 X39.263 Y177.338 E40.35111
G1 X38.598 Y177.327 E40.38208
G1 X37.679 Y177.271 E40.42496
G1 X36.768 Y177.137 E40.46783
G1 X35.872 Y176.923 E40.51073
G1 X34.999 Y176.633 E40.55356
G1 X34.153 Y176.268 E40.59646
G1 X33.343 Y175.832 E40.6393
G1 X32.573 Y175.326 E40.6822
G1 X31.851 Y174.756 E40.72504
G1 X31.18 Y174.125 E40.76792
G1 X30.567 Y173.438 E40.8108
G1 X30.016 Y172.701 E40.85365
G1 X29.531 Y171.918 E40.89653
G1 X29.115 Y171.097 E40.93939
G1 X28.772 Y170.242 E40.98229
G1 X28.505 Y169.361 E41.02515
G1 X28.315 Y168.46 E41.06803
G1 X28.205 Y167.546 E41.1109
G1 X28.176 Y166.971 E41.1377
G1 X28.15 Y165.724 E41.19578
G1 X28.148 Y102.241 E44.15182
G1 X28.151 Y53.364 E46.42774
G1 X28.161 Y52.699 E46.4587
G1 X28.215 Y51.78 E46.50157
G1 X28.348 Y50.869 E46.54444
G1 X28.56 Y49.973 E46.58731
G1 X28.849 Y49.098 E46.63022
G1 X29.213 Y48.253 E46.67306
G1 X29.648 Y47.442 E46.71592
G1 X30.153 Y46.671 E46.75883
G1 X30.722 Y45.948 E46.80167
G1 X31.352 Y45.276 E46.84457
G1 X32.038 Y44.662 E46.88744
G1 X32.774 Y44.11 E46.93027
G1 X33.556 Y43.623 E46.97317
G1 X34.377 Y43.207 E47.01603
G1 X35.231 Y42.863 E47.0589
G1 X36.111 Y42.594 E47.10175
G1 X37.012 Y42.403 E47.14463
G1 X37.926 Y42.291 E47.18751
G1 X38.462 Y42.262 E47.21251
G1 X39.08 Y42.249 E47.24129
G1 X180.543 Y42.249 E53.8284
G1 X180.695 Y42.25 E53.83548
G1 X181.393 Y42.26 E53.86798
G0 F6000 X181.399 Y41.86
G1 F1200 X182.335 Y41.914 E53.91164
G1 X183.263 Y42.046 E53.95529
G1 X184.177 Y42.258 E53.99898
G1 X185.069 Y42.547 E54.04264
G1 X185.934 Y42.91 E54.08632
G1 X186.764 Y43.346 E54.12997
G1 X187.555 Y43.851 E54.17367
G1 X188.299 Y44.422 E54.21734
G1 X188.992 Y45.054 E54.26102
G1 X189.629 Y45.742 E54.30467
G1 X190.204 Y46.483 E54.34835
G1 X190.715 Y47.269 E54.392
G1 X191.157 Y48.097 E54.43571
G1 X191.526 Y48.959 E54.47937
G1 X191.821 Y49.849 E54.52303
G1 X192.039 Y50.761 E54.56669
G1 X192.179 Y51.689 E54.61039
G1 X192.237 Y52.55 E54.65057
G1 X192.25 Y53.176 E54.67973
G1 X192.252 Y57.821 E54.89602
G1 X192.252 Y122.774 E57.9205
G1 X192.249 Y166.566 E59.95964
G1 X192.239 Y167.293 E59.9935
G1 X192.186 Y168.23 E60.0372
G1 X192.054 Y169.158 E60.08085
G1 X191.843 Y170.072 E60.12452
G1 X191.554 Y170.964 E60.16818
G1 X191.191 Y171.829 E60.21187
G1 X190.756 Y172.66 E60.25554
G1 X190.251 Y173.45 E60.2992
G1 X189.681 Y174.195 E60.34288
G1 X189.05 Y174.889 E60.38656
G1 X188.361 Y175.526 E60.43025
G1 X187.621 Y176.102 E60.47392
G1 X186.835 Y176.613 E60.51757
G1 X186.008 Y177.055 E60.56123
G1 X185.146 Y177.425 E60.60491
G1 X184.256 Y177.72 E60.64857
G1 X183.344 Y177.939 E60.69225
G1 X182.417 Y178.079 E60.7359
G1 X181.539 Y178.138 E60.77688
G1 X181.282 Y178.145 E60.78885
G1 X180.951 Y178.149 E60.80426
G1 X117.538 Y177.966 E63.75705
G1 X51.225 Y177.774 E66.84487
G1 X39.256 Y177.737 E67.4022
G1 X38.591 Y177.726 E67.43317
G1 X37.655 Y177.671 E67.47683
G1 X36.727 Y177.536 E67.5205
G1 X35.814 Y177.322 E67.56416
G1 X34.922 Y177.032 E67.60784
G1 X34.058 Y176.666 E67.65153
G1 X33.229 Y176.229 E67.69517
G1 X32.44 Y175.722 E67.73884
G1 X31.696 Y175.15 E67.78254
G1 X31.005 Y174.516 E67.8262
G1 X30.37 Y173.826 E67.86987
G1 X29.795 Y173.084 E67.91358
G1 X29.287 Y172.297 E67.95719
G1 X28.847 Y171.468 E68.0009
G1 X28.479 Y170.606 E68.04454
G1 X28.186 Y169.715 E68.08821
G1 X27.97 Y168.802 E68.1319
G1 X27.833 Y167.874 E68.17558
G1 X27.776 Y166.98 E68.21729
G1 X27.75 Y165.724 E68.27579
G1 X27.748 Y102.241 E71.23183
G1 X27.751 Y53.358 E73.50802
G1 X27.761 Y52.693 E73.53899
G1 X27.815 Y51.756 E73.58269
G1 X27.949 Y50.828 E73.62635
G1 X28.161 Y49.914 E73.67004
G1 X28.45 Y49.022 E73.7137
G1 X28.815 Y48.158 E73.75738
G1 X29.251 Y47.328 E73.80103
G1 X29.757 Y46.538 E73.84472
G1 X30.328 Y45.794 E73.88839
G1 X30.96 Y45.101 E73.93206
G1 X31.649 Y44.465 E73.97572
G1 X32.39 Y43.89 E74.0194
G1 X33.177 Y43.38 E74.06307
G1 X34.005 Y42.939 E74.10675
G1 X34.867 Y42.57 E74.15041
G1 X35.758 Y42.276 E74.1941
G1 X36.67 Y42.058 E74.23776
G1 X37.597 Y41.92 E74.2814
G1 X38.451 Y41.862 E74.32126
G1 X39.08 Y41.849 E74.35056
G1 X180.543 Y41.849 E80.93767
G1 X180.701 Y41.85 E80.94502
G1 X181.399 Y41.86 E80.97753
G1 F2700 E75.97753
;MESH:Base-P2.stl
G0 F6000 X181.903 Y52.196
G0 X181.915 Y163.153
G0 X180.83 Y163.153
G0 X180.468 Y166.366
G0 X117.572 Y166.366
;TYPE:WALL-INNER
G1 F2700 E80.97753
G1 F1200 X51.259 Y166.174 E84.06535
G1 X39.35 Y166.139 E84.61989
G1 X39.35 Y163.333 E84.75055
G1 X180.65 Y163.333 E91.33007
G1 X180.65 Y166.349 E91.4705
G1 X180.65 Y166.549 E91.47982
G1 X180.45 Y166.549 E91.48585
G1 X117.572 Y166.366 E94.41372
G0 F6000 X117.571 Y166.766
;TYPE:WALL-OUTER
G1 F1200 X51.258 Y166.574 E97.50155
G1 X38.95 Y166.538 E98.07466
G1 X38.95 Y162.933 E98.24252
G1 X181.05 Y162.933 E104.8593
G1 X181.05 Y166.95 E105.04634
G1 X117.571 Y166.766 E108.0022
G0 F6000 X117.572 Y166.326
G0 X117.574 Y165.976
;TYPE:SKIN
G1 F1200 X69.201 Y165.836 E110.25466
G1 X39.74 Y165.751 E111.6265
G1 X39.74 Y163.723 E111.72093
G1 X180.26 Y163.723 E118.26413
G1 X180.26 Y166.157 E118.37747
G1 X117.574 Y165.976 E121.2964
G1 F2700 E116.2964
G0 F6000 X117.573 Y166.256
G0 X179.056 Y166.433
G0 X179.06 Y164.953
G1 F2700 E121.2964
G1 F1200 X168.684 Y164.923 E121.77955
G1 X179.06 Y164.923 E122.2627
G1 X179.06 Y164.953 E122.2641
G0 F6000 X179.46 Y165.354
G1 F1200 X117.577 Y165.176 E125.14564
G1 X69.204 Y165.036 E127.3981
G1 X40.54 Y164.954 E128.73282
G1 X40.54 Y164.523 E128.75289
G1 X179.46 Y164.523 E135.22159
G1 X179.46 Y165.354 E135.26029
G0 F6000 X179.86 Y165.755
G1 F1200 X117.576 Y165.576 E138.1605
G1 X69.203 Y165.436 E140.41296
G1 X40.14 Y165.353 E141.76626
G1 X40.14 Y164.123 E141.82353
G1 X179.86 Y164.123 E148.32948
G1 X179.86 Y165.755 E148.40548
G0 F6000 X180.54 Y165.755
G0 X180.468 Y166.366
G0 X168.479 Y166.403
G0 X168.483 Y165.088
;TYPE:SKIN
G1 F1200 X168.132 Y164.738 E148.41702
G0 F6000 X167.849 Y164.738
G1 F1200 X168.217 Y165.105 E148.42912
G0 F6000 X167.933 Y165.105
G1 F1200 X167.566 Y164.738 E148.4412
G0 F6000 X167.283 Y164.738
G1 F1200 X167.65 Y165.104 E148.45327
G0 F6000 X167.366 Y165.103
G1 F1200 X167 Y164.738 E148.4653
G0 F6000 X166.718 Y164.738
G1 F1200 X167.082 Y165.103 E148.4773
G0 F6000 X166.799 Y165.102
G1 F1200 X166.435 Y164.738 E148.48929
G0 F6000 X166.152 Y164.738
G1 F1200 X166.515 Y165.1 E148.50122
G0 F6000 X166.231 Y165.1
G1 F1200 X165.869 Y164.738 E148.51314
G0 F6000 X165.586 Y164.738
G1 F1200 X165.948 Y165.099 E148.52505
G0 F6000 X165.664 Y165.098
G1 F1200 X165.303 Y164.738 E148.53692
G0 F6000 X165.021 Y164.738
G1 F1200 X165.38 Y165.098 E148.54875
G0 F6000 X165.097 Y165.097
G1 F1200 X164.738 Y164.738 E148.56057
G0 F6000 X164.455 Y164.738
G1 F1200 X164.813 Y165.096 E148.57236
G0 F6000 X164.529 Y165.095
G1 F1200 X164.172 Y164.738 E148.58412
G0 F6000 X163.889 Y164.738
G1 F1200 X164.246 Y165.094 E148.59585
G0 F6000 X163.962 Y165.093
G1 F1200 X163.606 Y164.738 E148.60756
G0 F6000 X163.323 Y164.738
G1 F1200 X163.678 Y165.093 E148.61925
G0 F6000 X163.395 Y165.092
G1 F1200 X163.041 Y164.738 E148.6309
G0 F6000 X162.758 Y164.738
G1 F1200 X163.111 Y165.091 E148.64253
G0 F6000 X162.827 Y165.09
G1 F1200 X162.475 Y164.738 E148.65412
G0 F6000 X162.192 Y164.738
G1 F1200 X162.544 Y165.089 E148.66569
G0 F6000 X162.26 Y165.088
G1 F1200 X161.909 Y164.738 E148.67723
G0 F6000 X161.626 Y164.738
G1 F1200 X161.976 Y165.088 E148.68875
G0 F6000 X161.693 Y165.087
G1 F1200 X161.344 Y164.738 E148.70024
G0 F6000 X161.061 Y164.738
G1 F1200 X161.409 Y165.086 E148.7117
G0 F6000 X161.125 Y165.085
G1 F1200 X160.778 Y164.738 E148.72313
G0 F6000 X160.495 Y164.738
G1 F1200 X160.842 Y165.084 E148.73454
G0 F6000 X160.558 Y165.083
G1 F1200 X160.212 Y164.738 E148.74591
G0 F6000 X159.929 Y164.738
G1 F1200 X160.274 Y165.083 E148.75727
G0 F6000 X159.991 Y165.082
G1 F1200 X159.647 Y164.738 E148.7686
G0 F6000 X159.364 Y164.738
G1 F1200 X159.707 Y165.081 E148.77989
G0 F6000 X159.423 Y165.08
G1 F1200 X159.081 Y164.738 E148.79115
G0 F6000 X158.798 Y164.738
G1 F1200 X159.14 Y165.079 E148.8024
G0 F6000 X158.856 Y165.079
G1 F1200 X158.515 Y164.738 E148.81362
G0 F6000 X158.232 Y164.738
G1 F1200 X158.572 Y165.078 E148.82482
G0 F6000 X158.289 Y165.077
G1 F1200 X157.949 Y164.738 E148.836
G0 F6000 X157.667 Y164.738
G1 F1200 X158.005 Y165.076 E148.84713
G0 F6000 X157.722 Y165.076
G1 F1200 X157.384 Y164.738 E148.85826
G0 F6000 X157.101 Y164.738
G1 F1200 X157.438 Y165.074 E148.86934
G0 F6000 X157.154 Y165.074
G1 F1200 X156.818 Y164.738 E148.8804
G0 F6000 X156.535 Y164.738
G1 F1200 X156.87 Y165.073 E148.89143
G0 F6000 X156.587 Y165.072
G1 F1200 X156.252 Y164.738 E148.90244
G0 F6000 X155.97 Y164.738
G1 F1200 X156.303 Y165.071 E148.91341
G0 F6000 X156.02 Y165.071
G1 F1200 X155.687 Y164.738 E148.92437
G0 F6000 X155.404 Y164.738
G1 F1200 X155.736 Y165.069 E148.93529
G0 F6000 X155.452 Y165.069
G1 F1200 X155.121 Y164.738 E148.94618
G0 F6000 X154.838 Y164.738
G1 F1200 X155.168 Y165.068 E148.95705
G0 F6000 X154.885 Y165.067
G1 F1200 X154.555 Y164.738 E148.9679
G0 F6000 X154.273 Y164.738
G1 F1200 X154.601 Y165.067 E148.97872
G0 F6000 X154.318 Y165.066
G1 F1200 X153.99 Y164.738 E148.98951
G0 F6000 X153.707 Y164.738
G1 F1200 X154.034 Y165.064 E149.00027
G0 F6000 X153.75 Y165.064
G1 F1200 X153.424 Y164.738 E149.011
G0 F6000 X153.141 Y164.738
G1 F1200 X153.466 Y165.063 E149.0217
G0 F6000 X153.183 Y165.062
G1 F1200 X152.858 Y164.738 E149.03238
G0 F6000 X152.575 Y164.738
G1 F1200 X152.899 Y165.062 E149.04305
G0 F6000 X152.616 Y165.061
G1 F1200 X152.293 Y164.738 E149.05369
G0 F6000 X152.01 Y164.738
G1 F1200 X152.332 Y165.06 E149.06429
G0 F6000 X152.048 Y165.059
G1 F1200 X151.727 Y164.738 E149.07486
G0 F6000 X151.444 Y164.738
G1 F1200 X151.764 Y165.058 E149.08539
G0 F6000 X151.481 Y165.057
G1 F1200 X151.161 Y164.738 E149.09591
G0 F6000 X150.878 Y164.738
G1 F1200 X151.197 Y165.057 E149.10642
G0 F6000 X150.914 Y165.056
G1 F1200 X150.596 Y164.738 E149.11689
G0 F6000 X150.313 Y164.738
G1 F1200 X150.63 Y165.055 E149.12733
G0 F6000 X150.346 Y165.054
G1 F1200 X150.03 Y164.738 E149.13773
G0 F6000 X149.747 Y164.738
G1 F1200 X150.062 Y165.053 E149.1481
G0 F6000 X149.779 Y165.052
G1 F1200 X149.464 Y164.738 E149.15846
G0 F6000 X149.181 Y164.738
G1 F1200 X149.495 Y165.052 E149.1688
G0 F6000 X149.212 Y165.051
G1 F1200 X148.899 Y164.738 E149.1791
G0 F6000 X148.616 Y164.738
G1 F1200 X148.928 Y165.05 E149.18937
G0 F6000 X148.644 Y165.049
G1 F1200 X148.333 Y164.738 E149.19961
G0 F6000 X148.05 Y164.738
G1 F1200 X148.36 Y165.048 E149.20982
G0 F6000 X148.077 Y165.047
G1 F1200 X147.767 Y164.738 E149.22001
G0 F6000 X147.484 Y164.738
G1 F1200 X147.793 Y165.047 E149.23019
G0 F6000 X147.51 Y165.046
G1 F1200 X147.201 Y164.738 E149.24034
G0 F6000 X146.919 Y164.738
G1 F1200 X147.226 Y165.045 E149.25045
G0 F6000 X146.942 Y165.044
G1 F1200 X146.636 Y164.738 E149.26053
G0 F6000 X146.353 Y164.738
G1 F1200 X146.658 Y165.043 E149.27057
G0 F6000 X146.375 Y165.042
G1 F1200 X146.07 Y164.738 E149.2806
G0 F6000 X145.787 Y164.738
G1 F1200 X146.091 Y165.042 E149.29061
G0 F6000 X145.808 Y165.041
G1 F1200 X145.504 Y164.738 E149.3006
G0 F6000 X145.222 Y164.738
G1 F1200 X145.524 Y165.04 E149.31054
G0 F6000 X145.241 Y165.04
G1 F1200 X144.939 Y164.738 E149.32049
G0 F6000 X144.656 Y164.738
G1 F1200 X144.956 Y165.038 E149.33036
