;FLAVOR:Marlin
;TIME:7143
;Filament used: 9.35653m
;Layer height: 0.28
;MINX:27.748
;MINY:29.826
;MINZ:0.28
;MAXX:192.252
;MAXY:191.129
;MAXZ:1.96
;Generated with Cura_SteamEngine 4.6.1
M140 S50
M105
M190 S50
M104 S200
M105
M109 S200
M82 ;absolute extrusion mode
M201 X500.00 Y500.00 Z100.00 E5000.00 ;Setup machine max acceleration
M203 X500.00 Y500.00 Z10.00 E50.00 ;Setup machine max feedrate
M204 P500.00 R1000.00 T500.00 ;Setup Print/Retract/Travel acceleration
M205 X8.00 Y8.00 Z0.40 E5.00 ;Setup Jerk
M220 S100 ;Reset Feedrate
M221 S100 ;Reset Flowrate

G28 ;Home

G92 E0 ;Reset Extruder
G1 Z2.0 F3000 ;Move Z Axis up
G1 X10.1 Y20 Z0.28 F5000.0 ;Move to start position
G1 X10.1 Y200.0 Z0.28 F1500.0 E15 ;Draw the first line
G1 X10.4 Y200.0 Z0.28 F5000.0 ;Move to side a little
G1 X10.4 Y20 Z0.28 F1500.0 E30 ;Draw the second line
G92 E0 ;Reset Extruder
G1 Z2.0 F3000 ;Move Z Axis up

G92 E0
G92 E0
G1 F2700 E-5
;LAYER_COUNT:7
;LAYER:0
M107
G0 F6000 X181.387 Y30.637 Z0.28
;TYPE:SKIRT
G1 F2700 E0
G1 F1200 X182.289 Y30.69 E0.04207
G1 X183.182 Y30.822 E0.08411
G1 X184.06 Y31.033 E0.12615
G1 X184.916 Y31.321 E0.16821
G1 X185.743 Y31.683 E0.21025
G1 X186.535 Y32.118 E0.25232
G1 X187.286 Y32.62 E0.29438
G1 X187.989 Y33.187 E0.33644
G1 X188.639 Y33.814 E0.37849
G1 X189.231 Y34.496 E0.42054
G1 X189.761 Y35.227 E0.46259
G1 X190.223 Y36.003 E0.50464
G1 X190.616 Y36.816 E0.54669
G1 X190.934 Y37.661 E0.58873
G1 X191.177 Y38.531 E0.63079
G1 X191.342 Y39.419 E0.67285
G1 X191.437 Y40.549 E0.72565
G1 X191.45 Y41.154 E0.75383
G1 X191.452 Y45.803 E0.9703
G1 X191.452 Y175.693 E7.01853
G1 X191.449 Y179.533 E7.19733
G1 X191.439 Y180.26 E7.23119
G1 X191.387 Y181.162 E7.27326
G1 X191.255 Y182.055 E7.31529
G1 X191.044 Y182.934 E7.35739
G1 X190.757 Y183.79 E7.39943
G1 X190.395 Y184.617 E7.44146
G1 X189.961 Y185.409 E7.48351
G1 X189.459 Y186.16 E7.52558
G1 X188.893 Y186.863 E7.5676
G1 X188.266 Y187.514 E7.60969
G1 X187.585 Y188.106 E7.65171
G1 X186.854 Y188.636 E7.69375
G1 X186.078 Y189.099 E7.73583
G1 X185.265 Y189.492 E7.77787
G1 X184.42 Y189.812 E7.81995
G1 X183.551 Y190.055 E7.86196
G1 X182.663 Y190.22 E7.90402
G1 X181.527 Y190.316 E7.95711
G1 X180.92 Y190.329 E7.98538
G1 X138.991 Y190.327 E9.93777
G1 X75.652 Y190.142 E12.88711
G1 X39.274 Y190.037 E14.58103
G1 X38.613 Y190.026 E14.61181
G1 X37.712 Y189.971 E14.65384
G1 X36.819 Y189.836 E14.6959
G1 X35.941 Y189.623 E14.73797
G1 X35.086 Y189.333 E14.78001
G1 X34.259 Y188.969 E14.82208
G1 X33.469 Y188.533 E14.8641
G1 X32.719 Y188.029 E14.90617
G1 X32.018 Y187.46 E14.94821
G1 X31.369 Y186.832 E14.99027
G1 X30.778 Y186.149 E15.03232
G1 X30.251 Y185.416 E15.07436
G1 X29.79 Y184.639 E15.11643
G1 X29.399 Y183.825 E15.15848
G1 X29.082 Y182.979 E15.20055
G1 X28.842 Y182.109 E15.24257
G1 X28.679 Y181.221 E15.28461
G1 X28.588 Y180.148 E15.33475
G1 X28.555 Y179.101 E15.38353
G1 X28.55 Y178.78 E15.39848
G1 X28.548 Y115.196 E18.35922
G1 X28.548 Y50.26 E21.38291
G1 X28.551 Y41.347 E21.79794
G1 X28.561 Y40.682 E21.8289
G1 X28.615 Y39.78 E21.87098
G1 X28.748 Y38.887 E21.91302
G1 X28.959 Y38.009 E21.95507
G1 X29.248 Y37.153 E21.99714
G1 X29.611 Y36.326 E22.03919
G1 X30.045 Y35.535 E22.0812
G1 X30.548 Y34.784 E22.12329
G1 X31.116 Y34.082 E22.16534
G1 X31.743 Y33.432 E22.20739
G1 X32.425 Y32.84 E22.24945
G1 X33.157 Y32.311 E22.2915
G1 X33.933 Y31.849 E22.33355
G1 X34.747 Y31.458 E22.3756
G1 X35.592 Y31.139 E22.41766
G1 X36.462 Y30.897 E22.45971
G1 X37.35 Y30.733 E22.50176
G1 X38.473 Y30.639 E22.55423
G1 X39.08 Y30.626 E22.5825
G1 X180.543 Y30.626 E29.16961
G1 X180.689 Y30.627 E29.17641
G1 X181.387 Y30.637 E29.20892
G0 F6000 X181.393 Y30.237
G1 F1200 X182.312 Y30.29 E29.25178
G1 X183.223 Y30.423 E29.29465
G1 X184.119 Y30.634 E29.33751
G1 X184.993 Y30.922 E29.38036
G1 X185.84 Y31.285 E29.42327
G1 X186.651 Y31.72 E29.46612
G1 X187.421 Y32.224 E29.50898
G1 X188.145 Y32.793 E29.55185
G1 X188.817 Y33.423 E29.59475
G1 X189.432 Y34.108 E29.63761
G1 X189.985 Y34.844 E29.68048
G1 X190.472 Y35.625 E29.72334
G1 X190.889 Y36.446 E29.76621
G1 X191.234 Y37.3 E29.8091
G1 X191.503 Y38.18 E29.85195
G1 X191.695 Y39.081 E29.89485
G1 X191.808 Y39.994 E29.93768
G1 X191.837 Y40.538 E29.96305
G1 X191.85 Y41.153 E29.99169
G1 X191.852 Y45.802 E30.20817
G1 X191.852 Y175.693 E36.25644
G1 X191.849 Y179.539 E36.43553
G1 X191.839 Y180.266 E36.46938
G1 X191.786 Y181.185 E36.51225
G1 X191.654 Y182.096 E36.55511
G1 X191.443 Y182.992 E36.59797
G1 X191.156 Y183.867 E36.64085
G1 X190.793 Y184.713 E36.68372
G1 X190.359 Y185.525 E36.72659
G1 X189.855 Y186.296 E36.76948
G1 X189.287 Y187.02 E36.81233
G1 X188.658 Y187.692 E36.85519
G1 X187.973 Y188.307 E36.89805
G1 X187.237 Y188.86 E36.94092
G1 X186.456 Y189.348 E36.9838
G1 X185.636 Y189.766 E37.02666
G1 X184.782 Y190.111 E37.06955
G1 X183.902 Y190.38 E37.1124
G1 X183.001 Y190.573 E37.1553
G1 X182.088 Y190.686 E37.19814
G1 X181.538 Y190.716 E37.22379
G1 X180.919 Y190.729 E37.25262
G1 X138.99 Y190.727 E39.20501
G1 X75.651 Y190.542 E42.15435
G1 X39.268 Y190.437 E43.8485
G1 X38.607 Y190.426 E43.87929
G1 X37.688 Y190.37 E43.92216
G1 X36.777 Y190.235 E43.96504
G1 X35.881 Y190.022 E44.00792
G1 X35.008 Y189.732 E44.05076
G1 X34.162 Y189.367 E44.09366
G1 X33.352 Y188.93 E44.13652
G1 X32.583 Y188.424 E44.17938
G1 X31.86 Y187.854 E44.22225
G1 X31.19 Y187.223 E44.26511
G1 X30.576 Y186.536 E44.30801
G1 X30.025 Y185.799 E44.35086
G1 X29.54 Y185.016 E44.39375
G1 X29.125 Y184.195 E44.43658
G1 X28.782 Y183.34 E44.47948
G1 X28.515 Y182.459 E44.52235
G1 X28.325 Y181.558 E44.56522
G1 X28.215 Y180.644 E44.60809
G1 X28.188 Y180.161 E44.63062
G1 X28.155 Y179.114 E44.67939
G1 X28.15 Y178.78 E44.69495
G1 X28.148 Y115.196 E47.65568
G1 X28.148 Y50.26 E50.67938
G1 X28.151 Y41.341 E51.09468
G1 X28.161 Y40.676 E51.12565
G1 X28.215 Y39.757 E51.16852
G1 X28.348 Y38.846 E51.21139
G1 X28.56 Y37.95 E51.25426
G1 X28.849 Y37.075 E51.29717
G1 X29.213 Y36.23 E51.34001
G1 X29.648 Y35.419 E51.38286
G1 X30.153 Y34.648 E51.42578
G1 X30.722 Y33.925 E51.46862
G1 X31.352 Y33.253 E51.51151
G1 X32.038 Y32.639 E51.55438
G1 X32.774 Y32.087 E51.59722
G1 X33.556 Y31.6 E51.64012
G1 X34.377 Y31.184 E51.68298
G1 X35.231 Y30.84 E51.72585
G1 X36.111 Y30.571 E51.7687
G1 X37.012 Y30.38 E51.81158
G1 X37.926 Y30.268 E51.85446
G1 X38.462 Y30.239 E51.87945
G1 X39.08 Y30.226 E51.90824
G1 X180.543 Y30.226 E58.49535
G1 X180.695 Y30.227 E58.50243
G1 X181.393 Y30.237 E58.53493
G0 F6000 X181.399 Y29.837
G1 F1200 X182.335 Y29.891 E58.57859
G1 X183.263 Y30.023 E58.62223
G1 X184.177 Y30.235 E58.66592
G1 X185.069 Y30.524 E58.70958
G1 X185.934 Y30.887 E58.75327
G1 X186.764 Y31.323 E58.79692
G1 X187.555 Y31.828 E58.84062
G1 X188.299 Y32.399 E58.88429
G1 X188.992 Y33.031 E58.92796
G1 X189.629 Y33.719 E58.97162
G1 X190.204 Y34.46 E59.0153
G1 X190.715 Y35.246 E59.05895
G1 X191.157 Y36.074 E59.10265
G1 X191.526 Y36.936 E59.14632
G1 X191.821 Y37.826 E59.18998
G1 X192.039 Y38.738 E59.23364
G1 X192.179 Y39.666 E59.27734
G1 X192.237 Y40.527 E59.31752
G1 X192.25 Y41.153 E59.34668
G1 X192.252 Y45.801 E59.56311
G1 X192.252 Y175.693 E65.61142
G1 X192.249 Y179.544 E65.79074
G1 X192.239 Y180.271 E65.8246
G1 X192.186 Y181.208 E65.8683
G1 X192.054 Y182.136 E65.91194
G1 X191.843 Y183.05 E65.95562
G1 X191.554 Y183.942 E65.99928
G1 X191.191 Y184.807 E66.04297
G1 X190.756 Y185.638 E66.08664
G1 X190.251 Y186.428 E66.1303
G1 X189.681 Y187.173 E66.17398
G1 X189.05 Y187.867 E66.21766
G1 X188.361 Y188.504 E66.26135
G1 X187.621 Y189.08 E66.30501
G1 X186.835 Y189.591 E66.34867
G1 X186.008 Y190.033 E66.39233
G1 X185.146 Y190.403 E66.43601
G1 X184.256 Y190.698 E66.47967
G1 X183.344 Y190.917 E66.52334
G1 X182.417 Y191.057 E66.567
G1 X181.549 Y191.116 E66.60751
G1 X180.919 Y191.129 E66.63685
G1 X138.99 Y191.127 E68.58924
G1 X75.65 Y190.942 E71.53863
G1 X39.261 Y190.836 E73.23306
G1 X38.6 Y190.825 E73.26384
G1 X37.664 Y190.77 E73.3075
G1 X36.736 Y190.635 E73.35117
G1 X35.822 Y190.421 E73.39488
G1 X34.931 Y190.13 E73.43853
G1 X34.067 Y189.765 E73.4822
G1 X33.238 Y189.327 E73.52586
G1 X32.449 Y188.82 E73.56953
G1 X31.706 Y188.248 E73.61319
G1 X31.014 Y187.614 E73.65689
G1 X30.379 Y186.924 E73.70056
G1 X29.805 Y186.183 E73.7442
G1 X29.296 Y185.395 E73.78788
G1 X28.856 Y184.566 E73.83159
G1 X28.489 Y183.703 E73.87525
G1 X28.196 Y182.812 E73.91893
G1 X27.98 Y181.9 E73.96257
G1 X27.843 Y180.972 E74.00625
G1 X27.788 Y180.174 E74.0435
G1 X27.755 Y179.127 E74.09227
G1 X27.75 Y178.78 E74.10843
G1 X27.748 Y115.196 E77.06917
G1 X27.748 Y50.259 E80.09291
G1 X27.751 Y41.335 E80.50845
G1 X27.761 Y40.67 E80.53942
G1 X27.815 Y39.733 E80.58312
G1 X27.949 Y38.805 E80.62678
G1 X28.161 Y37.891 E80.67047
G1 X28.45 Y36.999 E80.71413
G1 X28.815 Y36.135 E80.7578
G1 X29.251 Y35.305 E80.80146
G1 X29.757 Y34.515 E80.84514
G1 X30.328 Y33.771 E80.88881
G1 X30.96 Y33.078 E80.93249
G1 X31.649 Y32.442 E80.97615
G1 X32.39 Y31.867 E81.01982
G1 X33.177 Y31.357 E81.06349
G1 X34.005 Y30.916 E81.10717
G1 X34.867 Y30.547 E81.15083
G1 X35.758 Y30.253 E81.19452
G1 X36.67 Y30.035 E81.23819
G1 X37.597 Y29.897 E81.28183
G1 X38.451 Y29.839 E81.32168
G1 X39.08 Y29.826 E81.35098
G1 X180.543 Y29.826 E87.93809
G1 X180.701 Y29.827 E87.94545
G1 X181.399 Y29.837 E87.97795
G1 F2700 E82.97795
;MESH:Base-P1.stl
G0 F6000 X181.903 Y40.173
G0 X181.915 Y176.107
G0 X180.83 Y176.107
G0 X180.468 Y179.347
G0 X138.992 Y179.527
;TYPE:WALL-INNER
G1 F2700 E87.97795
G1 F1200 X75.683 Y179.342 E90.9259
G1 X39.35 Y179.238 E92.61772
G1 X39.35 Y176.287 E92.75513
G1 X180.65 Y176.287 E99.33465
G1 X180.65 Y179.33 E99.47635
G1 X180.65 Y179.529 E99.48561
G1 X180.451 Y179.529 E99.49161
G1 X138.992 Y179.527 E101.42211
G0 F6000 X138.991 Y179.927
;TYPE:WALL-OUTER
G1 F1200 X75.682 Y179.742 E104.37006
G1 X38.95 Y179.637 E106.08046
G1 X38.95 Y175.887 E106.25508
G1 X181.05 Y175.887 E112.87185
G1 X181.05 Y179.929 E113.06006
G1 X138.991 Y179.927 E115.0185
G0 F6000 X138.991 Y179.487
G0 X138.992 Y179.137
;TYPE:SKIN
G1 F1200 X75.683 Y178.952 E117.96645
G1 X39.74 Y178.85 E119.64011
G1 X39.74 Y176.677 E119.74129
G1 X180.26 Y176.677 E126.28449
G1 X180.26 Y179.139 E126.39914
G1 X138.992 Y179.137 E128.32075
G0 F6000 X138.991 Y179.416
G0 X138.994 Y177.937
G1 F1200 X118.461 Y177.877 E129.27685
G1 X179.06 Y177.877 E132.0986
G1 X179.06 Y177.939 E132.10148
G1 X138.994 Y177.937 E133.96712
G0 F6000 X138.993 Y178.337
G1 F1200 X75.684 Y178.152 E136.91507
G1 X40.54 Y178.053 E138.55153
G1 X40.54 Y177.477 E138.57835
G1 X179.46 Y177.477 E145.04705
G1 X179.46 Y178.339 E145.08718
G1 X138.993 Y178.337 E146.9715
G0 F6000 X138.992 Y178.737
G1 F1200 X75.683 Y178.552 E149.91944
G1 X40.14 Y178.452 E151.57448
G1 X40.14 Y177.077 E151.63851
G1 X179.86 Y177.077 E158.14445
G1 X179.86 Y178.739 E158.22184
G1 X138.992 Y178.737 E160.12483
G0 F6000 X138.99 Y179.416
G0 X118.257 Y179.356
G0 X118.261 Y177.941
;TYPE:SKIN
G1 F1200 X118.011 Y177.691 E160.13306
G0 F6000 X117.729 Y177.691
G1 F1200 X118.096 Y178.059 E160.14516
G0 F6000 X117.813 Y178.058
G1 F1200 X117.446 Y177.691 E160.15724
G0 F6000 X117.163 Y177.691
G1 F1200 X117.528 Y178.057 E160.16928
G0 F6000 X117.245 Y178.056
G1 F1200 X116.88 Y177.691 E160.1813
G0 F6000 X116.597 Y177.691
G1 F1200 X116.961 Y178.055 E160.19328
G0 F6000 X116.678 Y178.055
G1 F1200 X116.314 Y177.691 E160.20527
G0 F6000 X116.031 Y177.691
G1 F1200 X116.394 Y178.054 E160.21722
G0 F6000 X116.111 Y178.053
G1 F1200 X115.749 Y177.691 E160.22914
G0 F6000 X115.466 Y177.691
G1 F1200 X115.826 Y178.052 E160.24101
G0 F6000 X115.543 Y178.051
G1 F1200 X115.183 Y177.691 E160.25286
G0 F6000 X114.9 Y177.691
G1 F1200 X115.259 Y178.05 E160.26468
G0 F6000 X114.976 Y178.05
G1 F1200 X114.617 Y177.691 E160.2765
G0 F6000 X114.334 Y177.691
G1 F1200 X114.692 Y178.049 E160.28829
G0 F6000 X114.409 Y178.048
G1 F1200 X114.052 Y177.691 E160.30004
G0 F6000 X113.769 Y177.691
G1 F1200 X114.125 Y178.048 E160.31178
G0 F6000 X113.841 Y178.046
G1 F1200 X113.486 Y177.691 E160.32347
G0 F6000 X113.203 Y177.691
G1 F1200 X113.557 Y178.045 E160.33513
G0 F6000 X113.274 Y178.045
G1 F1200 X112.92 Y177.691 E160.34678
G0 F6000 X112.637 Y177.691
G1 F1200 X112.99 Y178.044 E160.3584
G0 F6000 X112.707 Y178.043
G1 F1200 X112.355 Y177.691 E160.36999
G0 F6000 X112.072 Y177.691
G1 F1200 X112.423 Y178.043 E160.38157
G0 F6000 X112.139 Y178.041
G1 F1200 X111.789 Y177.691 E160.39309
G0 F6000 X111.506 Y177.691
G1 F1200 X111.855 Y178.041 E160.4046
G0 F6000 X111.572 Y178.04
G1 F1200 X111.223 Y177.691 E160.41609
G0 F6000 X110.94 Y177.691
G1 F1200 X111.288 Y178.039 E160.42755
G0 F6000 X111.005 Y178.038
G1 F1200 X110.657 Y177.691 E160.43899
G0 F6000 X110.375 Y177.691
G1 F1200 X110.721 Y178.038 E160.4504
G0 F6000 X110.437 Y178.036
G1 F1200 X110.092 Y177.691 E160.46176
G0 F6000 X109.809 Y177.691
G1 F1200 X110.153 Y178.036 E160.4731
G0 F6000 X109.87 Y178.035
G1 F1200 X109.526 Y177.691 E160.48443
G0 F6000 X109.243 Y177.691
G1 F1200 X109.586 Y178.034 E160.49572
G0 F6000 X109.303 Y178.033
G1 F1200 X108.96 Y177.691 E160.507
G0 F6000 X108.678 Y177.691
G1 F1200 X109.019 Y178.033 E160.51824
G0 F6000 X108.735 Y178.031
G1 F1200 X108.395 Y177.691 E160.52944
G0 F6000 X108.112 Y177.691
G1 F1200 X108.451 Y178.031 E160.54062
G0 F6000 X108.168 Y178.03
G1 F1200 X107.829 Y177.691 E160.55178
G0 F6000 X107.546 Y177.691
G1 F1200 X107.884 Y178.029 E160.56291
G0 F6000 X107.601 Y178.028
G1 F1200 X107.263 Y177.691 E160.57402
G0 F6000 X106.981 Y177.691
G1 F1200 X107.317 Y178.028 E160.5851
G0 F6000 X107.033 Y178.026
G1 F1200 X106.698 Y177.691 E160.59613
G0 F6000 X106.415 Y177.691
G1 F1200 X106.749 Y178.026 E160.60714
G0 F6000 X106.466 Y178.025
G1 F1200 X106.132 Y177.691 E160.61814
G0 F6000 X105.849 Y177.691
G1 F1200 X106.182 Y178.024 E160.6291
G0 F6000 X105.899 Y178.024
G1 F1200 X105.566 Y177.691 E160.64007
G0 F6000 X105.283 Y177.691
G1 F1200 X105.615 Y178.023 E160.651
G0 F6000 X105.331 Y178.021
G1 F1200 X105.001 Y177.691 E160.66187
G0 F6000 X104.718 Y177.691
G1 F1200 X105.047 Y178.021 E160.67271
G0 F6000 X104.764 Y178.02
G1 F1200 X104.435 Y177.691 E160.68355
G0 F6000 X104.152 Y177.691
G1 F1200 X104.48 Y178.019 E160.69435
G0 F6000 X104.197 Y178.019
G1 F1200 X103.869 Y177.691 E160.70515
G0 F6000 X103.586 Y177.691
G1 F1200 X103.913 Y178.018 E160.71591
G0 F6000 X103.629 Y178.016
G1 F1200 X103.304 Y177.691 E160.72661
G0 F6000 X103.021 Y177.691
G1 F1200 X103.345 Y178.016 E160.7373
G0 F6000 X103.062 Y178.015
G1 F1200 X102.738 Y177.691 E160.74797
G0 F6000 X102.455 Y177.691
G1 F1200 X102.778 Y178.014 E160.7586
G0 F6000 X102.495 Y178.014
G1 F1200 X102.172 Y177.691 E160.76924
G0 F6000 X101.889 Y177.691
G1 F1200 X102.211 Y178.013 E160.77984
G0 F6000 X101.927 Y178.012
G1 F1200 X101.607 Y177.691 E160.79039
G0 F6000 X101.324 Y177.691
G1 F1200 X101.643 Y178.011 E160.80091
G0 F6000 X101.36 Y178.01
G1 F1200 X101.041 Y177.691 E160.81142
G0 F6000 X100.758 Y177.691
G1 F1200 X101.076 Y178.009 E160.82189
G0 F6000 X100.793 Y178.009
G1 F1200 X100.475 Y177.691 E160.83236
G0 F6000 X100.192 Y177.691
G1 F1200 X100.509 Y178.008 E160.84279
G0 F6000 X100.225 Y178.007
G1 F1200 X99.909 Y177.691 E160.8532
G0 F6000 X99.627 Y177.691
G1 F1200 X99.941 Y178.006 E160.86355
G0 F6000 X99.658 Y178.005
G1 F1200 X99.344 Y177.691 E160.87389
G0 F6000 X99.061 Y177.691
G1 F1200 X99.374 Y178.004 E160.8842
G0 F6000 X99.091 Y178.004
G1 F1200 X98.778 Y177.691 E160.8945
G0 F6000 X98.495 Y177.691
G1 F1200 X98.807 Y178.003 E160.90478
G0 F6000 X98.523 Y178.002
G1 F1200 X98.212 Y177.691 E160.91502
G0 F6000 X97.93 Y177.691
G1 F1200 X98.239 Y178.001 E160.92521
G0 F6000 X97.956 Y178
G1 F1200 X97.647 Y177.691 E160.93538
G0 F6000 X97.364 Y177.691
G1 F1200 X97.672 Y177.999 E160.94552
G0 F6000 X97.389 Y177.999
G1 F1200 X97.081 Y177.691 E160.95566
G0 F6000 X96.798 Y177.691
G1 F1200 X97.105 Y177.998 E160.96577
G0 F6000 X96.821 Y177.997
G1 F1200 X96.515 Y177.691 E160.97585
G0 F6000 X96.232 Y177.691
G1 F1200 X96.537 Y177.996 E160.98589
G0 F6000 X96.254 Y177.995
G1 F1200 X95.95 Y177.691 E160.9959
G0 F6000 X95.667 Y177.691
G1 F1200 X95.97 Y177.995 E161.00589
G0 F6000 X95.687 Y177.994
G1 F1200 X95.384 Y177.691 E161.01587
G0 F6000 X95.101 Y177.691
G1 F1200 X95.403 Y177.993 E161.02581
G0 F6000 X95.119 Y177.992
G1 F1200 X94.818 Y177.691 E161.03572
