;FLAVOR:Marlin
;TIME:11906
;Filament used: 15.907m
;Layer height: 0.28
;MINX:0.748
;MINY:12.291
;MINZ:0.28
;MAXX:219.252
;MAXY:208.556
;MAXZ:1.96
;Generated with Cura_SteamEngine 4.6.1
M140 S50
M105
M190 S50
M104 S200
M105
M109 S200
M82 ;absolute extrusion mode
M201 X500.00 Y500.00 Z100.00 E5000.00 ;Setup machine max acceleration
M203 X500.00 Y500.00 Z10.00 E50.00 ;Setup machine max feedrate
M204 P500.00 R1000.00 T500.00 ;Setup Print/Retract/Travel acceleration
M205 X8.00 Y8.00 Z0.40 E5.00 ;Setup Jerk
M220 S100 ;Reset Feedrate
M221 S100 ;Reset Flowrate

G28 ;Home

G92 E0 ;Reset Extruder
G1 Z2.0 F3000 ;Move Z Axis up
G1 X10.1 Y20 Z0.28 F5000.0 ;Move to start position
G1 X10.1 Y200.0 Z0.28 F1500.0 E15 ;Draw the first line
G1 X10.4 Y200.0 Z0.28 F5000.0 ;Move to side a little
G1 X10.4 Y20 Z0.28 F1500.0 E30 ;Draw the second line
G92 E0 ;Reset Extruder
G1 Z2.0 F3000 ;Move Z Axis up

G92 E0
G92 E0
G1 F2700 E-5
;LAYER_COUNT:7
;LAYER:0
M107
G0 F6000 X154.387 Y13.102 Z0.28
;TYPE:SKIRT
G1 F2700 E0
G1 F1200 X155.289 Y13.155 E0.04207
G1 X155.8 Y13.221 E0.06607
G1 X156.004 Y13.253 E0.07568
G1 X158.603 Y13.623 E0.19792
G1 X161.153 Y13.913 E0.31743
G1 X163.692 Y14.13 E0.43608
G1 X166.187 Y14.273 E0.55245
G1 X168.777 Y14.347 E0.6731
G1 X170.115 Y14.356 E0.73541
G1 X207.704 Y14.357 E2.48571
G1 X208.402 Y14.368 E2.51821
G1 X209.303 Y14.422 E2.56024
G1 X210.196 Y14.556 E2.60229
G1 X211.074 Y14.768 E2.64435
G1 X211.93 Y15.057 E2.68642
G1 X212.756 Y15.421 E2.72845
G1 X213.548 Y15.856 E2.77052
G1 X214.297 Y16.36 E2.81256
G1 X215 Y16.928 E2.85465
G1 X215.649 Y17.555 E2.89666
G1 X216.24 Y18.238 E2.93872
G1 X216.769 Y18.97 E2.98078
G1 X217.23 Y19.747 E3.02284
G1 X217.621 Y20.561 E3.06489
G1 X217.939 Y21.406 E3.10693
G1 X218.18 Y22.276 E3.14897
G1 X218.344 Y23.164 E3.19102
G1 X218.437 Y24.279 E3.24312
G1 X218.45 Y24.886 E3.27139
G1 X218.45 Y92.666 E6.42751
G1 X218.452 Y93.182 E6.45154
G1 X218.452 Y158.152 E9.47681
G1 X218.449 Y196.96 E11.28388
G1 X218.439 Y197.687 E11.31773
G1 X218.387 Y198.589 E11.3598
G1 X218.255 Y199.482 E11.40184
G1 X218.044 Y200.361 E11.44393
G1 X217.757 Y201.217 E11.48597
G1 X217.395 Y202.044 E11.528
G1 X216.961 Y202.836 E11.57006
G1 X216.459 Y203.587 E11.61212
G1 X215.893 Y204.29 E11.65415
G1 X215.266 Y204.941 E11.69623
G1 X214.585 Y205.533 E11.73825
G1 X213.854 Y206.063 E11.78029
G1 X213.078 Y206.526 E11.82237
G1 X212.265 Y206.919 E11.86442
G1 X211.42 Y207.239 E11.90649
G1 X210.551 Y207.482 E11.94851
G1 X209.663 Y207.647 E11.99056
G1 X208.527 Y207.743 E12.04365
G1 X207.92 Y207.756 E12.07192
G1 X12.457 Y207.756 E21.1735
G1 X11.627 Y207.746 E21.21215
G1 X10.726 Y207.695 E21.25417
G1 X9.832 Y207.563 E21.29625
G1 X8.954 Y207.354 E21.33827
G1 X8.097 Y207.067 E21.38036
G1 X7.27 Y206.706 E21.42238
G1 X6.477 Y206.273 E21.46445
G1 X5.726 Y205.772 E21.50648
G1 X5.022 Y205.206 E21.54855
G1 X4.371 Y204.58 E21.5906
G1 X3.778 Y203.899 E21.63265
G1 X3.248 Y203.168 E21.67469
G1 X2.784 Y202.393 E21.71675
G1 X2.39 Y201.58 E21.75882
G1 X2.07 Y200.736 E21.80085
G1 X1.826 Y199.866 E21.84292
G1 X1.66 Y198.978 E21.88499
G1 X1.563 Y197.823 E21.93896
G1 X1.55 Y197.214 E21.96733
G1 X1.548 Y132.625 E24.97486
G1 X1.548 Y67.691 E27.99846
G1 X1.551 Y23.841 E30.0403
G1 X1.561 Y23.152 E30.07238
G1 X1.614 Y22.25 E30.11446
G1 X1.747 Y21.357 E30.1565
G1 X1.958 Y20.479 E30.19855
G1 X2.246 Y19.623 E30.2406
G1 X2.608 Y18.796 E30.28264
G1 X3.043 Y18.004 E30.32471
G1 X3.545 Y17.254 E30.36674
G1 X4.112 Y16.551 E30.40879
G1 X4.739 Y15.901 E30.45084
G1 X5.421 Y15.309 E30.4929
G1 X6.153 Y14.779 E30.53498
G1 X6.929 Y14.317 E30.57703
G1 X7.742 Y13.925 E30.61906
G1 X8.587 Y13.606 E30.66111
G1 X9.457 Y13.363 E30.70318
G1 X10.345 Y13.199 E30.74522
G1 X11.473 Y13.104 E30.79793
G1 X12.08 Y13.091 E30.82621
G1 X153.543 Y13.091 E37.41332
G1 X153.689 Y13.092 E37.42011
G1 X154.387 Y13.102 E37.45262
G0 F6000 X154.393 Y12.702
G1 F1200 X155.312 Y12.755 E37.49548
G1 X156.041 Y12.854 E37.52974
G1 X158.664 Y13.228 E37.65311
G1 X161.197 Y13.516 E37.77182
G1 X163.682 Y13.728 E37.88795
G1 X166.219 Y13.873 E38.00628
G1 X168.792 Y13.947 E38.12614
G1 X170.117 Y13.956 E38.18784
G1 X207.71 Y13.957 E39.93832
G1 X208.408 Y13.968 E39.97083
G1 X209.327 Y14.023 E40.0137
G1 X210.238 Y14.157 E40.05658
G1 X211.134 Y14.369 E40.09945
G1 X212.008 Y14.659 E40.14233
G1 X212.853 Y15.023 E40.18517
G1 X213.664 Y15.459 E40.22804
G1 X214.434 Y15.964 E40.27092
G1 X215.157 Y16.534 E40.31379
G1 X215.828 Y17.164 E40.35665
G1 X216.442 Y17.851 E40.39955
G1 X216.993 Y18.588 E40.4424
G1 X217.479 Y19.37 E40.48528
G1 X217.895 Y20.191 E40.52813
G1 X218.239 Y21.045 E40.571
G1 X218.507 Y21.926 E40.61388
G1 X218.697 Y22.827 E40.65676
G1 X218.809 Y23.74 E40.69959
G1 X218.837 Y24.268 E40.72421
G1 X218.85 Y24.886 E40.75299
G1 X218.85 Y92.666 E43.90911
G1 X218.852 Y93.181 E43.9331
G1 X218.852 Y158.152 E46.95842
G1 X218.849 Y196.966 E48.76576
G1 X218.839 Y197.693 E48.79962
G1 X218.786 Y198.612 E48.84248
G1 X218.654 Y199.523 E48.88534
G1 X218.443 Y200.419 E48.9282
G1 X218.156 Y201.294 E48.97108
G1 X217.793 Y202.14 E49.01395
G1 X217.359 Y202.952 E49.05682
G1 X216.855 Y203.723 E49.09971
G1 X216.287 Y204.447 E49.14256
G1 X215.658 Y205.119 E49.18542
G1 X214.973 Y205.734 E49.22829
G1 X214.237 Y206.287 E49.27116
G1 X213.456 Y206.775 E49.31404
G1 X212.636 Y207.193 E49.35689
G1 X211.782 Y207.538 E49.39978
G1 X210.902 Y207.807 E49.44263
G1 X210.001 Y208 E49.48554
G1 X209.088 Y208.113 E49.52837
G1 X208.538 Y208.143 E49.55402
G1 X207.92 Y208.156 E49.58281
G1 X12.457 Y208.156 E58.68438
G1 X11.622 Y208.146 E58.72327
G1 X10.703 Y208.094 E58.76613
G1 X9.792 Y207.963 E58.80898
G1 X8.896 Y207.753 E58.85184
G1 X8.021 Y207.466 E58.89471
G1 X7.174 Y207.104 E58.93761
G1 X6.362 Y206.67 E58.98048
G1 X5.591 Y206.168 E59.02332
G1 X4.866 Y205.6 E59.0662
G1 X4.193 Y204.971 E59.1091
G1 X3.578 Y204.287 E59.15193
G1 X3.024 Y203.552 E59.19479
G1 X2.536 Y202.771 E59.23767
G1 X2.117 Y201.951 E59.28055
G1 X1.771 Y201.098 E59.32341
G1 X1.501 Y200.218 E59.36627
G1 X1.308 Y199.317 E59.40918
G1 X1.194 Y198.404 E59.45202
G1 X1.163 Y197.833 E59.47865
G1 X1.15 Y197.214 E59.50748
G1 X1.148 Y132.625 E62.51501
G1 X1.148 Y67.691 E65.53861
G1 X1.151 Y23.835 E67.58073
G1 X1.161 Y23.146 E67.61282
G1 X1.214 Y22.227 E67.65568
G1 X1.347 Y21.316 E67.69855
G1 X1.559 Y20.42 E67.74142
G1 X1.847 Y19.546 E67.78427
G1 X2.21 Y18.7 E67.82714
G1 X2.645 Y17.888 E67.87003
G1 X3.149 Y17.118 E67.91288
G1 X3.718 Y16.394 E67.95576
G1 X4.348 Y15.722 E67.99865
G1 X5.033 Y15.108 E68.04149
G1 X5.77 Y14.555 E68.08439
G1 X6.551 Y14.068 E68.12725
G1 X7.372 Y13.651 E68.17013
G1 X8.226 Y13.307 E68.213
G1 X9.106 Y13.038 E68.25585
G1 X10.007 Y12.846 E68.29874
G1 X10.92 Y12.733 E68.34158
G1 X11.462 Y12.704 E68.36686
G1 X12.08 Y12.691 E68.39564
G1 X153.543 Y12.691 E74.98275
G1 X153.695 Y12.692 E74.98983
G1 X154.393 Y12.702 E75.02233
G0 F6000 X154.399 Y12.302
G1 F1200 X155.335 Y12.356 E75.06599
G1 X155.922 Y12.43 E75.09354
G1 X156.149 Y12.465 E75.10423
G1 X158.733 Y12.833 E75.22577
G1 X161.204 Y13.115 E75.34158
G1 X163.738 Y13.331 E75.46
G1 X166.254 Y13.475 E75.57734
G1 X168.76 Y13.547 E75.69408
G1 X170.12 Y13.556 E75.75741
G1 X207.716 Y13.557 E77.50804
G1 X208.414 Y13.568 E77.54054
G1 X209.351 Y13.623 E77.58425
G1 X210.279 Y13.757 E77.62791
G1 X211.192 Y13.97 E77.67156
G1 X212.084 Y14.26 E77.71524
G1 X212.948 Y14.625 E77.75891
G1 X213.778 Y15.062 E77.80259
G1 X214.567 Y15.568 E77.84624
G1 X215.311 Y16.14 E77.88994
G1 X216.003 Y16.773 E77.93361
G1 X216.639 Y17.462 E77.97727
G1 X217.214 Y18.204 E78.02098
G1 X217.723 Y18.991 E78.06462
G1 X218.164 Y19.819 E78.1083
G1 X218.532 Y20.681 E78.15195
G1 X218.825 Y21.572 E78.19562
G1 X219.042 Y22.485 E78.23932
G1 X219.18 Y23.412 E78.28296
G1 X219.237 Y24.257 E78.32239
G1 X219.25 Y24.886 E78.35169
G1 X219.25 Y92.666 E81.50781
G1 X219.252 Y93.179 E81.5317
G1 X219.252 Y158.152 E84.55711
G1 X219.249 Y196.971 E86.36469
G1 X219.239 Y197.698 E86.39854
G1 X219.186 Y198.635 E86.44224
G1 X219.054 Y199.563 E86.48589
G1 X218.843 Y200.477 E86.52957
G1 X218.554 Y201.369 E86.57323
G1 X218.191 Y202.234 E86.61691
G1 X217.756 Y203.065 E86.66059
G1 X217.251 Y203.855 E86.70425
G1 X216.681 Y204.6 E86.74793
G1 X216.05 Y205.294 E86.7916
G1 X215.361 Y205.931 E86.8353
G1 X214.621 Y206.507 E86.87896
G1 X213.835 Y207.018 E86.92261
G1 X213.008 Y207.46 E86.96628
G1 X212.146 Y207.83 E87.00996
G1 X211.256 Y208.125 E87.05362
G1 X210.344 Y208.344 E87.09729
G1 X209.417 Y208.484 E87.14095
G1 X208.549 Y208.543 E87.18146
G1 X207.92 Y208.556 E87.21075
G1 X12.457 Y208.556 E96.31233
G1 X11.617 Y208.546 E96.35144
G1 X10.681 Y208.494 E96.3951
G1 X9.752 Y208.362 E96.43879
G1 X8.838 Y208.152 E96.48246
G1 X7.945 Y207.865 E96.52613
G1 X7.08 Y207.502 E96.56981
G1 X6.249 Y207.068 E96.61347
G1 X5.458 Y206.564 E96.65714
G1 X4.713 Y205.994 E96.70082
G1 X4.019 Y205.363 E96.7445
G1 X3.382 Y204.676 E96.78812
G1 X2.805 Y203.936 E96.83182
G1 X2.293 Y203.15 E96.8755
G1 X1.85 Y202.323 E96.91918
G1 X1.479 Y201.462 E96.96284
G1 X1.183 Y200.572 E97.00651
G1 X0.964 Y199.66 E97.05018
G1 X0.823 Y198.733 E97.09385
G1 X0.763 Y197.844 E97.13534
G1 X0.75 Y197.214 E97.16468
G1 X0.748 Y132.625 E100.17221
G1 X0.748 Y67.691 E103.19581
G1 X0.751 Y23.829 E105.23821
G1 X0.761 Y23.14 E105.2703
G1 X0.815 Y22.204 E105.31395
G1 X0.948 Y21.276 E105.35761
G1 X1.16 Y20.362 E105.4013
G1 X1.448 Y19.47 E105.44494
G1 X1.812 Y18.605 E105.48864
G1 X2.248 Y17.775 E105.5323
G1 X2.753 Y16.985 E105.57596
G1 X3.324 Y16.241 E105.61963
G1 X3.956 Y15.548 E105.6633
G1 X4.645 Y14.911 E105.70699
G1 X5.385 Y14.335 E105.75066
G1 X6.172 Y13.825 E105.79433
G1 X7 Y13.383 E105.83803
G1 X7.862 Y13.014 E105.88169
G1 X8.752 Y12.719 E105.92535
G1 X9.664 Y12.501 E105.96901
G1 X10.592 Y12.362 E106.01271
G1 X11.451 Y12.304 E106.0528
G1 X12.08 Y12.291 E106.08209
G1 X153.543 Y12.291 E112.6692
G1 X153.701 Y12.292 E112.67656
G1 X154.399 Y12.302 E112.70907
G1 F2700 E107.70907
;MESH:PT0.stl
G0 F6000 X11.097 Y22.638
G0 X11.085 Y193.517
G0 X12.178 Y193.545
G0 X12.35 Y196.956
;TYPE:WALL-INNER
G1 F2700 E112.70907
G1 F1200 X12.35 Y193.717 E112.85989
G1 X207.65 Y193.717 E121.95387
G1 X207.65 Y196.956 E122.10469
G1 X12.35 Y196.956 E131.19868
G0 F6000 X11.95 Y197.356
;TYPE:WALL-OUTER
G1 F1200 X11.95 Y193.317 E131.38675
G1 X208.05 Y193.317 E140.51799
G1 X208.05 Y197.356 E140.70606
G1 X11.95 Y197.356 E149.8373
G0 F6000 X12.22 Y197.086
G0 X12.46 Y196.566
G0 X12.74 Y196.566
;TYPE:SKIN
G1 F1200 X12.74 Y194.107 E149.9518
G1 X207.26 Y194.107 E159.00947
G1 X207.26 Y196.566 E159.12397
G1 X12.74 Y196.566 E168.18164
G0 F6000 X12.46 Y196.566
G0 X12.524 Y196.753
G0 X13.94 Y196.846
G0 X13.94 Y195.366
G1 F1200 X13.94 Y195.307 E168.18438
G1 X206.06 Y195.307 E177.13029
G1 X206.06 Y195.366 E177.13304
G1 X13.94 Y195.366 E186.07895
G0 F6000 X13.54 Y195.766
G1 F1200 X13.54 Y194.907 E186.11895
G1 X206.46 Y194.907 E195.10212
G1 X206.46 Y195.766 E195.14211
G1 X13.54 Y195.766 E204.12528
G0 F6000 X13.14 Y196.166
G1 F1200 X13.14 Y194.507 E204.20253
G1 X206.86 Y194.507 E213.22294
G1 X206.86 Y196.166 E213.30019
G1 X13.14 Y196.166 E222.32061
G0 F6000 X12.55 Y196.166
G1 F2700 E217.32061
G0 F6000 X12.46 Y196.166
G0 X12.35 Y193.537
G0 X12.35 Y192.143
G0 X12.35 Y191.963
;TYPE:WALL-INNER
G1 F2700 E222.32061
G1 F1200 X12.35 Y188.722 E222.47152
G1 X207.65 Y188.722 E231.56551
G1 X207.65 Y191.963 E231.71642
G1 X12.35 Y191.963 E240.81041
G0 F6000 X11.95 Y192.363
;TYPE:WALL-OUTER
G1 F1200 X11.95 Y188.322 E240.99857
G1 X208.05 Y188.322 E250.12981
G1 X208.05 Y192.363 E250.31798
G1 X11.95 Y192.363 E259.44922
G0 F6000 X12.22 Y192.093
G0 X12.46 Y191.573
G0 X12.74 Y191.573
;TYPE:SKIN
G1 F1200 X12.74 Y189.112 E259.56381
G1 X207.26 Y189.112 E268.62148
G1 X207.26 Y191.573 E268.73607
G1 X12.74 Y191.573 E277.79374
G0 F6000 X12.46 Y191.573
G0 X12.532 Y188.904
G0 X13.94 Y188.832
G0 X13.94 Y190.373
G1 F1200 X13.94 Y190.312 E277.79658
G1 X206.06 Y190.312 E286.74249
G1 X206.06 Y190.373 E286.74533
G1 X13.94 Y190.373 E295.69124
G0 F6000 X13.54 Y190.773
G1 F1200 X13.54 Y189.912 E295.73133
G1 X206.46 Y189.912 E304.7145
G1 X206.46 Y190.773 E304.75459
G1 X13.54 Y190.773 E313.73775
G0 F6000 X13.14 Y191.173
G1 F1200 X13.14 Y189.512 E313.81509
G1 X206.86 Y189.512 E322.83551
G1 X206.86 Y191.173 E322.91285
G1 X13.14 Y191.173 E331.93327
G0 F6000 X12.55 Y191.173
G1 F2700 E326.93327
G0 F6000 X12.46 Y191.173
G0 X12.35 Y188.542
G0 X12.35 Y187.148
G0 X12.35 Y186.968
;TYPE:WALL-INNER
G1 F2700 E331.93327
G1 F1200 X12.35 Y183.727 E332.08418
G1 X207.65 Y183.727 E341.17817
G1 X207.65 Y186.968 E341.32908
G1 X12.35 Y186.968 E350.42307
G0 F6000 X11.95 Y187.368
;TYPE:WALL-OUTER
G1 F1200 X11.95 Y183.327 E350.61123
G1 X208.05 Y183.327 E359.74247
G1 X208.05 Y187.368 E359.93064
G1 X11.95 Y187.368 E369.06188
G0 F6000 X12.22 Y187.098
G0 X12.46 Y186.578
G0 X12.74 Y186.578
;TYPE:SKIN
G1 F1200 X12.74 Y184.117 E369.17647
G1 X207.26 Y184.117 E378.23414
G1 X207.26 Y186.578 E378.34873
G1 X12.74 Y186.578 E387.4064
G0 F6000 X12.46 Y186.578
G0 X12.46 Y185.378
G0 X13.94 Y185.378
G1 F1200 X13.94 Y185.317 E387.40924
G1 X206.06 Y185.317 E396.35515
G1 X206.06 Y185.378 E396.35799
G1 X13.94 Y185.378 E405.3039
G0 F6000 X13.54 Y185.778
G1 F1200 X13.54 Y184.917 E405.34399
G1 X206.46 Y184.917 E414.32716
G1 X206.46 Y185.778 E414.36725
G1 X13.54 Y185.778 E423.35041
G0 F6000 X13.14 Y186.178
G1 F1200 X13.14 Y184.517 E423.42775
G1 X206.86 Y184.517 E432.44817
G1 X206.86 Y186.178 E432.52551
G1 X13.14 Y186.178 E441.54593
G0 F6000 X12.55 Y186.178
G1 F2700 E436.54593
G0 F6000 X12.46 Y186.178
G0 X12.35 Y183.547
G0 X12.35 Y182.153
G0 X12.35 Y181.973
;TYPE:WALL-INNER
G1 F2700 E441.54593
G1 F1200 X12.35 Y178.732 E441.69684
G1 X207.65 Y178.732 E450.79083
G1 X207.65 Y181.973 E450.94174
G1 X12.35 Y181.973 E460.03573
G0 F6000 X11.95 Y182.373
;TYPE:WALL-OUTER
G1 F1200 X11.95 Y178.332 E460.22389
G1 X208.05 Y178.332 E469.35513
G1 X208.05 Y182.373 E469.5433
G1 X11.95 Y182.373 E478.67454
G0 F6000 X12.22 Y182.103
G0 X12.46 Y181.583
G0 X12.74 Y181.583
;TYPE:SKIN
G1 F1200 X12.74 Y179.122 E478.78913
G1 X207.26 Y179.122 E487.8468
G1 X207.26 Y181.583 E487.96139
G1 X12.74 Y181.583 E497.01906
G0 F6000 X12.46 Y181.583
G0 X12.46 Y180.383
G0 X13.94 Y180.383
G1 F1200 X13.94 Y180.322 E497.0219
G1 X206.06 Y180.322 E505.96781
G1 X206.06 Y180.383 E505.97065
G1 X13.94 Y180.383 E514.91656
G0 F6000 X13.54 Y180.783
G1 F1200 X13.54 Y179.922 E514.95665
G1 X206.46 Y179.922 E523.93982
G1 X206.46 Y180.783 E523.97991
G1 X13.54 Y180.783 E532.96307
G0 F6000 X13.14 Y181.183
G1 F1200 X13.14 Y179.522 E533.04041
G1 X206.86 Y179.522 E542.06083
G1 X206.86 Y181.183 E542.13817
G1 X13.14 Y181.183 E551.15859
G0 F6000 X12.55 Y181.183
G1 F2700 E546.15859
G0 F6000 X12.46 Y181.183
G0 X12.35 Y178.552
G0 X12.35 Y177.158
G0 X12.35 Y176.978
;TYPE:WALL-INNER
G1 F2700 E551.15859
G1 F1200 X12.35 Y173.737 E551.3095
G1 X207.65 Y173.737 E560.40349
G1 X207.65 Y176.978 E560.5544
G1 X12.35 Y176.978 E569.64839
G0 F6000 X11.95 Y177.378
;TYPE:WALL-OUTER
G1 F1200 X11.95 Y173.337 E569.83655
G1 X208.05 Y173.337 E578.96779
G1 X208.05 Y177.378 E579.15596
G1 X11.95 Y177.378 E588.2872
G0 F6000 X12.22 Y177.108
G0 X12.46 Y176.588
G0 X12.74 Y176.588
;TYPE:SKIN
G1 F1200 X12.74 Y174.127 E588.40179
G1 X207.26 Y174.127 E597.45946
G1 X207.26 Y176.588 E597.57405
G1 X12.74 Y176.588 E606.63172
G0 F6000 X12.46 Y176.588
G0 X12.524 Y176.775
G0 X13.94 Y176.868
G0 X13.94 Y175.388
G1 F1200 X13.94 Y175.327 E606.63456
G1 X206.06 Y175.327 E615.58047
G1 X206.06 Y175.388 E615.58331
G1 X13.94 Y175.388 E624.52922
G0 F6000 X13.54 Y175.788
G1 F1200 X13.54 Y174.927 E624.56931
G1 X206.46 Y174.927 E633.55248
G1 X206.46 Y175.788 E633.59257
G1 X13.54 Y175.788 E642.57573
G0 F6000 X13.14 Y176.188
G1 F1200 X13.14 Y174.527 E642.65307
G1 X206.86 Y174.527 E651.67349
G1 X206.86 Y176.188 E651.75083
G1 X13.14 Y176.188 E660.77125
G0 F6000 X12.55 Y176.188
G1 F2700 E655.77125
G0 F6000 X12.46 Y176.188
G0 X12.35 Y173.557
G0 X12.35 Y172.164
G0 X12.35 Y171.984
;TYPE:WALL-INNER
G1 F2700 E660.77125
G1 F1200 X12.35 Y168.742 E660.92221
G1 X207.65 Y168.742 E670.01619
G1 X207.65 Y171.984 E670.16716
G1 X12.35 Y171.984 E679.26114
G0 F6000 X11.95 Y172.384
;TYPE:WALL-OUTER
G1 F1200 X11.95 Y168.342 E679.44935
