;FLAVOR:Marlin
;TIME:12042
;Filament used: 13.082m
;Layer height: 0.2
;MINX:29.25
;MINY:31
;MINZ:0.2
;MAXX:190.75
;MAXY:189
;MAXZ:2
;Generated with Cura_SteamEngine 4.6.1
M140 S50
M105
M190 S50
M104 S200
M105
M109 S200
M82 ;absolute extrusion mode
M201 X500.00 Y500.00 Z100.00 E5000.00 ;Setup machine max acceleration
M203 X500.00 Y500.00 Z10.00 E50.00 ;Setup machine max feedrate
M204 P500.00 R1000.00 T500.00 ;Setup Print/Retract/Travel acceleration
M205 X8.00 Y8.00 Z0.40 E5.00 ;Setup Jerk
M220 S100 ;Reset Feedrate
M221 S100 ;Reset Flowrate

G28 ;Home

G92 E0 ;Reset Extruder
G1 Z2.0 F3000 ;Move Z Axis up
G1 X10.1 Y20 Z0.28 F5000.0 ;Move to start position
G1 X10.1 Y200.0 Z0.28 F1500.0 E15 ;Draw the first line
G1 X10.4 Y200.0 Z0.28 F5000.0 ;Move to side a little
G1 X10.4 Y20 Z0.28 F1500.0 E30 ;Draw the second line
G92 E0 ;Reset Extruder
G1 Z2.0 F3000 ;Move Z Axis up

G92 E0
G92 E0
G1 F2700 E-5
;LAYER_COUNT:10
;LAYER:0
M107
G0 F6000 X179.887 Y31.811 Z0.2
;TYPE:SKIRT
G1 F2700 E0
G1 F1200 X180.789 Y31.864 E0.03005
G1 X181.682 Y31.996 E0.06008
G1 X182.56 Y32.207 E0.09011
G1 X183.416 Y32.495 E0.12015
G1 X184.243 Y32.857 E0.15018
G1 X185.035 Y33.292 E0.18023
G1 X185.786 Y33.794 E0.21027
G1 X186.489 Y34.361 E0.24031
G1 X187.139 Y34.988 E0.27035
G1 X187.731 Y35.67 E0.30039
G1 X188.261 Y36.401 E0.33042
G1 X188.723 Y37.177 E0.36046
G1 X189.116 Y37.99 E0.39049
G1 X189.434 Y38.835 E0.42052
G1 X189.677 Y39.705 E0.45056
G1 X189.842 Y40.593 E0.4806
G1 X189.937 Y41.723 E0.51832
G1 X189.95 Y42.33 E0.53851
G1 X189.95 Y177.264 E5.02644
G1 X189.94 Y178.117 E5.05481
G1 X189.889 Y179.019 E5.08486
G1 X189.758 Y179.913 E5.11491
G1 X189.549 Y180.791 E5.14493
G1 X189.263 Y181.648 E5.17498
G1 X188.902 Y182.476 E5.20502
G1 X188.47 Y183.268 E5.23503
G1 X187.969 Y184.02 E5.26508
G1 X187.403 Y184.724 E5.29513
G1 X186.778 Y185.375 E5.32514
G1 X186.097 Y185.969 E5.3552
G1 X185.366 Y186.5 E5.38525
G1 X184.592 Y186.964 E5.41526
G1 X183.779 Y187.358 E5.44531
G1 X182.935 Y187.678 E5.47533
G1 X182.065 Y187.923 E5.5054
G1 X181.178 Y188.089 E5.53541
G1 X180.027 Y188.187 E5.57383
G1 X179.42 Y188.2 E5.59402
G1 X40.957 Y188.2 E10.19932
G1 X40.127 Y188.19 E10.22693
G1 X39.226 Y188.139 E10.25694
G1 X38.332 Y188.007 E10.287
G1 X37.454 Y187.798 E10.31702
G1 X36.597 Y187.511 E10.34708
G1 X35.77 Y187.15 E10.37709
G1 X34.977 Y186.717 E10.40714
G1 X34.226 Y186.216 E10.43717
G1 X33.522 Y185.65 E10.46721
G1 X32.871 Y185.024 E10.49725
G1 X32.278 Y184.343 E10.52729
G1 X31.748 Y183.612 E10.55732
G1 X31.284 Y182.837 E10.58736
G1 X30.89 Y182.024 E10.61741
G1 X30.57 Y181.18 E10.64743
G1 X30.326 Y180.31 E10.67748
G1 X30.16 Y179.422 E10.70753
G1 X30.063 Y178.267 E10.74608
G1 X30.05 Y177.658 E10.76634
G1 X30.05 Y42.674 E15.25593
G1 X30.06 Y41.871 E15.28264
G1 X30.112 Y40.969 E15.31269
G1 X30.244 Y40.076 E15.34271
G1 X30.454 Y39.198 E15.37274
G1 X30.741 Y38.341 E15.4028
G1 X31.103 Y37.514 E15.43282
G1 X31.536 Y36.722 E15.46285
G1 X32.038 Y35.971 E15.49289
G1 X32.605 Y35.267 E15.52296
G1 X33.231 Y34.617 E15.55297
G1 X33.912 Y34.024 E15.583
G1 X34.644 Y33.494 E15.61306
G1 X35.419 Y33.031 E15.64309
G1 X36.232 Y32.638 E15.67312
G1 X37.077 Y32.318 E15.70318
G1 X37.946 Y32.075 E15.73319
G1 X38.834 Y31.909 E15.76323
G1 X39.973 Y31.813 E15.80125
G1 X40.58 Y31.8 E15.82145
G1 X179.043 Y31.8 E20.42674
G1 X179.189 Y31.801 E20.4316
G1 X179.887 Y31.811 E20.45482
G0 F6000 X179.893 Y31.411
G1 F1200 X180.812 Y31.464 E20.48543
G1 X181.723 Y31.597 E20.51606
G1 X182.619 Y31.808 E20.54667
G1 X183.493 Y32.096 E20.57728
G1 X184.34 Y32.459 E20.60793
G1 X185.151 Y32.894 E20.63854
G1 X185.921 Y33.398 E20.66915
G1 X186.645 Y33.967 E20.69977
G1 X187.317 Y34.597 E20.73041
G1 X187.932 Y35.282 E20.76103
G1 X188.485 Y36.018 E20.79165
G1 X188.972 Y36.799 E20.82226
G1 X189.389 Y37.62 E20.85289
G1 X189.734 Y38.474 E20.88352
G1 X190.003 Y39.354 E20.91413
G1 X190.195 Y40.255 E20.94477
G1 X190.308 Y41.168 E20.97537
G1 X190.337 Y41.712 E20.99348
G1 X190.35 Y42.33 E21.01404
G1 X190.35 Y177.264 E25.50197
G1 X190.34 Y178.122 E25.53051
G1 X190.289 Y179.041 E25.56112
G1 X190.158 Y179.953 E25.59176
G1 X189.948 Y180.849 E25.62237
G1 X189.662 Y181.724 E25.65299
G1 X189.301 Y182.571 E25.68361
G1 X188.867 Y183.383 E25.71424
G1 X188.365 Y184.155 E25.74486
G1 X187.797 Y184.88 E25.7755
G1 X187.169 Y185.553 E25.80611
G1 X186.485 Y186.169 E25.83673
G1 X185.75 Y186.723 E25.86734
G1 X184.97 Y187.212 E25.89796
G1 X184.15 Y187.631 E25.92859
G1 X183.297 Y187.977 E25.9592
G1 X182.417 Y188.248 E25.98983
G1 X181.517 Y188.441 E26.02044
G1 X180.603 Y188.556 E26.05108
G1 X180.038 Y188.587 E26.0699
G1 X179.42 Y188.6 E26.09046
G1 X40.957 Y188.6 E30.69576
G1 X40.122 Y188.59 E30.72354
G1 X39.203 Y188.538 E30.75415
G1 X38.292 Y188.407 E30.78476
G1 X37.396 Y188.197 E30.81537
G1 X36.521 Y187.91 E30.846
G1 X35.674 Y187.548 E30.87664
G1 X34.862 Y187.114 E30.90726
G1 X34.091 Y186.612 E30.93786
G1 X33.366 Y186.044 E30.96849
G1 X32.693 Y185.415 E30.99913
G1 X32.078 Y184.731 E31.02972
G1 X31.524 Y183.996 E31.06034
G1 X31.036 Y183.215 E31.09097
G1 X30.617 Y182.395 E31.12159
G1 X30.271 Y181.542 E31.15221
G1 X30.001 Y180.662 E31.18283
G1 X29.808 Y179.761 E31.21347
G1 X29.694 Y178.848 E31.24408
G1 X29.663 Y178.277 E31.26309
G1 X29.65 Y177.658 E31.28369
G1 X29.65 Y42.674 E35.77327
G1 X29.66 Y41.866 E35.80015
G1 X29.712 Y40.946 E35.8308
G1 X29.844 Y40.035 E35.86141
G1 X30.055 Y39.139 E35.89203
G1 X30.342 Y38.264 E35.92266
G1 X30.705 Y37.418 E35.95328
G1 X31.139 Y36.606 E35.9839
G1 X31.642 Y35.835 E36.01452
G1 X32.211 Y35.111 E36.04515
G1 X32.839 Y34.439 E36.07574
G1 X33.524 Y33.823 E36.10638
G1 X34.26 Y33.27 E36.137
G1 X35.041 Y32.782 E36.16763
G1 X35.861 Y32.364 E36.19824
G1 X36.715 Y32.019 E36.22887
G1 X37.595 Y31.749 E36.25949
G1 X38.495 Y31.557 E36.2901
G1 X39.409 Y31.443 E36.32073
G1 X39.962 Y31.413 E36.33915
G1 X40.58 Y31.4 E36.35971
G1 X179.043 Y31.4 E40.96501
G1 X179.195 Y31.401 E40.97007
G1 X179.893 Y31.411 E40.99328
G0 F6000 X179.899 Y31.011
G1 F1200 X180.835 Y31.065 E41.02447
G1 X181.763 Y31.197 E41.05564
G1 X182.677 Y31.409 E41.08685
G1 X183.569 Y31.698 E41.11804
G1 X184.434 Y32.061 E41.14924
G1 X185.264 Y32.497 E41.18042
G1 X186.055 Y33.002 E41.21163
G1 X186.799 Y33.573 E41.24283
G1 X187.492 Y34.205 E41.27402
G1 X188.129 Y34.893 E41.30521
G1 X188.704 Y35.634 E41.3364
G1 X189.215 Y36.42 E41.36758
G1 X189.657 Y37.248 E41.3988
G1 X190.026 Y38.11 E41.42999
G1 X190.321 Y39 E41.46117
G1 X190.539 Y39.912 E41.49236
G1 X190.679 Y40.84 E41.52358
G1 X190.737 Y41.701 E41.55228
G1 X190.75 Y42.33 E41.5732
G1 X190.75 Y177.264 E46.06113
G1 X190.74 Y178.127 E46.08983
G1 X190.689 Y179.064 E46.12104
G1 X190.557 Y179.992 E46.15222
G1 X190.348 Y180.906 E46.1834
G1 X190.061 Y181.799 E46.2146
G1 X189.699 Y182.665 E46.24582
G1 X189.265 Y183.496 E46.277
G1 X188.761 Y184.287 E46.3082
G1 X188.192 Y185.032 E46.33937
G1 X187.561 Y185.727 E46.3706
G1 X186.874 Y186.365 E46.40178
G1 X186.135 Y186.942 E46.43296
G1 X185.349 Y187.454 E46.46416
G1 X184.523 Y187.897 E46.49534
G1 X183.661 Y188.269 E46.52656
G1 X182.772 Y188.565 E46.55773
G1 X181.86 Y188.785 E46.58893
G1 X180.933 Y188.926 E46.62012
G1 X180.049 Y188.987 E46.64959
G1 X179.42 Y189 E46.67051
G1 X40.957 Y189 E51.27581
G1 X40.117 Y188.99 E51.30375
G1 X39.181 Y188.938 E51.33493
G1 X38.252 Y188.806 E51.36614
G1 X37.338 Y188.596 E51.39733
G1 X36.445 Y188.309 E51.42853
G1 X35.58 Y187.946 E51.45973
G1 X34.749 Y187.512 E51.49091
G1 X33.958 Y187.008 E51.52211
G1 X33.213 Y186.438 E51.55331
G1 X32.519 Y185.807 E51.58451
G1 X31.882 Y185.12 E51.61567
G1 X31.305 Y184.38 E51.64688
G1 X30.793 Y183.594 E51.67808
G1 X30.35 Y182.767 E51.70928
G1 X29.979 Y181.906 E51.74046
G1 X29.683 Y181.016 E51.77166
G1 X29.464 Y180.104 E51.80285
G1 X29.323 Y179.177 E51.83404
G1 X29.263 Y178.288 E51.86368
G1 X29.25 Y177.658 E51.88463
G1 X29.25 Y42.674 E56.37422
G1 X29.26 Y41.86 E56.4013
G1 X29.313 Y40.924 E56.43248
G1 X29.445 Y39.995 E56.46369
G1 X29.656 Y39.081 E56.49489
G1 X29.944 Y38.189 E56.52606
G1 X30.307 Y37.324 E56.55726
G1 X30.742 Y36.493 E56.58846
G1 X31.246 Y35.703 E56.61963
G1 X31.816 Y34.958 E56.65083
G1 X32.448 Y34.264 E56.68205
G1 X33.136 Y33.627 E56.71323
G1 X33.876 Y33.051 E56.74442
G1 X34.662 Y32.539 E56.77562
G1 X35.489 Y32.097 E56.80681
G1 X36.351 Y31.727 E56.83801
G1 X37.241 Y31.431 E56.8692
G1 X38.153 Y31.213 E56.90039
G1 X39.08 Y31.072 E56.93158
G1 X39.951 Y31.013 E56.96061
G1 X40.58 Y31 E56.98154
G1 X179.043 Y31 E61.58684
G1 X179.201 Y31.001 E61.59209
G1 X179.899 Y31.011 E61.61531
G1 F2700 E56.61531
;MESH:SideWalls-P4.stl
G0 F6000 X178.94 Y41.335
G0 X178.94 Y42.81
G0 X178.968 Y177.218
G0 X40.85 Y177.4
;TYPE:WALL-INNER
G1 F2700 E61.61531
G1 F1200 X40.85 Y42.6 E66.09878
G1 X179.15 Y42.6 E70.69865
G1 X179.15 Y177.4 E75.18212
G1 X40.85 Y177.4 E79.782
G0 F6000 X40.45 Y177.8
;TYPE:WALL-OUTER
G1 F1200 X40.45 Y42.2 E84.29207
G1 X179.55 Y42.2 E88.91856
G1 X179.55 Y177.8 E93.42863
G1 X40.45 Y177.8 E98.05512
G0 F6000 X40.72 Y177.53
G0 X40.96 Y177.01
G0 X41.24 Y177.01
;TYPE:SKIN
G1 F1200 X41.24 Y42.99 E102.51264
G1 X178.76 Y42.99 E107.08657
G1 X178.76 Y177.01 E111.5441
G1 X41.24 Y177.01 E116.11803
G0 F6000 X41.65 Y176.849
G1 F1200 X41.399 Y176.598 E116.12984
G0 F6000 X41.399 Y176.032
G1 F1200 X42.216 Y176.849 E116.16826
G0 F6000 X42.782 Y176.849
G1 F1200 X41.399 Y175.467 E116.23329
G0 F6000 X41.399 Y174.901
G1 F1200 X43.347 Y176.849 E116.32492
G0 F6000 X43.913 Y176.849
G1 F1200 X41.399 Y174.335 E116.44317
G0 F6000 X41.399 Y173.77
G1 F1200 X44.479 Y176.849 E116.58802
G0 F6000 X45.044 Y176.849
G1 F1200 X41.399 Y173.204 E116.75947
G0 F6000 X41.399 Y172.638
G1 F1200 X45.61 Y176.849 E116.95754
G0 F6000 X46.176 Y176.849
G1 F1200 X41.399 Y172.073 E117.18222
G0 F6000 X41.399 Y171.507
G1 F1200 X46.741 Y176.849 E117.43349
G0 F6000 X47.307 Y176.849
G1 F1200 X41.399 Y170.941 E117.71138
G0 F6000 X41.399 Y170.375
G1 F1200 X47.873 Y176.849 E118.0159
G0 F6000 X48.438 Y176.849
G1 F1200 X41.399 Y169.81 E118.34699
G0 F6000 X41.399 Y169.244
G1 F1200 X49.004 Y176.849 E118.70471
G0 F6000 X49.57 Y176.849
G1 F1200 X41.399 Y168.678 E119.08905
G0 F6000 X41.399 Y168.113
G1 F1200 X50.135 Y176.849 E119.49996
G0 F6000 X50.701 Y176.849
G1 F1200 X41.399 Y167.547 E119.9375
G0 F6000 X41.399 Y166.981
G1 F1200 X51.267 Y176.849 E120.40166
G0 F6000 X51.833 Y176.849
G1 F1200 X41.399 Y166.416 E120.89242
G0 F6000 X41.399 Y165.85
G1 F1200 X52.398 Y176.849 E121.40978
G0 F6000 X52.964 Y176.849
G1 F1200 X41.399 Y165.284 E121.95376
G0 F6000 X41.399 Y164.719
G1 F1200 X53.53 Y176.849 E122.52434
G0 F6000 X54.095 Y176.849
G1 F1200 X41.399 Y164.153 E123.12152
G0 F6000 X41.399 Y163.587
G1 F1200 X54.661 Y176.849 E123.74533
G0 F6000 X55.227 Y176.849
G1 F1200 X41.399 Y163.022 E124.39573
G0 F6000 X41.399 Y162.456
G1 F1200 X55.792 Y176.849 E125.07273
G0 F6000 X56.358 Y176.849
G1 F1200 X41.399 Y161.89 E125.77636
G0 F6000 X41.399 Y161.324
G1 F1200 X56.924 Y176.849 E126.50661
G0 F6000 X57.489 Y176.849
G1 F1200 X41.399 Y160.759 E127.26343
G0 F6000 X41.399 Y160.193
G1 F1200 X58.055 Y176.849 E128.04688
G0 F6000 X58.621 Y176.849
G1 F1200 X41.399 Y159.627 E128.85695
G0 F6000 X41.399 Y159.062
G1 F1200 X59.186 Y176.849 E129.69359
G0 F6000 X59.752 Y176.849
G1 F1200 X41.399 Y158.496 E130.55686
G0 F6000 X41.399 Y157.93
G1 F1200 X60.318 Y176.849 E131.44675
G0 F6000 X60.884 Y176.849
G1 F1200 X41.399 Y157.365 E132.36325
G0 F6000 X41.399 Y156.799
G1 F1200 X61.449 Y176.849 E133.30634
G0 F6000 X62.015 Y176.849
G1 F1200 X41.399 Y156.233 E134.27605
G0 F6000 X41.399 Y155.668
G1 F1200 X62.581 Y176.849 E135.27236
G0 F6000 X63.146 Y176.849
G1 F1200 X41.399 Y155.102 E136.29527
G0 F6000 X41.399 Y154.536
G1 F1200 X63.712 Y176.849 E137.34481
G0 F6000 X64.278 Y176.849
G1 F1200 X41.399 Y153.971 E138.42094
G0 F6000 X41.399 Y153.405
G1 F1200 X64.843 Y176.849 E139.52368
G0 F6000 X65.409 Y176.849
G1 F1200 X41.399 Y152.839 E140.65303
G0 F6000 X41.399 Y152.274
G1 F1200 X65.975 Y176.849 E141.80899
G0 F6000 X66.54 Y176.849
G1 F1200 X41.399 Y151.708 E142.99155
G0 F6000 X41.399 Y151.142
G1 F1200 X67.106 Y176.849 E144.20073
G0 F6000 X67.672 Y176.849
G1 F1200 X41.399 Y150.576 E145.43653
G0 F6000 X41.399 Y150.011
G1 F1200 X68.237 Y176.849 E146.6989
G0 F6000 X68.803 Y176.849
G1 F1200 X41.399 Y149.445 E147.9879
G0 F6000 X41.399 Y148.879
G1 F1200 X69.369 Y176.849 E149.30353
G0 F6000 X69.934 Y176.849
G1 F1200 X41.399 Y148.314 E150.64573
G0 F6000 X41.399 Y147.748
G1 F1200 X70.5 Y176.849 E152.01455
G0 F6000 X71.066 Y176.849
G1 F1200 X41.399 Y147.182 E153.40999
G0 F6000 X41.399 Y146.617
G1 F1200 X71.632 Y176.849 E154.83204
G0 F6000 X72.197 Y176.849
G1 F1200 X41.399 Y146.051 E156.28068
G0 F6000 X41.399 Y145.485
G1 F1200 X72.763 Y176.849 E157.75595
G0 F6000 X73.329 Y176.849
G1 F1200 X41.399 Y144.92 E159.25781
G0 F6000 X41.399 Y144.354
G1 F1200 X73.894 Y176.849 E160.78628
G0 F6000 X74.46 Y176.849
G1 F1200 X41.399 Y143.788 E162.34137
G0 F6000 X41.399 Y143.223
G1 F1200 X75.026 Y176.849 E163.92305
G0 F6000 X75.591 Y176.849
G1 F1200 X41.399 Y142.657 E165.53134
G0 F6000 X41.399 Y142.091
G1 F1200 X76.157 Y176.849 E167.16625
G0 F6000 X76.723 Y176.849
G1 F1200 X41.399 Y141.526 E168.82776
G0 F6000 X41.399 Y140.96
G1 F1200 X77.288 Y176.849 E170.51587
G0 F6000 X77.854 Y176.849
G1 F1200 X41.399 Y140.394 E172.2306
G0 F6000 X41.399 Y139.828
G1 F1200 X78.42 Y176.849 E173.97195
G0 F6000 X78.985 Y176.849
G1 F1200 X41.399 Y139.263 E175.73988
G0 F6000 X41.399 Y138.697
G1 F1200 X79.551 Y176.849 E177.53444
G0 F6000 X80.117 Y176.849
G1 F1200 X41.399 Y138.131 E179.35561
G0 F6000 X41.399 Y137.566
G1 F1200 X80.683 Y176.849 E181.20339
G0 F6000 X81.248 Y176.849
G1 F1200 X41.399 Y137 E183.07776
G0 F6000 X41.399 Y136.434
G1 F1200 X81.814 Y176.849 E184.97876
G0 F6000 X82.38 Y176.849
G1 F1200 X41.399 Y135.869 E186.90636
G0 F6000 X41.399 Y135.303
G1 F1200 X82.945 Y176.849 E188.86055
G0 F6000 X83.511 Y176.849
G1 F1200 X41.399 Y134.737 E190.84137
G0 F6000 X41.399 Y134.172
G1 F1200 X84.077 Y176.849 E192.84879
G0 F6000 X84.642 Y176.849
G1 F1200 X41.399 Y133.606 E194.88281
G0 F6000 X41.399 Y133.04
G1 F1200 X85.208 Y176.849 E196.94345
G0 F6000 X85.774 Y176.849
G1 F1200 X41.399 Y132.475 E199.03069
G0 F6000 X41.399 Y131.909
G1 F1200 X86.339 Y176.849 E201.14453
G0 F6000 X86.905 Y176.849
G1 F1200 X41.399 Y131.343 E203.28499
G0 F6000 X41.399 Y130.777
G1 F1200 X87.471 Y176.849 E205.45208
G0 F6000 X88.036 Y176.849
G1 F1200 X41.399 Y130.212 E207.64574
G0 F6000 X41.399 Y129.646
G1 F1200 X88.602 Y176.849 E209.86603
G0 F6000 X89.168 Y176.849
G1 F1200 X41.399 Y129.08 E212.11293
G0 F6000 X41.399 Y128.515
G1 F1200 X89.733 Y176.849 E214.38642
G0 F6000 X90.299 Y176.849
G1 F1200 X41.399 Y127.949 E216.68652
G0 F6000 X41.399 Y127.383
G1 F1200 X90.865 Y176.849 E219.01325
G0 F6000 X91.431 Y176.849
G1 F1200 X41.399 Y126.818 E221.36658
G0 F6000 X41.399 Y126.252
G1 F1200 X91.996 Y176.849 E223.74651
G0 F6000 X92.562 Y176.849
G1 F1200 X41.399 Y125.686 E226.15306
G0 F6000 X41.399 Y125.121
G1 F1200 X93.128 Y176.849 E228.58621
G0 F6000 X93.693 Y176.849
G1 F1200 X41.399 Y124.555 E231.04596
G0 F6000 X41.399 Y123.989
G1 F1200 X94.259 Y176.849 E233.53233
G0 F6000 X94.825 Y176.849
G1 F1200 X41.399 Y123.424 E236.0453
G0 F6000 X41.399 Y122.858
G1 F1200 X95.39 Y176.849 E238.58487
G0 F6000 X95.956 Y176.849
G1 F1200 X41.399 Y122.292 E241.15107
G0 F6000 X41.399 Y121.727
G1 F1200 X96.522 Y176.849 E243.74386
G0 F6000 X97.087 Y176.849
G1 F1200 X41.399 Y121.161 E246.36325
G0 F6000 X41.399 Y120.595
G1 F1200 X97.653 Y176.849 E249.00927
G0 F6000 X98.219 Y176.849
G1 F1200 X41.399 Y120.029 E251.68191
G0 F6000 X41.399 Y119.464
G1 F1200 X98.784 Y176.849 E254.38112
G0 F6000 X99.35 Y176.849
G1 F1200 X41.399 Y118.898 E257.10696
G0 F6000 X41.399 Y118.332
G1 F1200 X99.916 Y176.849 E259.85942
G0 F6000 X100.481 Y176.849
G1 F1200 X41.399 Y117.767 E262.63846
G0 F6000 X41.399 Y117.201
G1 F1200 X101.047 Y176.849 E265.44411
G0 F6000 X101.613 Y176.849
G1 F1200 X41.399 Y116.635 E268.2764
G0 F6000 X41.399 Y116.07
G1 F1200 X102.179 Y176.849 E271.13528
G0 F6000 X102.744 Y176.849
G1 F1200 X41.399 Y115.504 E274.02076
G0 F6000 X41.399 Y114.938
G1 F1200 X103.31 Y176.849 E276.93286
G0 F6000 X103.876 Y176.849
