;FLAVOR:Marlin
;TIME:19158
;Filament used: 20.8445m
;Layer height: 0.2
;MINX:32.187
;MINY:10
;MINZ:0.2
;MAXX:187.813
;MAXY:210
;MAXZ:139.4
;Generated with Cura_SteamEngine 4.6.1
M140 S50
M105
M190 S50
M104 S200
M105
M109 S200
M82 ;absolute extrusion mode
M201 X500.00 Y500.00 Z100.00 E5000.00 ;Setup machine max acceleration
M203 X500.00 Y500.00 Z10.00 E50.00 ;Setup machine max feedrate
M204 P500.00 R1000.00 T500.00 ;Setup Print/Retract/Travel acceleration
M205 X8.00 Y8.00 Z0.40 E5.00 ;Setup Jerk
M220 S100 ;Reset Feedrate
M221 S100 ;Reset Flowrate

G28 ;Home

G92 E0 ;Reset Extruder
G1 Z2.0 F3000 ;Move Z Axis up
G1 X10.1 Y20 Z0.28 F5000.0 ;Move to start position
G1 X10.1 Y200.0 Z0.28 F1500.0 E15 ;Draw the first line
G1 X10.4 Y200.0 Z0.28 F5000.0 ;Move to side a little
G1 X10.4 Y20 Z0.28 F1500.0 E30 ;Draw the second line
G92 E0 ;Reset Extruder
G1 Z2.0 F3000 ;Move Z Axis up

G92 E0
G92 E0
G1 F2700 E-5
;LAYER_COUNT:697
;LAYER:0
M107
G0 F6000 X99.3 Y10.811 Z0.2
;TYPE:SKIRT
G1 F2700 E0
G1 F1200 X100.201 Y10.864 E0.03002
G1 X101.095 Y10.997 E0.06008
G1 X101.973 Y11.208 E0.09011
G1 X102.829 Y11.496 E0.12015
G1 X103.656 Y11.858 E0.15018
G1 X104.448 Y12.292 E0.18022
G1 X105.198 Y12.795 E0.21025
G1 X105.901 Y13.362 E0.24029
G1 X106.551 Y13.989 E0.27033
G1 X107.143 Y14.671 E0.30037
G1 X107.672 Y15.403 E0.33041
G1 X108.135 Y16.178 E0.36043
G1 X108.527 Y16.992 E0.39048
G1 X108.846 Y17.837 E0.42052
G1 X109.089 Y18.707 E0.45057
G1 X109.253 Y19.595 E0.4806
G1 X109.349 Y20.761 E0.51951
G1 X109.375 Y21.889 E0.55704
G1 X109.383 Y23.341 E0.60534
G1 X109.377 Y24.079 E0.62988
G1 X109.329 Y24.981 E0.65993
G1 X109.202 Y25.875 E0.68996
G1 X108.997 Y26.754 E0.71998
G1 X108.714 Y27.612 E0.75003
G1 X108.357 Y28.442 E0.78008
G1 X107.928 Y29.236 E0.8101
G1 X107.43 Y29.99 E0.84015
G1 X106.868 Y30.696 E0.87016
G1 X106.28 Y31.317 E0.89861
G1 X105.44 Y32.13 E0.93749
G1 X104.957 Y32.586 E0.95958
G1 X103.17 Y34.371 E1.04359
G1 X101.405 Y36.237 E1.12902
G1 X99.732 Y38.11 E1.21255
G1 X98.074 Y40.074 E1.29804
G1 X96.496 Y42.054 E1.38225
G1 X94.978 Y44.075 E1.46631
G1 X93.512 Y46.146 E1.55071
G1 X92.11 Y48.249 E1.63477
G1 X90.757 Y50.409 E1.71954
G1 X89.465 Y52.61 E1.80443
G1 X88.237 Y54.84 E1.8891
G1 X87.081 Y57.09 E1.97324
G1 X85.988 Y59.373 E2.05742
G1 X84.954 Y61.702 E2.14218
G1 X83.988 Y64.05 E2.22662
G1 X83.076 Y66.459 E2.3123
G1 X82.267 Y68.801 E2.39471
G1 X81.493 Y71.262 E2.48051
G1 X80.808 Y73.671 E2.56381
G1 X80.17 Y76.183 E2.65002
G1 X79.622 Y78.638 E2.73368
G1 X79.142 Y81.114 E2.81756
G1 X78.724 Y83.643 E2.90282
G1 X78.385 Y86.136 E2.9865
G1 X78.11 Y88.695 E3.0721
G1 X77.912 Y91.201 E3.15571
G1 X77.784 Y93.754 E3.24073
G1 X77.728 Y96.258 E3.32404
G1 X77.744 Y98.828 E3.40952
G1 X77.831 Y101.361 E3.49382
G1 X77.99 Y103.889 E3.57806
G1 X78.223 Y106.443 E3.66336
G1 X78.522 Y108.934 E3.74681
G1 X78.898 Y111.466 E3.83195
G1 X79.337 Y113.94 E3.91552
G1 X79.85 Y116.416 E3.99962
G1 X80.446 Y118.937 E4.08578
G1 X81.097 Y121.376 E4.16974
G1 X81.816 Y123.795 E4.25368
G1 X82.616 Y126.23 E4.33892
G1 X83.464 Y128.588 E4.42227
G1 X84.408 Y130.995 E4.50826
G1 X85.385 Y133.292 E4.59128
G1 X86.453 Y135.615 E4.67632
G1 X87.581 Y137.902 E4.76114
G1 X88.775 Y140.159 E4.84606
G1 X90.004 Y142.328 E4.92898
G1 X91.337 Y144.532 E5.01465
G1 X92.696 Y146.646 E5.09824
G1 X94.15 Y148.77 E5.18385
G1 X95.639 Y150.819 E5.26809
G1 X97.173 Y152.81 E5.35169
G1 X98.8 Y154.802 E5.43723
G1 X100.438 Y156.693 E5.52044
G1 X102.172 Y158.587 E5.60585
G1 X103.92 Y160.391 E5.6894
G1 X105.757 Y162.183 E5.77475
G1 X107.624 Y163.903 E5.85919
G1 X109.536 Y165.566 E5.94347
G1 X111.499 Y167.178 E6.02795
G1 X113.507 Y168.736 E6.11248
G1 X115.561 Y170.238 E6.19712
G1 X117.65 Y171.676 E6.28147
G1 X119.765 Y173.046 E6.36528
G1 X121.954 Y174.377 E6.45049
G1 X124.15 Y175.628 E6.53455
G1 X126.414 Y176.836 E6.6199
G1 X128.679 Y177.963 E6.70404
G1 X130.982 Y179.028 E6.78843
G1 X133.288 Y180.016 E6.87188
G1 X135.679 Y180.962 E6.9574
G1 X138.079 Y181.834 E7.04233
G1 X140.481 Y182.631 E7.1265
G1 X142.883 Y183.353 E7.20992
G1 X145.352 Y184.018 E7.29497
G1 X147.861 Y184.621 E7.3808
G1 X150.33 Y185.138 E7.4647
G1 X152.79 Y185.582 E7.54784
G1 X155.342 Y185.969 E7.63369
G1 X157.836 Y186.275 E7.71726
G1 X160.369 Y186.513 E7.80188
G1 X162.908 Y186.68 E7.88651
G1 X165.472 Y186.776 E7.97185
G1 X167.557 Y186.8 E8.0412
G1 X176.267 Y186.801 E8.3309
G1 X176.965 Y186.812 E8.35412
G1 X177.866 Y186.866 E8.38414
G1 X178.759 Y187 E8.41417
G1 X179.637 Y187.212 E8.44421
G1 X180.493 Y187.501 E8.47426
G1 X181.319 Y187.865 E8.50428
G1 X182.111 Y188.3 E8.53434
G1 X182.86 Y188.804 E8.56436
G1 X183.563 Y189.372 E8.59442
G1 X184.212 Y189.999 E8.62444
G1 X184.803 Y190.682 E8.65448
G1 X185.332 Y191.414 E8.68452
G1 X185.793 Y192.191 E8.71457
G1 X186.184 Y193.005 E8.7446
G1 X186.502 Y193.85 E8.77463
G1 X186.743 Y194.72 E8.80466
G1 X186.907 Y195.608 E8.83469
G1 X187 Y196.723 E8.87191
G1 X187.013 Y197.33 E8.8921
G1 X187.012 Y198.39 E8.92735
G1 X187.003 Y199.117 E8.95154
G1 X186.952 Y200.019 E8.98159
G1 X186.821 Y200.913 E9.01164
G1 X186.612 Y201.791 E9.04166
G1 X186.326 Y202.648 E9.07171
G1 X185.965 Y203.476 E9.10175
G1 X185.533 Y204.268 E9.13175
G1 X185.032 Y205.02 E9.16181
G1 X184.466 Y205.724 E9.19185
G1 X183.841 Y206.375 E9.22187
G1 X183.16 Y206.969 E9.25192
G1 X182.429 Y207.5 E9.28197
G1 X181.655 Y207.964 E9.31199
G1 X180.842 Y208.358 E9.34204
G1 X179.998 Y208.678 E9.37206
G1 X179.128 Y208.923 E9.40212
G1 X178.241 Y209.089 E9.43214
G1 X177.09 Y209.187 E9.47056
G1 X176.483 Y209.2 E9.49075
G1 X45.894 Y209.2 E13.83416
G1 X45.177 Y209.191 E13.85801
G1 X44.554 Y209.163 E13.87875
G1 X44.062 Y209.126 E13.89516
G1 X43.165 Y209.019 E13.9252
G1 X41.992 Y208.753 E13.96521
G1 X41.674 Y208.661 E13.97622
G1 X40.521 Y208.251 E14.01692
G1 X40.295 Y208.155 E14.02509
G1 X39.298 Y207.666 E14.06202
G1 X39.107 Y207.559 E14.0693
G1 X38.339 Y207.083 E14.09936
G1 X37.703 Y206.611 E14.1257
G1 X37.418 Y206.382 E14.13786
G1 X36.74 Y205.786 E14.16788
G1 X36.016 Y205.015 E14.20306
G1 X35.765 Y204.718 E14.21599
G1 X35.214 Y204.003 E14.24602
G1 X34.637 Y203.082 E14.28216
G1 X34.48 Y202.799 E14.29293
G1 X34.077 Y201.991 E14.32296
G1 X33.82 Y201.354 E14.34581
G1 X33.677 Y200.963 E14.35965
G1 X33.404 Y200.102 E14.3897
G1 X33.209 Y199.221 E14.41971
G1 X33.135 Y198.731 E14.43619
G1 X33.077 Y198.269 E14.45168
G1 X33.004 Y197.337 E14.48277
G1 X32.995 Y197.066 E14.49179
G1 X32.989 Y196.727 E14.50306
G1 X32.987 Y24.707 E20.22447
G1 X32.996 Y24.003 E20.24789
G1 X33.026 Y23.359 E20.26933
G1 X33.067 Y22.831 E20.28695
G1 X33.176 Y21.935 E20.31697
G1 X33.442 Y20.772 E20.35665
G1 X33.506 Y20.552 E20.36427
G1 X33.716 Y19.909 E20.38677
G1 X33.806 Y19.662 E20.39551
G1 X34.153 Y18.828 E20.42555
G1 X34.434 Y18.272 E20.44627
G1 X34.567 Y18.028 E20.45552
G1 X35.034 Y17.255 E20.48556
G1 X35.547 Y16.553 E20.51447
G1 X35.708 Y16.351 E20.52307
G1 X36.299 Y15.673 E20.55298
G1 X36.48 Y15.483 E20.56171
G1 X37.131 Y14.857 E20.59175
G1 X37.512 Y14.538 E20.60827
G1 X37.713 Y14.378 E20.61682
G1 X38.444 Y13.847 E20.64687
G1 X39.203 Y13.392 E20.6763
G1 X39.557 Y13.2 E20.6897
G1 X40.369 Y12.805 E20.71973
G1 X41.319 Y12.449 E20.75347
G1 X41.623 Y12.352 E20.76409
G1 X42.495 Y12.116 E20.79413
G1 X43.031 Y12.01 E20.81231
G1 X43.233 Y11.976 E20.81912
G1 X44.129 Y11.866 E20.84914
G1 X44.64 Y11.839 E20.86616
G1 X46.174 Y11.8 E20.9172
G1 X83.078 Y11.8 E22.14463
G1 X85.684 Y11.763 E22.23132
G1 X88.252 Y11.654 E22.31681
G1 X90.754 Y11.477 E22.40023
G1 X93.271 Y11.227 E22.48436
G1 X95.739 Y10.91 E22.56712
G1 X96.464 Y10.843 E22.59134
G1 X96.942 Y10.816 E22.60726
G1 X97.517 Y10.8 E22.62639
G1 X98.61 Y10.801 E22.66274
G1 X99.3 Y10.811 E22.6857
G0 F6000 X99.306 Y10.411
G1 F1200 X100.225 Y10.464 E22.71631
G1 X101.136 Y10.597 E22.74693
G1 X102.032 Y10.809 E22.77756
G1 X102.906 Y11.097 E22.80817
G1 X103.752 Y11.46 E22.83878
G1 X104.563 Y11.895 E22.86939
G1 X105.334 Y12.399 E22.90003
G1 X106.058 Y12.968 E22.93066
G1 X106.73 Y13.598 E22.96129
G1 X107.344 Y14.283 E22.99189
G1 X107.897 Y15.019 E23.02251
G1 X108.384 Y15.801 E23.05315
G1 X108.801 Y16.622 E23.08378
G1 X109.145 Y17.475 E23.11437
G1 X109.414 Y18.356 E23.14501
G1 X109.606 Y19.256 E23.17561
G1 X109.719 Y20.17 E23.20624
G1 X109.749 Y20.751 E23.22559
G1 X109.775 Y21.886 E23.26335
G1 X109.783 Y23.344 E23.31185
G1 X109.777 Y24.082 E23.3364
G1 X109.729 Y25.002 E23.36704
G1 X109.602 Y25.913 E23.39763
G1 X109.396 Y26.811 E23.42827
G1 X109.114 Y27.687 E23.45888
G1 X108.756 Y28.535 E23.4895
G1 X108.326 Y29.349 E23.52012
G1 X107.827 Y30.123 E23.55075
G1 X107.263 Y30.85 E23.58135
G1 X106.558 Y31.604 E23.61568
G1 X105.715 Y32.421 E23.65473
G1 X105.232 Y32.877 E23.67682
G1 X103.426 Y34.681 E23.76172
G1 X101.726 Y36.478 E23.844
G1 X100.019 Y38.389 E23.92922
G1 X98.394 Y40.314 E24.01301
G1 X96.827 Y42.282 E24.09668
G1 X95.309 Y44.302 E24.18072
G1 X93.827 Y46.394 E24.26599
G1 X92.438 Y48.478 E24.34929
G1 X91.098 Y50.618 E24.43327
G1 X89.811 Y52.811 E24.51784
G1 X88.6 Y55.01 E24.60134
G1 X87.433 Y57.281 E24.68626
G1 X86.357 Y59.529 E24.76916
G1 X85.318 Y61.867 E24.85425
G1 X84.356 Y64.207 E24.9384
G1 X83.452 Y66.594 E25.02329
G1 X82.644 Y68.936 E25.1057
G1 X81.886 Y71.344 E25.18966
G1 X81.186 Y73.807 E25.27482
G1 X80.56 Y76.272 E25.35941
G1 X80.019 Y78.695 E25.44199
G1 X79.529 Y81.218 E25.52747
G1 X79.121 Y83.691 E25.61083
G1 X78.78 Y86.196 E25.69492
G1 X78.511 Y88.698 E25.77862
G1 X78.312 Y91.219 E25.86272
G1 X78.183 Y93.782 E25.94808
G1 X78.128 Y96.265 E26.03068
G1 X78.144 Y98.812 E26.1154
G1 X78.231 Y101.357 E26.2001
G1 X78.389 Y103.864 E26.28364
G1 X78.619 Y106.392 E26.36807
G1 X78.916 Y108.864 E26.45088
G1 X79.294 Y111.409 E26.53646
G1 X79.729 Y113.861 E26.61929
G1 X80.245 Y116.349 E26.7038
G1 X80.827 Y118.814 E26.78804
G1 X81.481 Y121.265 E26.87241
G1 X82.203 Y123.694 E26.95669
G1 X82.989 Y126.085 E27.04041
G1 X83.849 Y128.474 E27.12486
G1 X84.765 Y130.812 E27.20837
G1 X85.76 Y133.15 E27.29288
G1 X86.81 Y135.434 E27.37649
G1 X87.936 Y137.717 E27.46116
G1 X89.126 Y139.965 E27.54576
G1 X90.361 Y142.145 E27.62909
G1 X91.672 Y144.314 E27.71339
G1 X93.03 Y146.425 E27.79687
G1 X94.471 Y148.531 E27.88175
G1 X95.951 Y150.568 E27.96549
G1 X97.498 Y152.575 E28.04977
G1 X99.097 Y154.533 E28.13385
G1 X100.753 Y156.445 E28.21798
G1 X102.454 Y158.304 E28.30179
G1 X104.204 Y160.108 E28.38539
G1 X106.026 Y161.886 E28.47006
G1 X107.893 Y163.606 E28.55449
G1 X109.807 Y165.271 E28.63887
G1 X111.752 Y166.869 E28.72259
G1 X113.742 Y168.412 E28.80634
G1 X115.779 Y169.901 E28.89027
G1 X117.889 Y171.354 E28.97547
G1 X119.984 Y172.712 E29.05851
G1 X122.138 Y174.021 E29.14235
G1 X124.357 Y175.285 E29.22729
G1 X126.602 Y176.482 E29.3119
G1 X128.847 Y177.6 E29.39532
G1 X131.128 Y178.655 E29.47891
G1 X133.456 Y179.653 E29.56315
G1 X135.845 Y180.598 E29.6486
G1 X138.173 Y181.444 E29.73099
G1 X140.617 Y182.254 E29.81662
G1 X142.997 Y182.969 E29.89928
G1 X145.478 Y183.638 E29.98474
G1 X147.931 Y184.228 E30.06866
G1 X150.377 Y184.739 E30.15177
G1 X152.884 Y185.192 E30.2365
G1 X155.384 Y185.571 E30.3206
G1 X157.882 Y185.877 E30.40431
G1 X160.397 Y186.114 E30.48832
G1 X162.916 Y186.28 E30.57229
G1 X165.491 Y186.376 E30.65799
G1 X167.562 Y186.4 E30.72688
G1 X176.273 Y186.401 E31.01661
G1 X176.971 Y186.412 E31.03983
G1 X177.89 Y186.467 E31.07045
G1 X178.801 Y186.601 E31.10107
G1 X179.697 Y186.813 E31.1317
G1 X180.571 Y187.103 E31.16233
G1 X181.416 Y187.467 E31.19293
G1 X182.227 Y187.903 E31.22355
G1 X182.997 Y188.408 E31.25418
G1 X183.72 Y188.978 E31.2848
G1 X184.391 Y189.608 E31.31541
G1 X185.005 Y190.295 E31.34606
G1 X185.556 Y191.032 E31.37666
G1 X186.042 Y191.814 E31.40729
G1 X186.458 Y192.635 E31.4379
G1 X186.802 Y193.489 E31.46852
G1 X187.07 Y194.37 E31.49915
G1 X187.26 Y195.271 E31.52978
G1 X187.372 Y196.184 E31.56037
G1 X187.4 Y196.712 E31.57796
G1 X187.413 Y197.33 E31.59852
G1 X187.412 Y198.395 E31.63394
G1 X187.403 Y199.122 E31.65812
G1 X187.352 Y200.041 E31.68873
G1 X187.221 Y200.953 E31.71938
G1 X187.011 Y201.849 E31.74999
G1 X186.725 Y202.724 E31.7806
G1 X186.364 Y203.571 E31.81123
G1 X185.93 Y204.383 E31.84185
G1 X185.428 Y205.155 E31.87248
G1 X184.86 Y205.88 E31.90311
G1 X184.232 Y206.553 E31.93373
G1 X183.548 Y207.169 E31.96434
G1 X182.813 Y207.723 E31.99496
G1 X182.033 Y208.212 E32.02557
G1 X181.213 Y208.631 E32.0562
G1 X180.36 Y208.977 E32.08682
G1 X179.48 Y209.248 E32.11744
G1 X178.58 Y209.441 E32.14806
G1 X177.666 Y209.556 E32.1787
G1 X177.101 Y209.587 E32.19752
G1 X176.483 Y209.6 E32.21808
G1 X45.894 Y209.6 E36.56149
G1 X45.172 Y209.591 E36.5855
G1 X44.524 Y209.562 E36.60707
G1 X44.032 Y209.525 E36.62349
G1 X43.118 Y209.416 E36.6541
G1 X41.881 Y209.137 E36.69628
G1 X41.563 Y209.045 E36.70729
G1 X40.365 Y208.619 E36.74958
G1 X40.139 Y208.523 E36.75774
G1 X39.102 Y208.015 E36.79615
G1 X38.911 Y207.908 E36.80343
G1 X38.128 Y207.423 E36.83407
G1 X37.453 Y206.923 E36.86201
G1 X37.168 Y206.694 E36.87417
G1 X36.476 Y206.087 E36.90478
G1 X35.711 Y205.273 E36.94193
G1 X35.46 Y204.976 E36.95487
G1 X34.897 Y204.248 E36.98548
G1 X34.287 Y203.276 E37.02365
G1 X34.13 Y202.993 E37.03441
G1 X33.719 Y202.17 E37.06501
G1 X33.444 Y201.492 E37.08934
G1 X33.301 Y201.101 E37.10319
G1 X33.023 Y200.223 E37.13382
G1 X32.821 Y199.325 E37.16443
G1 X32.739 Y198.78 E37.18276
G1 X32.681 Y198.318 E37.19825
G1 X32.604 Y197.35 E37.23055
G1 X32.595 Y197.079 E37.23957
G1 X32.589 Y196.727 E37.25128
G1 X32.587 Y24.707 E42.97268
G1 X32.596 Y23.997 E42.9963
G1 X32.627 Y23.328 E43.01858
G1 X32.668 Y22.8 E43.03619
G1 X32.779 Y21.886 E43.06681
G1 X33.058 Y20.66 E43.10863
G1 X33.122 Y20.44 E43.11625
G1 X33.341 Y19.772 E43.13963
G1 X33.431 Y19.525 E43.14838
G1 X33.783 Y18.675 E43.17898
G1 X34.083 Y18.081 E43.20111
G1 X34.216 Y17.837 E43.21035
G1 X34.691 Y17.048 E43.24098
G1 X35.234 Y16.303 E43.27165
G1 X35.395 Y16.101 E43.28024
G1 X36.009 Y15.397 E43.31131
G1 X36.19 Y15.207 E43.32004
G1 X36.853 Y14.568 E43.35066
G1 X37.263 Y14.225 E43.36844
G1 X37.464 Y14.065 E43.37699
G1 X38.209 Y13.523 E43.40763
G1 X39.012 Y13.04 E43.4388
G1 X39.366 Y12.848 E43.45219
G1 X40.194 Y12.445 E43.48282
G1 X41.198 Y12.068 E43.51849
G1 X41.502 Y11.971 E43.5291
G1 X42.39 Y11.729 E43.55971
G1 X42.965 Y11.616 E43.5792
G1 X43.167 Y11.582 E43.58602
G1 X44.08 Y11.469 E43.61661
G1 X44.629 Y11.439 E43.6349
G1 X46.174 Y11.4 E43.6863
G1 X83.072 Y11.4 E44.91354
G1 X85.697 Y11.363 E45.00085
G1 X88.205 Y11.256 E45.08435
G1 X90.722 Y11.078 E45.16827
G1 X93.217 Y10.831 E45.25166
G1 X95.688 Y10.513 E45.33452
G1 X96.441 Y10.444 E45.35967
G1 X96.919 Y10.417 E45.3756
G1 X97.517 Y10.4 E45.3955
G1 X98.616 Y10.401 E45.43205
G1 X99.306 Y10.411 E45.455
G0 F6000 X99.311 Y10.011
G1 F1200 X100.248 Y10.065 E45.48622
G1 X101.176 Y10.198 E45.5174
G1 X102.09 Y10.41 E45.5486
G1 X102.982 Y10.698 E45.57978
G1 X103.847 Y11.062 E45.61099
G1 X104.677 Y11.498 E45.64218
G1 X105.467 Y12.003 E45.67336
G1 X106.211 Y12.574 E45.70456
G1 X106.904 Y13.206 E45.73575
G1 X107.541 Y13.895 E45.76696
G1 X108.116 Y14.635 E45.79813
G1 X108.627 Y15.422 E45.82934
G1 X109.068 Y16.249 E45.86051
G1 X109.438 Y17.111 E45.89171
G1 X109.733 Y18.002 E45.92293
G1 X109.95 Y18.914 E45.95411
G1 X110.09 Y19.841 E45.98529
G1 X110.149 Y20.741 E46.01529
G1 X110.175 Y21.884 E46.05331
G1 X110.183 Y23.347 E46.10197
G1 X110.177 Y24.085 E46.12652
G1 X110.129 Y25.022 E46.15773
G1 X110.002 Y25.951 E46.18891
G1 X109.796 Y26.866 E46.22011
G1 X109.513 Y27.76 E46.2513
G1 X109.155 Y28.627 E46.28249
G1 X108.724 Y29.46 E46.31369
G1 X108.224 Y30.254 E46.3449
G1 X107.658 Y31.002 E46.3761
G1 X106.837 Y31.891 E46.41634
G1 X105.989 Y32.711 E46.45558
G1 X105.524 Y33.15 E46.47685
G1 X103.734 Y34.938 E46.561
G1 X101.998 Y36.773 E46.64501
G1 X100.34 Y38.629 E46.72779
G1 X98.711 Y40.559 E46.81179
G1 X97.131 Y42.543 E46.89615
G1 X95.622 Y44.55 E46.97966
G1 X94.17 Y46.601 E47.06324
G1 X92.777 Y48.691 E47.14678
G1 X91.439 Y50.827 E47.23061
G1 X90.164 Y53.001 E47.31444
G1 X88.949 Y55.206 E47.39817
G1 X87.792 Y57.458 E47.48238
G1 X86.712 Y59.715 E47.5656
G1 X85.69 Y62.016 E47.64934
G1 X84.729 Y64.353 E47.73339
G1 X83.828 Y66.73 E47.81794
G1 X83.028 Y69.049 E47.89953
G1 X82.267 Y71.468 E47.98387
G1 X81.573 Y73.909 E48.06828
