;FLAVOR:Marlin
;TIME:4976
;Filament used: 4.49203m
;Layer height: 0.2
;MINX:50.751
;MINY:77.401
;MINZ:0.2
;MAXX:169.249
;MAXY:142.6
;MAXZ:11.6
;Generated with Cura_SteamEngine 4.6.1
M140 S50
M105
M190 S50
M104 S200
M105
M109 S200
M82 ;absolute extrusion mode
M201 X500.00 Y500.00 Z100.00 E5000.00 ;Setup machine max acceleration
M203 X500.00 Y500.00 Z10.00 E50.00 ;Setup machine max feedrate
M204 P500.00 R1000.00 T500.00 ;Setup Print/Retract/Travel acceleration
M205 X8.00 Y8.00 Z0.40 E5.00 ;Setup Jerk
M220 S100 ;Reset Feedrate
M221 S100 ;Reset Flowrate

G28 ;Home

G92 E0 ;Reset Extruder
G1 Z2.0 F3000 ;Move Z Axis up
G1 X10.1 Y20 Z0.28 F5000.0 ;Move to start position
G1 X10.1 Y200.0 Z0.28 F1500.0 E15 ;Draw the first line
G1 X10.4 Y200.0 Z0.28 F5000.0 ;Move to side a little
G1 X10.4 Y20 Z0.28 F1500.0 E30 ;Draw the second line
G92 E0 ;Reset Extruder
G1 Z2.0 F3000 ;Move Z Axis up

G92 E0
G92 E0
G1 F2700 E-5
;LAYER_COUNT:58
;LAYER:0
M107
G0 F6000 X157.787 Y78.211 Z0.2
;TYPE:SKIRT
G1 F2700 E0
G1 F1200 X158.688 Y78.264 E0.03002
G1 X159.815 Y78.444 E0.06798
G1 X160.058 Y78.497 E0.07625
G1 X160.931 Y78.729 E0.10629
G1 X161.78 Y79.036 E0.13632
G1 X162.598 Y79.418 E0.16635
G1 X163.38 Y79.87 E0.19639
G1 X163.785 Y80.144 E0.21265
G1 X163.988 Y80.288 E0.22093
G1 X164.701 Y80.842 E0.25096
G1 X165.362 Y81.458 E0.28102
G1 X165.966 Y82.129 E0.31104
G1 X166.542 Y82.902 E0.34311
G1 X166.625 Y83.025 E0.34804
G1 X167.097 Y83.795 E0.37808
G1 X167.498 Y84.604 E0.40811
G1 X167.878 Y85.602 E0.44363
G1 X167.936 Y85.782 E0.44992
G1 X168.175 Y86.653 E0.47996
G1 X168.336 Y87.541 E0.50998
G1 X168.426 Y88.716 E0.54917
G1 X168.446 Y89.855 E0.58706
G1 X168.449 Y130.393 E1.93536
G1 X168.439 Y131.136 E1.96008
G1 X168.387 Y132.038 E1.99013
G1 X168.19 Y133.243 E2.03074
G1 X168.137 Y133.478 E2.03875
G1 X167.9 Y134.349 E2.06877
G1 X167.586 Y135.196 E2.09882
G1 X167.199 Y136.012 E2.12885
G1 X166.741 Y136.79 E2.15888
G1 X166.002 Y137.789 E2.20021
G1 X165.799 Y138.031 E2.21072
G1 X165.188 Y138.697 E2.24078
G1 X164.521 Y139.306 E2.27082
G1 X163.803 Y139.853 E2.30084
G1 X163.039 Y140.335 E2.33089
G1 X162.422 Y140.662 E2.35411
G1 X161.6 Y141.035 E2.38413
G1 X160.747 Y141.334 E2.4142
G1 X159.872 Y141.557 E2.44423
G1 X158.981 Y141.701 E2.47425
G1 X158.168 Y141.762 E2.50137
G1 X157.307 Y141.793 E2.53002
G1 X156.94 Y141.8 E2.54223
G1 X112.888 Y141.799 E4.00741
G1 X111.119 Y141.774 E4.06625
G1 X107.853 Y141.785 E4.17488
G1 X106.994 Y141.8 E4.20345
G1 X62.912 Y141.799 E5.66962
G1 X62.207 Y141.789 E5.69308
G1 X61.306 Y141.736 E5.72309
G1 X60.255 Y141.572 E5.75847
G1 X60.017 Y141.522 E5.76656
G1 X59.142 Y141.297 E5.79661
G1 X58.291 Y140.996 E5.82664
G1 X57.469 Y140.621 E5.85669
G1 X56.684 Y140.175 E5.88671
G1 X56.218 Y139.863 E5.90537
G1 X56.026 Y139.727 E5.91319
G1 X55.313 Y139.173 E5.94322
G1 X54.652 Y138.558 E5.97325
G1 X54.047 Y137.887 E6.0033
G1 X53.285 Y136.829 E6.04667
G1 X53.16 Y136.63 E6.05449
G1 X52.714 Y135.845 E6.08451
G1 X52.339 Y135.024 E6.11453
G1 X52.038 Y134.172 E6.14459
G1 X51.814 Y133.297 E6.17463
G1 X51.668 Y132.406 E6.20466
G1 X51.606 Y131.629 E6.23058
G1 X51.561 Y130.547 E6.2666
G1 X51.552 Y130.124 E6.28068
G1 X51.551 Y89.541 E7.63047
G1 X51.561 Y88.853 E7.65336
G1 X51.614 Y87.951 E7.68341
G1 X51.751 Y87.035 E7.71421
G1 X51.795 Y86.811 E7.72181
G1 X52.008 Y85.933 E7.75186
G1 X52.298 Y85.078 E7.78189
G1 X52.663 Y84.252 E7.81192
G1 X53.099 Y83.461 E7.84196
G1 X53.491 Y82.867 E7.86563
G1 X53.641 Y82.656 E7.87424
G1 X54.196 Y81.944 E7.90427
G1 X54.812 Y81.284 E7.9343
G1 X55.484 Y80.68 E7.96435
G1 X56.207 Y80.139 E7.99438
G1 X57.07 Y79.611 E8.02803
G1 X57.312 Y79.479 E8.0372
G1 X58.123 Y79.083 E8.06722
G1 X58.966 Y78.759 E8.09726
G1 X59.834 Y78.511 E8.12728
G1 X60.721 Y78.341 E8.15732
G1 X61.855 Y78.24 E8.19519
G1 X62.813 Y78.208 E8.22707
G1 X63.154 Y78.202 E8.23841
G1 X107.11 Y78.201 E9.70039
G1 X108.96 Y78.227 E9.76193
G1 X111.954 Y78.222 E9.86151
G1 X113.18 Y78.202 E9.90229
G1 X157.087 Y78.201 E11.36265
G1 X157.787 Y78.211 E11.38593
G0 F6000 X157.792 Y77.811
G1 F1200 X158.712 Y77.864 E11.41658
G1 X159.9 Y78.053 E11.45659
G1 X160.143 Y78.106 E11.46486
G1 X161.033 Y78.342 E11.49549
G1 X161.899 Y78.653 E11.52609
G1 X162.735 Y79.038 E11.5567
G1 X163.535 Y79.495 E11.58735
G1 X164.017 Y79.817 E11.60663
G1 X164.22 Y79.961 E11.61491
G1 X164.947 Y80.526 E11.64553
G1 X165.622 Y81.152 E11.67615
G1 X166.241 Y81.834 E11.70678
G1 X166.874 Y82.678 E11.74187
G1 X166.957 Y82.801 E11.74681
G1 X167.438 Y83.586 E11.77743
G1 X167.849 Y84.409 E11.80802
G1 X168.259 Y85.479 E11.84614
G1 X168.317 Y85.659 E11.85243
G1 X168.561 Y86.547 E11.88306
G1 X168.727 Y87.452 E11.91366
G1 X168.826 Y88.708 E11.95556
G1 X168.846 Y89.855 E11.99372
G1 X168.849 Y130.399 E13.34222
G1 X168.839 Y131.142 E13.36693
G1 X168.787 Y132.061 E13.39755
G1 X168.58 Y133.331 E13.44034
G1 X168.527 Y133.566 E13.44836
G1 X168.286 Y134.455 E13.47899
G1 X167.968 Y135.319 E13.50961
G1 X167.577 Y136.152 E13.54022
G1 X167.115 Y136.948 E13.57083
G1 X166.308 Y138.046 E13.61615
G1 X166.105 Y138.288 E13.62666
G1 X165.483 Y138.967 E13.65729
G1 X164.805 Y139.59 E13.68791
G1 X164.075 Y140.151 E13.71853
G1 X163.3 Y140.647 E13.74913
G1 X162.786 Y140.926 E13.76859
G1 X162.603 Y141.019 E13.77541
G1 X161.765 Y141.4 E13.80603
G1 X160.897 Y141.707 E13.83665
G1 X160.006 Y141.937 E13.86726
G1 X159.098 Y142.089 E13.89788
G1 X158.182 Y142.162 E13.92844
G1 X157.321 Y142.193 E13.9571
G1 X156.94 Y142.2 E13.96977
G1 X112.883 Y142.199 E15.43512
G1 X111.115 Y142.174 E15.49392
G1 X107.862 Y142.185 E15.60212
G1 X106.994 Y142.2 E15.63099
G1 X62.907 Y142.199 E17.09733
G1 X62.202 Y142.189 E17.12079
G1 X61.283 Y142.136 E17.1514
G1 X60.173 Y141.964 E17.18876
G1 X59.935 Y141.914 E17.19685
G1 X59.043 Y141.685 E17.22748
G1 X58.174 Y141.381 E17.2581
G1 X57.335 Y141.002 E17.28872
G1 X56.532 Y140.551 E17.31935
G1 X55.987 Y140.19 E17.3411
G1 X55.795 Y140.054 E17.34892
G1 X55.068 Y139.49 E17.37952
G1 X54.392 Y138.864 E17.41017
G1 X53.773 Y138.183 E17.44078
G1 X53.215 Y137.45 E17.47142
G1 X52.946 Y137.042 E17.48767
G1 X52.821 Y136.843 E17.49549
G1 X52.366 Y136.043 E17.5261
G1 X51.981 Y135.206 E17.55674
G1 X51.671 Y134.34 E17.58733
G1 X51.437 Y133.449 E17.61797
G1 X51.282 Y132.542 E17.64858
G1 X51.206 Y131.645 E17.67852
G1 X51.161 Y130.563 E17.71454
G1 X51.152 Y130.124 E17.72914
G1 X51.151 Y89.535 E19.07914
G1 X51.161 Y88.847 E19.10202
G1 X51.214 Y87.928 E19.13264
G1 X51.359 Y86.958 E19.16526
G1 X51.403 Y86.734 E19.17285
G1 X51.619 Y85.839 E19.20348
G1 X51.913 Y84.966 E19.23411
G1 X52.281 Y84.122 E19.26474
G1 X52.72 Y83.314 E19.29532
G1 X53.165 Y82.635 E19.32232
G1 X53.315 Y82.424 E19.33093
G1 X53.88 Y81.698 E19.36153
G1 X54.507 Y81.023 E19.39217
G1 X55.189 Y80.405 E19.42279
G1 X55.923 Y79.849 E19.45341
G1 X56.878 Y79.26 E19.49073
G1 X57.12 Y79.128 E19.4999
G1 X57.947 Y78.723 E19.53053
G1 X58.805 Y78.391 E19.56113
G1 X59.69 Y78.135 E19.59177
G1 X60.593 Y77.956 E19.62239
G1 X61.842 Y77.84 E19.66411
G1 X62.8 Y77.808 E19.69599
G1 X63.154 Y77.802 E19.70776
G1 X107.115 Y77.801 E21.16991
G1 X108.965 Y77.827 E21.23145
G1 X111.946 Y77.822 E21.3306
G1 X113.18 Y77.802 E21.37165
G1 X157.092 Y77.801 E22.83217
G1 X157.792 Y77.811 E22.85545
G0 F6000 X157.798 Y77.411
G1 F1200 X158.734 Y77.464 E22.88663
G1 X159.985 Y77.663 E22.92876
G1 X160.228 Y77.716 E22.93703
G1 X161.135 Y77.954 E22.96822
G1 X162.018 Y78.27 E22.99942
G1 X162.872 Y78.659 E23.03063
G1 X163.689 Y79.119 E23.06181
G1 X164.248 Y79.491 E23.08415
G1 X164.451 Y79.635 E23.09242
G1 X165.192 Y80.21 E23.12362
G1 X165.882 Y80.846 E23.15483
G1 X166.515 Y81.538 E23.18602
G1 X167.205 Y82.454 E23.22417
G1 X167.288 Y82.577 E23.2291
G1 X167.779 Y83.376 E23.26029
G1 X168.2 Y84.214 E23.29148
G1 X168.64 Y85.356 E23.33219
G1 X168.698 Y85.536 E23.33848
G1 X168.947 Y86.44 E23.36967
G1 X169.119 Y87.363 E23.40089
G1 X169.226 Y88.701 E23.44554
G1 X169.246 Y89.855 E23.48393
G1 X169.249 Y130.404 E24.83259
G1 X169.239 Y131.147 E24.85731
G1 X169.186 Y132.083 E24.88849
G1 X168.97 Y133.419 E24.9335
G1 X168.917 Y133.654 E24.94151
G1 X168.672 Y134.559 E24.9727
G1 X168.351 Y135.44 E25.00388
G1 X167.956 Y136.291 E25.03509
G1 X167.489 Y137.105 E25.0663
G1 X166.956 Y137.876 E25.09747
G1 X166.615 Y138.303 E25.11565
G1 X166.412 Y138.545 E25.12616
G1 X165.779 Y139.238 E25.15737
G1 X165.089 Y139.873 E25.18856
G1 X164.348 Y140.448 E25.21976
G1 X163.561 Y140.958 E25.25095
G1 X162.968 Y141.282 E25.27342
G1 X162.785 Y141.375 E25.28025
G1 X161.931 Y141.764 E25.31146
G1 X161.048 Y142.079 E25.34265
G1 X160.141 Y142.317 E25.37383
G1 X159.216 Y142.478 E25.40506
G1 X158.197 Y142.562 E25.43907
G1 X157.336 Y142.593 E25.46772
G1 X156.94 Y142.6 E25.4809
G1 X112.877 Y142.599 E26.94644
G1 X111.11 Y142.574 E27.00522
G1 X107.871 Y142.585 E27.11295
G1 X106.994 Y142.6 E27.14212
G1 X62.901 Y142.599 E28.60866
G1 X62.196 Y142.589 E28.63211
G1 X61.26 Y142.536 E28.66329
G1 X60.09 Y142.355 E28.70267
G1 X59.852 Y142.305 E28.71076
G1 X58.944 Y142.073 E28.74193
G1 X58.058 Y141.765 E28.77312
G1 X57.202 Y141.382 E28.80432
G1 X56.381 Y140.928 E28.83552
G1 X55.756 Y140.516 E28.86042
G1 X55.564 Y140.38 E28.86824
G1 X54.822 Y139.806 E28.89944
G1 X54.132 Y139.171 E28.93063
G1 X53.499 Y138.479 E28.96183
G1 X52.927 Y137.736 E28.99301
G1 X52.607 Y137.255 E29.01223
G1 X52.482 Y137.056 E29.02004
G1 X52.018 Y136.241 E29.05124
G1 X51.624 Y135.39 E29.08243
G1 X51.305 Y134.508 E29.11362
G1 X51.061 Y133.602 E29.14483
G1 X50.896 Y132.679 E29.17602
G1 X50.807 Y131.662 E29.20997
G1 X50.762 Y130.58 E29.24599
G1 X50.752 Y130.124 E29.26116
G1 X50.751 Y89.529 E30.61135
G1 X50.761 Y88.841 E30.63424
G1 X50.815 Y87.905 E30.66542
G1 X50.966 Y86.881 E30.69985
G1 X51.01 Y86.657 E30.70744
G1 X51.23 Y85.745 E30.73865
G1 X51.527 Y84.855 E30.76985
G1 X51.898 Y83.994 E30.80103
G1 X52.342 Y83.168 E30.83222
G1 X52.839 Y82.403 E30.86257
G1 X52.989 Y82.192 E30.87118
G1 X53.564 Y81.452 E30.90235
G1 X54.201 Y80.763 E30.93356
G1 X54.893 Y80.131 E30.96473
G1 X55.638 Y79.56 E30.99595
G1 X56.687 Y78.909 E31.03701
G1 X56.929 Y78.777 E31.04618
G1 X57.77 Y78.364 E31.07734
G1 X58.644 Y78.023 E31.10854
G1 X59.544 Y77.758 E31.13975
G1 X60.463 Y77.571 E31.17094
G1 X61.829 Y77.44 E31.21658
G1 X62.787 Y77.408 E31.24846
G1 X63.153 Y77.402 E31.26064
G1 X107.121 Y77.401 E32.72302
G1 X108.97 Y77.427 E32.78452
G1 X111.939 Y77.422 E32.88327
G1 X113.179 Y77.402 E32.92452
G1 X157.098 Y77.401 E34.38527
G1 X157.798 Y77.411 E34.40856
G1 F2700 E29.40856
;MESH:TestMold-T.stl
G0 F6000 X111.818 Y87.852
G0 X108.904 Y88.875
G0 X107.829 Y89.008
G0 X107.646 Y130.995
;TYPE:WALL-INNER
G1 F2700 E34.40856
G1 F1200 X107.625 Y130.998 E34.40926
G1 X107.26 Y131 E34.4214
G1 X107.254 Y131 E34.4216
G1 X62.354 Y130.995 E35.91498
G1 X62.352 Y130.972 E35.91575
G1 X62.35 Y89.206 E37.30489
G1 X62.35 Y89.013 E37.31131
G1 X62.351 Y89.005 E37.31158
G1 X62.358 Y89.002 E37.31183
G1 X62.551 Y89.002 E37.31825
G1 X107.646 Y89.004 E38.81812
G1 X107.646 Y130.989 E40.21455
G1 X107.646 Y130.995 E40.21475
G0 F6000 X107.786 Y131.375
;TYPE:WALL-OUTER
G1 F1200 X107.747 Y131.386 E40.21609
G1 X107.652 Y131.398 E40.21928
G1 X107.262 Y131.4 E40.23225
G1 X62.29 Y131.395 E41.72802
G1 X62.182 Y131.362 E41.73178
G1 X62.142 Y131.34 E41.7333
G1 X62.079 Y131.291 E41.73595
G1 X62.026 Y131.231 E41.73862
G1 X61.975 Y131.136 E41.7422
G1 X61.964 Y131.097 E41.74355
G1 X61.952 Y131 E41.7468
G1 X61.95 Y89 E43.14373
G1 X61.956 Y88.936 E43.14586
G1 X61.975 Y88.863 E43.14837
G1 X62.019 Y88.777 E43.15159
G1 X62.058 Y88.73 E43.15362
G1 X62.119 Y88.676 E43.15633
G1 X62.211 Y88.627 E43.15979
G1 X62.272 Y88.608 E43.16192
G1 X62.339 Y88.602 E43.16416
G1 X107.646 Y88.6 E44.67107
G1 X107.71 Y88.605 E44.67321
G1 X107.818 Y88.638 E44.67696
G1 X107.858 Y88.66 E44.67848
G1 X107.921 Y88.709 E44.68114
G1 X107.974 Y88.769 E44.6838
G1 X108.025 Y88.864 E44.68739
G1 X108.036 Y88.902 E44.6887
G1 X108.048 Y88.998 E44.69192
G1 X108.05 Y131 E46.08891
G1 X108.045 Y131.06 E46.09091
G1 X108.012 Y131.168 E46.09467
G1 X107.99 Y131.208 E46.09619
G1 X107.941 Y131.271 E46.09884
G1 X107.881 Y131.324 E46.10151
G1 X107.786 Y131.375 E46.10509
G0 F6000 X107.622 Y130.967
G0 X107.256 Y130.61
;TYPE:SKIN
G1 F1200 X62.742 Y130.605 E47.58563
G1 X62.74 Y89.392 E48.95638
G1 X107.256 Y89.394 E50.43699
G1 X107.256 Y130.61 E51.80784
G1 F2700 E46.80784
G0 F6000 X107.255 Y130.889
G0 X107.443 Y130.825
G0 X107.536 Y90.125
G0 X107.096 Y90.125
G1 F2700 E51.80784
G1 F1200 X106.524 Y89.553 E51.83475
G0 F6000 X105.958 Y89.553
G1 F1200 X107.096 Y90.691 E51.88828
G0 F6000 X107.096 Y91.257
G1 F1200 X105.392 Y89.553 E51.96843
G0 F6000 X104.827 Y89.553
G1 F1200 X107.096 Y91.822 E52.07515
G0 F6000 X107.096 Y92.388
G1 F1200 X104.261 Y89.553 E52.2085
G0 F6000 X103.695 Y89.553
G1 F1200 X107.096 Y92.954 E52.36848
G0 F6000 X107.096 Y93.519
G1 F1200 X103.13 Y89.553 E52.55502
G0 F6000 X102.564 Y89.553
G1 F1200 X107.096 Y94.085 E52.7682
G0 F6000 X107.096 Y94.651
G1 F1200 X101.998 Y89.553 E53.00799
G0 F6000 X101.433 Y89.553
G1 F1200 X107.096 Y95.216 E53.27436
G0 F6000 X107.096 Y95.782
G1 F1200 X100.867 Y89.553 E53.56735
G0 F6000 X100.301 Y89.553
G1 F1200 X107.096 Y96.348 E53.88697
G0 F6000 X107.096 Y96.913
G1 F1200 X99.735 Y89.553 E54.23318
G0 F6000 X99.17 Y89.553
G1 F1200 X107.096 Y97.479 E54.606
G0 F6000 X107.096 Y98.045
G1 F1200 X98.604 Y89.553 E55.00544
G0 F6000 X98.038 Y89.553
G1 F1200 X107.096 Y98.61 E55.43147
G0 F6000 X107.096 Y99.176
G1 F1200 X97.473 Y89.553 E55.88411
G0 F6000 X96.907 Y89.553
G1 F1200 X107.096 Y99.742 E56.36337
G0 F6000 X107.096 Y100.308
G1 F1200 X96.341 Y89.553 E56.86925
G0 F6000 X95.775 Y89.552
G1 F1200 X107.096 Y100.873 E57.40176
G0 F6000 X107.096 Y101.439
G1 F1200 X95.209 Y89.552 E57.96088
G0 F6000 X94.644 Y89.552
G1 F1200 X107.096 Y102.005 E58.54661
G0 F6000 X107.096 Y102.57
G1 F1200 X94.078 Y89.552 E59.15894
G0 F6000 X93.512 Y89.552
G1 F1200 X107.096 Y103.136 E59.79789
G0 F6000 X107.096 Y103.702
G1 F1200 X92.947 Y89.552 E60.46344
G0 F6000 X92.381 Y89.552
G1 F1200 X107.096 Y104.267 E61.15559
G0 F6000 X107.096 Y104.833
G1 F1200 X91.815 Y89.552 E61.87436
G0 F6000 X91.25 Y89.552
G1 F1200 X107.096 Y105.399 E62.61973
G0 F6000 X107.096 Y105.964
G1 F1200 X90.684 Y89.552 E63.3917
G0 F6000 X90.118 Y89.552
G1 F1200 X107.096 Y106.53 E64.19029
G0 F6000 X107.096 Y107.096
G1 F1200 X89.552 Y89.552 E65.01551
G0 F6000 X88.987 Y89.552
G1 F1200 X107.096 Y107.661 E65.8673
G0 F6000 X107.096 Y108.227
G1 F1200 X88.421 Y89.552 E66.74571
G0 F6000 X87.855 Y89.552
G1 F1200 X107.096 Y108.793 E67.65075
G0 F6000 X107.096 Y109.359
G1 F1200 X87.29 Y89.552 E68.58239
G0 F6000 X86.724 Y89.552
G1 F1200 X107.096 Y109.924 E69.54063
G0 F6000 X107.096 Y110.49
G1 F1200 X86.158 Y89.552 E70.52548
G0 F6000 X85.593 Y89.552
G1 F1200 X107.096 Y111.056 E71.53694
G0 F6000 X107.096 Y111.621
G1 F1200 X85.027 Y89.552 E72.575
G0 F6000 X84.461 Y89.552
G1 F1200 X107.096 Y112.187 E73.63968
G0 F6000 X107.096 Y112.753
G1 F1200 X83.895 Y89.552 E74.73099
G0 F6000 X83.329 Y89.552
G1 F1200 X107.096 Y113.318 E75.84889
G0 F6000 X107.096 Y113.884
G1 F1200 X82.764 Y89.552 E76.99339
G0 F6000 X82.198 Y89.552
G1 F1200 X107.096 Y114.45 E78.16452
G0 F6000 X107.096 Y115.015
G1 F1200 X81.632 Y89.552 E79.36224
G0 F6000 X81.066 Y89.552
G1 F1200 X107.096 Y115.581 E80.58659
G0 F6000 X107.096 Y116.147
G1 F1200 X80.501 Y89.552 E81.83754
G0 F6000 X79.935 Y89.552
G1 F1200 X107.096 Y116.712 E83.11508
G0 F6000 X107.096 Y117.278
G1 F1200 X79.369 Y89.552 E84.41925
G0 F6000 X78.804 Y89.552
G1 F1200 X107.096 Y117.844 E85.75002
G0 F6000 X107.096 Y118.409
G1 F1200 X78.238 Y89.552 E87.10739
G0 F6000 X77.672 Y89.552
G1 F1200 X107.096 Y118.975 E88.49138
G0 F6000 X107.096 Y119.541
G1 F1200 X77.107 Y89.552 E89.90197
G0 F6000 X76.541 Y89.552
G1 F1200 X107.096 Y120.107 E91.33919
G0 F6000 X107.096 Y120.672
G1 F1200 X75.975 Y89.552 E92.803
G0 F6000 X75.41 Y89.552
G1 F1200 X107.096 Y121.238 E94.29341
G0 F6000 X107.096 Y121.804
G1 F1200 X74.844 Y89.552 E95.81045
G0 F6000 X74.278 Y89.552
G1 F1200 X107.096 Y122.369 E97.35408
G0 F6000 X107.096 Y122.935
G1 F1200 X73.712 Y89.551 E98.92436
G0 F6000 X73.146 Y89.551
G1 F1200 X107.096 Y123.501 E100.52127
G0 F6000 X107.096 Y124.066
G1 F1200 X72.58 Y89.551 E102.14477
