;FLAVOR:Marlin
;TIME:8902
;Filament used: 8.68819m
;Layer height: 0.2
;MINX:36.001
;MINY:70.201
;MINZ:0.2
;MAXX:186.999
;MAXY:149.8
;MAXZ:15.6
;Generated with Cura_SteamEngine 4.6.1
M140 S50
M105
M190 S50
M104 S200
M105
M109 S200
M82 ;absolute extrusion mode
M201 X500.00 Y500.00 Z100.00 E5000.00 ;Setup machine max acceleration
M203 X500.00 Y500.00 Z10.00 E50.00 ;Setup machine max feedrate
M204 P500.00 R1000.00 T500.00 ;Setup Print/Retract/Travel acceleration
M205 X8.00 Y8.00 Z0.40 E5.00 ;Setup Jerk
M220 S100 ;Reset Feedrate
M221 S100 ;Reset Flowrate

G28 ;Home

G92 E0 ;Reset Extruder
G1 Z2.0 F3000 ;Move Z Axis up
G1 X10.1 Y20 Z0.28 F5000.0 ;Move to start position
G1 X10.1 Y200.0 Z0.28 F1500.0 E15 ;Draw the first line
G1 X10.4 Y200.0 Z0.28 F5000.0 ;Move to side a little
G1 X10.4 Y20 Z0.28 F1500.0 E30 ;Draw the second line
G92 E0 ;Reset Extruder
G1 Z2.0 F3000 ;Move Z Axis up

G92 E0
G92 E0
G1 F2700 E-5
;LAYER_COUNT:78
;LAYER:0
M107
G0 F6000 X175.341 Y71.011 Z0.2
;TYPE:SKIRT
G1 F2700 E0
G1 F1200 X176.632 Y71.112 E0.04307
G1 X176.843 Y71.142 E0.05016
G1 X177.73 Y71.308 E0.08017
G1 X178.6 Y71.553 E0.11023
G1 X179.491 Y71.893 E0.14195
G1 X179.697 Y71.983 E0.14943
G1 X180.507 Y72.381 E0.17945
G1 X181.28 Y72.849 E0.2095
G1 X182.008 Y73.383 E0.23953
G1 X182.721 Y74.014 E0.2712
G1 X182.967 Y74.253 E0.28261
G1 X183.586 Y74.911 E0.31265
G1 X184.145 Y75.62 E0.34268
G1 X184.638 Y76.376 E0.3727
G1 X185.099 Y77.248 E0.40551
G1 X185.193 Y77.449 E0.41289
G1 X185.539 Y78.283 E0.44292
G1 X185.809 Y79.145 E0.47296
G1 X186.003 Y80.027 E0.503
G1 X186.074 Y80.501 E0.51894
G1 X186.11 Y80.788 E0.52856
G1 X186.188 Y81.931 E0.56667
G1 X186.195 Y82.54 E0.58692
G1 X186.199 Y137.39 E2.41124
G1 X186.189 Y138.15 E2.43652
G1 X186.137 Y139.052 E2.46657
G1 X185.939 Y140.267 E2.50752
G1 X185.87 Y140.572 E2.51792
G1 X185.632 Y141.443 E2.54795
G1 X185.317 Y142.29 E2.57801
G1 X184.929 Y143.105 E2.60803
G1 X184.439 Y143.932 E2.64
G1 X184.3 Y144.143 E2.6484
G1 X183.77 Y144.875 E2.67846
G1 X183.178 Y145.556 E2.70847
G1 X182.527 Y146.183 E2.73853
G1 X182.154 Y146.497 E2.75475
G1 X181.979 Y146.637 E2.76221
G1 X181.249 Y147.169 E2.79225
G1 X180.476 Y147.635 E2.82227
G1 X179.839 Y147.952 E2.84593
G1 X179.657 Y148.035 E2.85259
G1 X178.82 Y148.373 E2.88261
G1 X177.956 Y148.636 E2.91265
G1 X176.8 Y148.862 E2.95183
G1 X176.55 Y148.896 E2.96022
G1 X175.362 Y148.987 E2.99985
G1 X174.576 Y149 E3.02599
G1 X115.363 Y148.999 E4.99542
G1 X113.519 Y148.972 E5.05676
G1 X112.77 Y148.951 E5.08168
G1 X110.234 Y148.951 E5.16603
G1 X109.7 Y148.965 E5.1838
G1 X107.627 Y149 E5.25276
G1 X48.359 Y148.999 E7.22402
G1 X47.672 Y148.989 E7.24687
G1 X46.77 Y148.936 E7.27692
G1 X45.648 Y148.756 E7.31472
G1 X45.281 Y148.676 E7.32721
G1 X44.408 Y148.445 E7.35725
G1 X43.558 Y148.137 E7.38732
G1 X42.74 Y147.756 E7.41733
G1 X41.958 Y147.303 E7.44739
G1 X41.482 Y146.98 E7.46652
G1 X41.277 Y146.832 E7.47493
G1 X40.569 Y146.271 E7.50498
G1 X39.914 Y145.651 E7.53497
G1 X39.199 Y144.828 E7.57123
G1 X39.076 Y144.67 E7.57789
G1 X38.554 Y143.933 E7.60793
G1 X38.098 Y143.153 E7.63798
G1 X37.655 Y142.192 E7.67318
G1 X37.561 Y141.957 E7.6816
G1 X37.263 Y141.105 E7.71162
G1 X37.041 Y140.229 E7.74167
G1 X36.898 Y139.337 E7.77172
G1 X36.836 Y138.482 E7.80023
G1 X36.802 Y137.223 E7.84212
G1 X36.801 Y82.518 E9.66162
G1 X36.811 Y81.874 E9.68304
G1 X36.88 Y80.838 E9.71757
G1 X36.907 Y80.609 E9.72524
G1 X37.053 Y79.717 E9.75531
G1 X37.276 Y78.842 E9.78534
G1 X37.719 Y77.653 E9.82754
G1 X37.825 Y77.415 E9.83621
G1 X38.229 Y76.607 E9.86625
G1 X38.702 Y75.838 E9.89628
G1 X39.242 Y75.114 E9.92632
G1 X39.766 Y74.52 E9.95267
G1 X39.957 Y74.32 E9.96187
G1 X40.609 Y73.696 E9.99188
G1 X41.314 Y73.131 E10.02193
G1 X42.066 Y72.631 E10.05197
G1 X42.859 Y72.199 E10.082
G1 X43.33 Y71.984 E10.09922
G1 X43.658 Y71.844 E10.11108
G1 X44.503 Y71.526 E10.14111
G1 X45.374 Y71.285 E10.17117
G1 X46.262 Y71.122 E10.2012
G1 X47.435 Y71.028 E10.24034
G1 X48.696 Y71.002 E10.28229
G1 X107.636 Y71.001 E12.24264
G1 X109.339 Y71.026 E12.29929
G1 X110.267 Y71.053 E12.33017
G1 X113.365 Y71.045 E12.43321
G1 X115.729 Y71.002 E12.51185
G1 X174.637 Y71.001 E14.47114
G1 X175.341 Y71.011 E14.49455
G0 F6000 X175.347 Y70.611
G1 F1200 X176.688 Y70.716 E14.53929
G1 X176.899 Y70.746 E14.54638
G1 X177.804 Y70.915 E14.577
G1 X178.691 Y71.162 E14.60763
G1 X179.651 Y71.527 E14.64178
G1 X179.857 Y71.617 E14.64926
G1 X180.684 Y72.021 E14.67987
G1 X181.472 Y72.497 E14.71049
G1 X182.217 Y73.038 E14.74112
G1 X182.999 Y73.727 E14.77578
G1 X183.245 Y73.966 E14.78719
G1 X183.877 Y74.636 E14.81782
G1 X184.449 Y75.358 E14.84846
G1 X184.955 Y76.127 E14.87908
G1 X185.461 Y77.079 E14.91494
G1 X185.555 Y77.28 E14.92232
G1 X185.908 Y78.13 E14.95293
G1 X186.187 Y79.007 E14.98354
G1 X186.388 Y79.906 E15.01418
G1 X186.471 Y80.451 E15.03251
G1 X186.507 Y80.738 E15.04213
G1 X186.588 Y81.926 E15.08174
G1 X186.595 Y82.54 E15.10216
G1 X186.599 Y137.395 E16.92665
G1 X186.589 Y138.155 E16.95193
G1 X186.537 Y139.075 E16.98257
G1 X186.329 Y140.355 E17.02571
G1 X186.26 Y140.66 E17.03611
G1 X186.018 Y141.548 E17.06672
G1 X185.7 Y142.412 E17.09734
G1 X185.308 Y143.245 E17.12796
G1 X184.773 Y144.152 E17.16298
G1 X184.634 Y144.363 E17.17139
G1 X184.094 Y145.109 E17.20202
G1 X183.492 Y145.806 E17.23265
G1 X182.832 Y146.448 E17.26327
G1 X182.404 Y146.809 E17.2819
G1 X182.229 Y146.949 E17.28935
G1 X181.486 Y147.493 E17.31998
G1 X180.698 Y147.969 E17.3506
G1 X180.005 Y148.316 E17.37638
G1 X179.823 Y148.399 E17.38303
G1 X178.97 Y148.745 E17.41364
G1 X178.09 Y149.015 E17.44426
G1 X176.853 Y149.258 E17.48619
G1 X176.603 Y149.292 E17.49458
G1 X175.37 Y149.387 E17.53571
G1 X174.576 Y149.4 E17.56212
G1 X115.358 Y149.399 E19.53172
G1 X113.508 Y149.372 E19.59326
G1 X112.759 Y149.351 E19.61818
G1 X110.245 Y149.351 E19.7018
G1 X109.707 Y149.365 E19.7197
G1 X107.627 Y149.4 E19.78889
G1 X48.353 Y149.399 E21.76035
G1 X47.666 Y149.389 E21.7832
G1 X46.747 Y149.336 E21.81382
G1 X45.562 Y149.147 E21.85373
G1 X45.195 Y149.067 E21.86622
G1 X44.305 Y148.832 E21.89684
G1 X43.439 Y148.521 E21.92744
G1 X42.603 Y148.135 E21.95807
G1 X41.803 Y147.679 E21.9887
G1 X41.248 Y147.304 E22.01098
G1 X41.043 Y147.156 E22.01939
G1 X40.321 Y146.585 E22.05
G1 X39.651 Y145.954 E22.08061
G1 X38.884 Y145.073 E22.11946
G1 X38.761 Y144.915 E22.12612
G1 X38.227 Y144.165 E22.15675
G1 X37.761 Y143.371 E22.18737
G1 X37.283 Y142.341 E22.22513
G1 X37.189 Y142.106 E22.23355
G1 X36.885 Y141.237 E22.26417
G1 X36.657 Y140.345 E22.29479
G1 X36.507 Y139.437 E22.3254
G1 X36.436 Y138.494 E22.35686
G1 X36.402 Y137.223 E22.39915
G1 X36.401 Y82.511 E24.21887
G1 X36.411 Y81.867 E24.2403
G1 X36.483 Y80.791 E24.27616
G1 X36.51 Y80.562 E24.28383
G1 X36.657 Y79.653 E24.31446
G1 X36.883 Y78.76 E24.3451
G1 X37.354 Y77.49 E24.39015
G1 X37.46 Y77.252 E24.39881
G1 X37.871 Y76.428 E24.42944
G1 X38.351 Y75.643 E24.46004
G1 X38.898 Y74.903 E24.49065
G1 X39.477 Y74.244 E24.51983
G1 X39.668 Y74.044 E24.52903
G1 X40.332 Y73.407 E24.55963
G1 X41.049 Y72.829 E24.59026
G1 X41.814 Y72.316 E24.6209
G1 X42.62 Y71.871 E24.65152
G1 X43.173 Y71.616 E24.67177
G1 X43.501 Y71.476 E24.68363
G1 X44.362 Y71.152 E24.71423
G1 X45.249 Y70.903 E24.74487
G1 X46.154 Y70.733 E24.7755
G1 X47.426 Y70.628 E24.81795
G1 X48.696 Y70.602 E24.8602
G1 X107.642 Y70.601 E26.82075
G1 X109.351 Y70.626 E26.8776
G1 X110.278 Y70.653 E26.90845
G1 X113.356 Y70.645 E27.01082
G1 X115.729 Y70.602 E27.08976
G1 X174.643 Y70.601 E29.04925
G1 X175.347 Y70.611 E29.07267
G0 F6000 X175.352 Y70.211
G1 F1200 X176.744 Y70.32 E29.11911
G1 X176.955 Y70.35 E29.12619
G1 X177.877 Y70.521 E29.15738
G1 X178.782 Y70.77 E29.1886
G1 X179.811 Y71.16 E29.2252
G1 X180.017 Y71.25 E29.23268
G1 X180.86 Y71.662 E29.26389
G1 X181.664 Y72.144 E29.29506
G1 X182.425 Y72.693 E29.32627
G1 X183.278 Y73.44 E29.36399
G1 X183.524 Y73.679 E29.37539
G1 X184.168 Y74.361 E29.40659
G1 X184.752 Y75.095 E29.43779
G1 X185.271 Y75.876 E29.46898
G1 X185.823 Y76.909 E29.50793
G1 X185.917 Y77.11 E29.51531
G1 X186.278 Y77.976 E29.54652
G1 X186.564 Y78.869 E29.57771
G1 X186.772 Y79.784 E29.60892
G1 X186.867 Y80.401 E29.62968
G1 X186.903 Y80.688 E29.6393
G1 X186.988 Y81.921 E29.68041
G1 X186.995 Y82.54 E29.701
G1 X186.999 Y137.401 E31.52568
G1 X186.989 Y138.161 E31.55096
G1 X186.937 Y139.097 E31.58214
G1 X186.719 Y140.443 E31.62749
G1 X186.65 Y140.748 E31.63789
G1 X186.404 Y141.653 E31.66909
G1 X186.082 Y142.534 E31.70028
G1 X185.686 Y143.384 E31.73147
G1 X185.107 Y144.372 E31.76956
G1 X184.968 Y144.583 E31.77796
G1 X184.419 Y145.344 E31.80917
G1 X183.807 Y146.055 E31.84038
G1 X183.137 Y146.711 E31.87156
G1 X182.654 Y147.122 E31.89266
G1 X182.479 Y147.262 E31.90011
G1 X181.722 Y147.816 E31.93131
G1 X180.921 Y148.303 E31.96249
G1 X180.171 Y148.68 E31.99041
G1 X179.989 Y148.763 E31.99706
G1 X179.12 Y149.116 E32.02826
G1 X178.224 Y149.393 E32.05945
G1 X176.907 Y149.655 E32.10411
G1 X176.657 Y149.689 E32.11251
G1 X175.377 Y149.787 E32.1552
G1 X174.576 Y149.8 E32.18185
G1 X115.352 Y149.799 E34.15165
G1 X113.497 Y149.772 E34.21335
G1 X112.748 Y149.751 E34.23827
G1 X110.256 Y149.751 E34.32116
G1 X109.714 Y149.765 E34.33919
G1 X107.627 Y149.8 E34.40861
G1 X48.347 Y149.799 E36.38027
G1 X47.66 Y149.789 E36.40313
G1 X46.724 Y149.735 E36.43431
G1 X45.477 Y149.538 E36.4763
G1 X45.11 Y149.458 E36.48879
G1 X44.203 Y149.219 E36.51999
G1 X43.32 Y148.904 E36.55117
G1 X42.466 Y148.515 E36.58238
G1 X41.649 Y148.054 E36.61358
G1 X41.014 Y147.629 E36.639
G1 X40.809 Y147.481 E36.64741
G1 X40.073 Y146.9 E36.67859
G1 X39.389 Y146.258 E36.7098
G1 X38.568 Y145.319 E36.75128
G1 X38.445 Y145.161 E36.75794
G1 X37.901 Y144.397 E36.78913
G1 X37.424 Y143.59 E36.82031
G1 X36.912 Y142.489 E36.8607
G1 X36.818 Y142.254 E36.86912
G1 X36.507 Y141.369 E36.90032
G1 X36.273 Y140.461 E36.9315
G1 X36.116 Y139.537 E36.96268
G1 X36.036 Y138.506 E36.99707
G1 X36.007 Y137.56 E37.02855
G1 X36.002 Y137.223 E37.03976
G1 X36.001 Y82.505 E38.85969
G1 X36.011 Y81.861 E38.88111
G1 X36.086 Y80.744 E38.91835
G1 X36.113 Y80.515 E38.92602
G1 X36.262 Y79.589 E38.95721
G1 X36.49 Y78.679 E38.98841
G1 X36.794 Y77.792 E39.0196
G1 X36.989 Y77.328 E39.03634
G1 X37.095 Y77.09 E39.045
G1 X37.512 Y76.25 E39.0762
G1 X38 Y75.449 E39.10739
G1 X38.554 Y74.692 E39.13859
G1 X39.188 Y73.968 E39.1706
G1 X39.379 Y73.768 E39.1798
G1 X40.055 Y73.118 E39.21099
G1 X40.784 Y72.528 E39.24218
G1 X41.561 Y72.002 E39.27339
G1 X42.379 Y71.544 E39.30457
G1 X43.016 Y71.248 E39.32793
G1 X43.344 Y71.108 E39.3398
G1 X44.221 Y70.777 E39.37097
G1 X45.124 Y70.522 E39.40218
G1 X46.045 Y70.345 E39.43337
G1 X47.417 Y70.228 E39.47917
G1 X48.696 Y70.202 E39.52172
G1 X107.648 Y70.201 E41.48247
G1 X109.362 Y70.227 E41.53949
G1 X110.256 Y70.253 E41.56923
G1 X113.347 Y70.245 E41.67204
G1 X115.729 Y70.202 E41.75128
G1 X174.648 Y70.201 E43.71093
G1 X175.352 Y70.211 E43.73435
G1 F2700 E38.73435
;MESH:TestMold-T.stl
G0 F6000 X114.317 Y80.62
G0 X109.655 Y81.888
G0 X108.579 Y82.012
G0 X108.247 Y138.19
;TYPE:WALL-INNER
G1 F2700 E43.73435
G1 F1200 X108.181 Y138.198 E43.73656
G1 X107.81 Y138.2 E43.7489
G1 X47.776 Y138.196 E45.74564
G1 X47.697 Y138.169 E45.74842
G1 X47.663 Y138.142 E45.74986
G1 X47.645 Y138.121 E45.75078
G1 X47.61 Y138.048 E45.75348
G1 X47.602 Y137.98 E45.75575
G1 X47.604 Y81.977 E47.61842
G1 X47.616 Y81.932 E47.61997
G1 X47.651 Y81.87 E47.62234
G1 X47.682 Y81.844 E47.62368
G1 X47.759 Y81.806 E47.62654
G1 X47.805 Y81.802 E47.62807
G1 X108.224 Y81.804 E49.63762
G1 X108.303 Y81.831 E49.6404
G1 X108.337 Y81.858 E49.64184
G1 X108.355 Y81.879 E49.64276
G1 X108.39 Y81.952 E49.64545
G1 X108.398 Y82.018 E49.64766
G1 X108.397 Y138.018 E51.51023
G1 X108.367 Y138.105 E51.51329
G1 X108.345 Y138.134 E51.5145
G1 X108.321 Y138.155 E51.51556
G1 X108.247 Y138.19 E51.51829
G0 F6000 X108.416 Y138.558
;TYPE:WALL-OUTER
G1 F1200 X108.331 Y138.583 E51.52123
G1 X108.202 Y138.598 E51.52555
G1 X107.812 Y138.6 E51.53852
G1 X47.805 Y138.6 E53.53436
G1 X47.7 Y138.591 E53.53787
G1 X47.559 Y138.548 E53.54277
G1 X47.477 Y138.505 E53.54585
G1 X47.384 Y138.431 E53.54981
G1 X47.312 Y138.347 E53.55348
G1 X47.242 Y138.216 E53.55842
G1 X47.217 Y138.131 E53.56137
G1 X47.202 Y138 E53.56576
G1 X47.2 Y82 E55.42832
G1 X47.209 Y81.903 E55.43157
G1 X47.242 Y81.785 E55.43564
G1 X47.305 Y81.663 E55.44021
G1 X47.365 Y81.588 E55.4434
G1 X47.455 Y81.512 E55.44732
G1 X47.59 Y81.44 E55.45241
G1 X47.681 Y81.412 E55.45558
G1 X47.79 Y81.402 E55.45922
G1 X108.195 Y81.4 E57.46829
G1 X108.3 Y81.409 E57.4718
G1 X108.441 Y81.452 E57.4767
G1 X108.523 Y81.495 E57.47978
G1 X108.616 Y81.569 E57.48373
G1 X108.688 Y81.653 E57.48741
G1 X108.758 Y81.784 E57.49235
G1 X108.783 Y81.869 E57.4953
G1 X108.798 Y81.997 E57.49959
G1 X108.8 Y138 E59.36226
G1 X108.791 Y138.1 E59.36559
G1 X108.748 Y138.241 E59.3705
G1 X108.705 Y138.322 E59.37355
G1 X108.631 Y138.416 E59.37753
G1 X108.547 Y138.488 E59.38121
G1 X108.416 Y138.558 E59.38615
G0 F6000 X108.25 Y138.151
G0 X108.007 Y137.809
;TYPE:SKIN
G1 F1200 X107.808 Y137.81 E59.39277
G1 X47.992 Y137.806 E61.38225
G1 X47.994 Y82.192 E63.23198
G1 X108.008 Y82.194 E65.22806
G1 X108.007 Y137.809 E67.07782
G1 F2700 E62.07782
G0 F6000 X108.007 Y138.089
G0 X108.203 Y138.001
G0 X108.287 Y82.958
G0 X107.847 Y82.957
G1 F2700 E67.07782
G1 F1200 X107.244 Y82.354 E67.10618
G0 F6000 X106.679 Y82.354
G1 F1200 X107.847 Y83.522 E67.16112
G0 F6000 X107.847 Y84.088
G1 F1200 X106.113 Y82.354 E67.24268
G0 F6000 X105.547 Y82.354
G1 F1200 X107.847 Y84.654 E67.35087
G0 F6000 X107.847 Y85.219
G1 F1200 X104.982 Y82.354 E67.48563
G0 F6000 X104.416 Y82.354
G1 F1200 X107.847 Y85.785 E67.64701
G0 F6000 X107.847 Y86.351
G1 F1200 X103.85 Y82.354 E67.83502
G0 F6000 X103.284 Y82.354
G1 F1200 X107.847 Y86.916 E68.04963
G0 F6000 X107.847 Y87.482
G1 F1200 X102.719 Y82.354 E68.29083
G0 F6000 X102.153 Y82.354
G1 F1200 X107.847 Y88.048 E68.55866
G0 F6000 X107.847 Y88.613
G1 F1200 X101.587 Y82.354 E68.85309
G0 F6000 X101.022 Y82.354
G1 F1200 X107.847 Y89.179 E69.17411
G0 F6000 X107.847 Y89.745
G1 F1200 X100.456 Y82.354 E69.52176
G0 F6000 X99.89 Y82.354
G1 F1200 X107.847 Y90.31 E69.89601
G0 F6000 X107.847 Y90.876
G1 F1200 X99.325 Y82.354 E70.29686
G0 F6000 X98.759 Y82.354
G1 F1200 X107.847 Y91.442 E70.72433
G0 F6000 X107.847 Y92.008
G1 F1200 X98.193 Y82.354 E71.17843
G0 F6000 X97.628 Y82.354
G1 F1200 X107.847 Y92.573 E71.6591
G0 F6000 X107.847 Y93.139
G1 F1200 X97.062 Y82.354 E72.16639
G0 F6000 X96.496 Y82.354
G1 F1200 X107.847 Y93.705 E72.70031
G0 F6000 X107.847 Y94.27
G1 F1200 X95.931 Y82.354 E73.2608
G0 F6000 X95.364 Y82.353
G1 F1200 X107.847 Y94.836 E73.84796
G0 F6000 X107.847 Y95.402
G1 F1200 X94.798 Y82.353 E74.46175
G0 F6000 X94.233 Y82.353
G1 F1200 X107.847 Y95.967 E75.10211
G0 F6000 X107.847 Y96.533
G1 F1200 X93.667 Y82.353 E75.76909
G0 F6000 X93.101 Y82.353
G1 F1200 X107.847 Y97.099 E76.4627
G0 F6000 X107.847 Y97.664
G1 F1200 X92.536 Y82.353 E77.18288
G0 F6000 X91.97 Y82.353
G1 F1200 X107.847 Y98.23 E77.92969
G0 F6000 X107.847 Y98.796
G1 F1200 X91.404 Y82.353 E78.70311
G0 F6000 X90.839 Y82.353
G1 F1200 X107.847 Y99.361 E79.50312
G0 F6000 X107.847 Y99.927
G1 F1200 X90.273 Y82.353 E80.32975
G0 F6000 X89.707 Y82.353
G1 F1200 X107.847 Y100.493 E81.183
G0 F6000 X107.847 Y101.058
G1 F1200 X89.142 Y82.353 E82.06282
G0 F6000 X88.576 Y82.353
G1 F1200 X107.847 Y101.624 E82.96927
G0 F6000 X107.847 Y102.19
G1 F1200 X88.01 Y82.353 E83.90234
G0 F6000 X87.445 Y82.353
G1 F1200 X107.847 Y102.756 E84.86201
G0 F6000 X107.847 Y103.321
G1 F1200 X86.879 Y82.353 E85.84828
G0 F6000 X86.313 Y82.353
G1 F1200 X107.847 Y103.887 E86.86118
G0 F6000 X107.847 Y104.453
G1 F1200 X85.748 Y82.353 E87.90067
G0 F6000 X85.182 Y82.353
G1 F1200 X107.847 Y105.018 E88.96676
G0 F6000 X107.847 Y105.584
G1 F1200 X84.616 Y82.353 E90.05948
G0 F6000 X84.05 Y82.353
G1 F1200 X107.847 Y106.15 E91.17881
G0 F6000 X107.847 Y106.715
G1 F1200 X83.484 Y82.353 E92.32475
G0 F6000 X82.918 Y82.353
G1 F1200 X107.847 Y107.281 E93.49731
G0 F6000 X107.847 Y107.847
G1 F1200 X82.353 Y82.353 E94.69647
G0 F6000 X81.787 Y82.353
G1 F1200 X107.847 Y108.412 E95.92223
G0 F6000 X107.847 Y108.978
G1 F1200 X81.221 Y82.353 E97.17461
G0 F6000 X80.656 Y82.353
