;FLAVOR:Marlin
;TIME:23081
;Filament used: 27.774m
;Layer height: 0.2
;MINX:21.5
;MINY:27
;MINZ:0.2
;MAXX:198.5
;MAXY:193
;MAXZ:17
;Generated with Cura_SteamEngine 4.6.1
M140 S53
M105
M190 S53
M104 S205
M105
M109 S205
M82 ;absolute extrusion mode
M201 X500.00 Y500.00 Z100.00 E5000.00 ;Setup machine max acceleration
M203 X500.00 Y500.00 Z10.00 E50.00 ;Setup machine max feedrate
M204 P500.00 R1000.00 T500.00 ;Setup Print/Retract/Travel acceleration
M205 X8.00 Y8.00 Z0.40 E5.00 ;Setup Jerk
M220 S100 ;Reset Feedrate
M221 S100 ;Reset Flowrate

G28 ;Home

G92 E0 ;Reset Extruder
G1 Z2.0 F3000 ;Move Z Axis up
G1 X10.1 Y20 Z0.28 F5000.0 ;Move to start position
G1 X10.1 Y200.0 Z0.28 F1500.0 E15 ;Draw the first line
G1 X10.4 Y200.0 Z0.28 F5000.0 ;Move to side a little
G1 X10.4 Y20 Z0.28 F1500.0 E30 ;Draw the second line
G92 E0 ;Reset Extruder
G1 Z2.0 F3000 ;Move Z Axis up

G92 E0
G92 E0
G1 F2700 E-5
;LAYER_COUNT:85
;LAYER:0
M107
G0 F6000 X185.553 Y27.81 Z0.2
;TYPE:SKIRT
G1 F2700 E0
G1 F1200 X186.15 Y27.836 E0.01988
G1 X186.586 Y27.868 E0.03442
G1 X187.482 Y27.974 E0.06442
G1 X188.664 Y28.24 E0.10472
G1 X189.056 Y28.353 E0.11829
G1 X189.912 Y28.641 E0.14833
G1 X190.853 Y29.061 E0.1826
G1 X191.213 Y29.244 E0.19603
G1 X191.999 Y29.689 E0.22608
G1 X193.007 Y30.408 E0.26726
G1 X193.311 Y30.654 E0.28026
G1 X193.988 Y31.253 E0.31033
G1 X194.735 Y32.059 E0.34688
G1 X194.973 Y32.345 E0.35926
G1 X195.52 Y33.064 E0.3893
G1 X196.075 Y33.961 E0.42439
G1 X196.277 Y34.329 E0.43835
G1 X196.676 Y35.139 E0.46838
G1 X197.067 Y36.183 E0.50546
G1 X197.174 Y36.524 E0.51735
G1 X197.406 Y37.397 E0.54739
G1 X197.578 Y38.434 E0.58235
G1 X197.62 Y38.806 E0.5948
G1 X197.674 Y39.498 E0.61789
G1 X197.683 Y39.701 E0.62465
G1 X197.696 Y40.437 E0.64913
G1 X197.7 Y109.58 E2.94884
G1 X197.7 Y179.292 E5.26747
G1 X197.691 Y180.027 E5.29192
G1 X197.665 Y180.638 E5.31226
G1 X197.632 Y181.087 E5.32723
G1 X197.526 Y181.984 E5.35727
G1 X197.26 Y183.164 E5.3975
G1 X197.147 Y183.556 E5.41107
G1 X196.859 Y184.412 E5.44111
G1 X196.444 Y185.343 E5.47501
G1 X196.262 Y185.702 E5.4884
G1 X195.818 Y186.489 E5.51846
G1 X195.091 Y187.509 E5.56012
G1 X194.844 Y187.814 E5.57317
G1 X194.245 Y188.49 E5.60321
G1 X193.458 Y189.221 E5.63894
G1 X193.184 Y189.45 E5.65081
G1 X192.466 Y189.998 E5.68085
G1 X191.621 Y190.527 E5.71401
G1 X191.274 Y190.721 E5.72723
G1 X190.466 Y191.126 E5.7573
G1 X189.586 Y191.473 E5.78876
G1 X189.272 Y191.58 E5.79979
G1 X188.405 Y191.833 E5.82983
G1 X187.282 Y192.042 E5.86782
G1 X186.776 Y192.107 E5.88479
G1 X185.814 Y192.184 E5.91689
G1 X185.335 Y192.197 E5.93283
G1 X184.895 Y192.2 E5.94746
G1 X35.207 Y192.2 E10.92611
G1 X34.447 Y192.19 E10.95138
G1 X33.853 Y192.164 E10.97116
G1 X33.416 Y192.132 E10.98573
G1 X32.519 Y192.026 E11.01578
G1 X31.336 Y191.76 E11.05611
G1 X30.944 Y191.647 E11.06967
G1 X30.088 Y191.359 E11.09971
G1 X29.157 Y190.944 E11.13362
G1 X28.8 Y190.763 E11.14693
G1 X28.013 Y190.319 E11.17698
G1 X27.006 Y189.602 E11.2181
G1 X26.695 Y189.351 E11.23139
G1 X26.018 Y188.754 E11.26141
G1 X25.242 Y187.915 E11.29942
G1 X25.017 Y187.643 E11.31116
G1 X24.472 Y186.923 E11.3412
G1 X23.977 Y186.127 E11.37237
G1 X23.777 Y185.77 E11.38598
G1 X23.371 Y184.964 E11.416
G1 X22.999 Y184.011 E11.45003
G1 X22.898 Y183.708 E11.46065
G1 X22.651 Y182.839 E11.4907
G1 X22.457 Y181.777 E11.52661
G1 X22.392 Y181.269 E11.54364
G1 X22.311 Y180.132 E11.58155
G1 X22.302 Y179.459 E11.60394
G1 X22.3 Y110.416 E13.90032
G1 X22.3 Y40.707 E16.21885
G1 X22.31 Y39.922 E16.24496
G1 X22.337 Y39.308 E16.2654
G1 X22.364 Y38.945 E16.27751
G1 X22.471 Y38.049 E16.30752
G1 X22.611 Y37.351 E16.3312
G1 X22.674 Y37.085 E16.34029
G1 X22.859 Y36.408 E16.36363
G1 X22.919 Y36.215 E16.37036
G1 X23.225 Y35.365 E16.4004
G1 X23.612 Y34.533 E16.43092
G1 X23.713 Y34.339 E16.4382
G1 X24.082 Y33.688 E16.46309
G1 X24.221 Y33.463 E16.47188
G1 X24.73 Y32.717 E16.50192
G1 X25.06 Y32.298 E16.51966
G1 X25.239 Y32.083 E16.52896
G1 X25.847 Y31.415 E16.55901
G1 X26.5 Y30.813 E16.58855
G1 X26.788 Y30.57 E16.60108
G1 X27.504 Y30.019 E16.63113
G1 X28.415 Y29.448 E16.66689
G1 X28.723 Y29.277 E16.67861
G1 X29.531 Y28.874 E16.70864
G1 X30.281 Y28.576 E16.73548
G1 X30.59 Y28.467 E16.74638
G1 X31.454 Y28.204 E16.77642
G1 X32.077 Y28.066 E16.79764
G1 X32.382 Y28.008 E16.80797
G1 X33.276 Y27.878 E16.83801
G1 X34.065 Y27.83 E16.8643
G1 X35.475 Y27.802 E16.91121
G1 X110 Y27.8 E19.38992
G1 X184.793 Y27.8 E21.87755
G1 X184.943 Y27.801 E21.88254
G1 X185.553 Y27.81 E21.90283
G0 F6000 X185.559 Y27.41
G1 F1200 X186.179 Y27.437 E21.92347
G1 X186.615 Y27.469 E21.93801
G1 X187.529 Y27.577 E21.96862
G1 X188.775 Y27.856 E22.01109
G1 X189.167 Y27.969 E22.02466
G1 X190.04 Y28.262 E22.05528
G1 X191.034 Y28.705 E22.09148
G1 X191.394 Y28.888 E22.10491
G1 X192.196 Y29.34 E22.13553
G1 X193.259 Y30.097 E22.17893
G1 X193.563 Y30.343 E22.19194
G1 X194.253 Y30.953 E22.22257
G1 X195.043 Y31.803 E22.26117
G1 X195.281 Y32.089 E22.27354
G1 X195.838 Y32.821 E22.30414
G1 X196.425 Y33.768 E22.3412
G1 X196.627 Y34.136 E22.35516
G1 X197.035 Y34.962 E22.3858
G1 X197.449 Y36.063 E22.42492
G1 X197.556 Y36.404 E22.43681
G1 X197.793 Y37.294 E22.46744
G1 X197.975 Y38.389 E22.50436
G1 X198.017 Y38.761 E22.51681
G1 X198.074 Y39.481 E22.54084
G1 X198.083 Y39.684 E22.54759
G1 X198.096 Y40.437 E22.57264
G1 X198.1 Y109.58 E24.87235
G1 X198.1 Y179.292 E27.19098
G1 X198.091 Y180.032 E27.21559
G1 X198.063 Y180.667 E27.23673
G1 X198.03 Y181.116 E27.25171
G1 X197.923 Y182.03 E27.28231
G1 X197.644 Y183.275 E27.32475
G1 X197.531 Y183.667 E27.33832
G1 X197.238 Y184.54 E27.36895
G1 X196.8 Y185.524 E27.40477
G1 X196.618 Y185.883 E27.41816
G1 X196.167 Y186.685 E27.44876
G1 X195.402 Y187.761 E27.49267
G1 X195.155 Y188.066 E27.50573
G1 X194.545 Y188.756 E27.53636
G1 X193.715 Y189.528 E27.57406
G1 X193.441 Y189.757 E27.58594
G1 X192.709 Y190.317 E27.61659
G1 X191.816 Y190.876 E27.65163
G1 X191.469 Y191.07 E27.66485
G1 X190.646 Y191.484 E27.69549
G1 X189.715 Y191.851 E27.72878
G1 X189.401 Y191.958 E27.73981
G1 X188.518 Y192.217 E27.77042
G1 X187.333 Y192.439 E27.81052
G1 X186.827 Y192.504 E27.82749
G1 X185.827 Y192.584 E27.86085
G1 X185.337 Y192.597 E27.87715
G1 X184.897 Y192.6 E27.89179
G1 X35.207 Y192.6 E32.8705
G1 X35.05 Y192.599 E32.87572
G1 X34.441 Y192.59 E32.89598
G1 X33.824 Y192.563 E32.91652
G1 X33.387 Y192.531 E32.93109
G1 X32.472 Y192.424 E32.96173
G1 X31.225 Y192.144 E33.00424
G1 X30.833 Y192.031 E33.01781
G1 X29.96 Y191.738 E33.04844
G1 X28.976 Y191.3 E33.08426
G1 X28.619 Y191.119 E33.09758
G1 X27.816 Y190.668 E33.12821
G1 X26.755 Y189.914 E33.1715
G1 X26.444 Y189.663 E33.18479
G1 X25.753 Y189.054 E33.21543
G1 X24.933 Y188.17 E33.25553
G1 X24.708 Y187.898 E33.26727
G1 X24.153 Y187.164 E33.29788
G1 X23.628 Y186.323 E33.33085
G1 X23.428 Y185.966 E33.34446
G1 X23.014 Y185.144 E33.37507
G1 X22.62 Y184.137 E33.41104
G1 X22.519 Y183.834 E33.42166
G1 X22.266 Y182.949 E33.45228
G1 X22.061 Y181.827 E33.49021
G1 X21.996 Y181.319 E33.50725
G1 X21.911 Y180.139 E33.5466
G1 X21.902 Y179.459 E33.56921
G1 X21.9 Y110.416 E35.86559
G1 X21.9 Y40.707 E38.18412
G1 X21.91 Y39.916 E38.21044
G1 X21.938 Y39.279 E38.23164
G1 X21.965 Y38.916 E38.24375
G1 X22.073 Y38.001 E38.27439
G1 X22.221 Y37.259 E38.29956
G1 X22.284 Y36.993 E38.30865
G1 X22.477 Y36.289 E38.33293
G1 X22.537 Y36.096 E38.33965
G1 X22.848 Y35.23 E38.37026
G1 X23.257 Y34.348 E38.40259
G1 X23.358 Y34.154 E38.40987
G1 X23.742 Y33.478 E38.43572
G1 X23.881 Y33.253 E38.44452
G1 X24.398 Y32.491 E38.47515
G1 X24.753 Y32.042 E38.49419
G1 X24.932 Y31.827 E38.50349
G1 X25.551 Y31.145 E38.53412
G1 X26.242 Y30.508 E38.56538
G1 X26.53 Y30.265 E38.57792
G1 X27.259 Y29.702 E38.60855
G1 X28.221 Y29.099 E38.64631
G1 X28.529 Y28.928 E38.65803
G1 X29.352 Y28.516 E38.68864
G1 X30.148 Y28.199 E38.71714
G1 X30.457 Y28.09 E38.72804
G1 X31.337 Y27.821 E38.75864
G1 X32.003 Y27.673 E38.78133
G1 X32.308 Y27.615 E38.79166
G1 X33.219 Y27.482 E38.82228
G1 X34.056 Y27.431 E38.85017
G1 X35.475 Y27.402 E38.89738
G1 X110 Y27.4 E41.37609
G1 X184.793 Y27.4 E43.86372
G1 X184.949 Y27.401 E43.8689
G1 X185.559 Y27.41 E43.88919
G0 F6000 X185.565 Y27.01
G1 F1200 X186.208 Y27.039 E43.9106
G1 X186.644 Y27.071 E43.92514
G1 X187.576 Y27.179 E43.95635
G1 X188.886 Y27.471 E44.00099
G1 X189.278 Y27.584 E44.01456
G1 X190.167 Y27.882 E44.04574
G1 X191.216 Y28.348 E44.08392
G1 X191.576 Y28.531 E44.09735
G1 X192.393 Y28.991 E44.12854
G1 X193.511 Y29.786 E44.17417
G1 X193.815 Y30.032 E44.18717
G1 X194.518 Y30.653 E44.21837
G1 X195.35 Y31.547 E44.25899
G1 X195.588 Y31.833 E44.27136
G1 X196.157 Y32.579 E44.30257
G1 X196.776 Y33.576 E44.3416
G1 X196.978 Y33.944 E44.35556
G1 X197.394 Y34.785 E44.38677
G1 X197.83 Y35.944 E44.42796
G1 X197.937 Y36.285 E44.43984
G1 X198.18 Y37.191 E44.47104
G1 X198.373 Y38.344 E44.50993
G1 X198.415 Y38.716 E44.52238
G1 X198.473 Y39.463 E44.5473
G1 X198.482 Y39.666 E44.55406
G1 X198.496 Y40.437 E44.5797
G1 X198.5 Y109.58 E46.87941
G1 X198.5 Y179.292 E49.19804
G1 X198.491 Y180.037 E49.22282
G1 X198.462 Y180.696 E49.24476
G1 X198.429 Y181.145 E49.25973
G1 X198.321 Y182.077 E49.29094
G1 X198.029 Y183.386 E49.33555
G1 X197.916 Y183.778 E49.34912
G1 X197.618 Y184.667 E49.3803
G1 X197.157 Y185.705 E49.41808
G1 X196.975 Y186.064 E49.43146
G1 X196.516 Y186.882 E49.46266
G1 X195.712 Y188.013 E49.50881
G1 X195.465 Y188.318 E49.52187
G1 X194.845 Y189.021 E49.55304
G1 X193.971 Y189.835 E49.59277
G1 X193.697 Y190.064 E49.60465
G1 X192.953 Y190.635 E49.63584
G1 X192.011 Y191.225 E49.67281
G1 X191.664 Y191.419 E49.68603
G1 X190.827 Y191.842 E49.71722
G1 X189.844 Y192.23 E49.75237
G1 X189.53 Y192.337 E49.76341
G1 X188.63 Y192.601 E49.7946
G1 X187.384 Y192.835 E49.83677
G1 X186.878 Y192.9 E49.85374
G1 X185.841 Y192.984 E49.88834
G1 X185.34 Y192.997 E49.90501
G1 X184.9 Y193 E49.91964
G1 X35.207 Y193 E54.89845
G1 X35.044 Y192.999 E54.90387
G1 X34.435 Y192.99 E54.92413
G1 X33.795 Y192.962 E54.94544
G1 X33.358 Y192.93 E54.96001
G1 X32.426 Y192.821 E54.99122
G1 X31.114 Y192.529 E55.03593
G1 X30.722 Y192.416 E55.0495
G1 X29.833 Y192.118 E55.08068
G1 X28.795 Y191.657 E55.11846
G1 X28.438 Y191.476 E55.13177
G1 X27.62 Y191.017 E55.16297
G1 X26.503 Y190.225 E55.20851
G1 X26.192 Y189.974 E55.2218
G1 X25.488 Y189.354 E55.253
G1 X24.625 Y188.425 E55.29518
G1 X24.4 Y188.153 E55.30692
G1 X23.834 Y187.406 E55.33809
G1 X23.279 Y186.518 E55.37292
G1 X23.079 Y186.161 E55.38653
G1 X22.656 Y185.324 E55.41772
G1 X22.24 Y184.264 E55.45559
G1 X22.139 Y183.961 E55.46622
G1 X21.881 Y183.059 E55.49742
G1 X21.664 Y181.878 E55.53736
G1 X21.599 Y181.37 E55.55439
G1 X21.511 Y180.145 E55.59524
G1 X21.502 Y179.459 E55.61806
G1 X21.5 Y110.416 E57.91444
G1 X21.5 Y40.707 E60.23297
G1 X21.51 Y39.911 E60.25945
G1 X21.539 Y39.249 E60.28149
G1 X21.566 Y38.886 E60.29359
G1 X21.676 Y37.955 E60.32477
G1 X21.832 Y37.167 E60.35149
G1 X21.895 Y36.901 E60.36058
G1 X22.095 Y36.17 E60.38579
G1 X22.155 Y35.977 E60.39251
G1 X22.471 Y35.095 E60.42367
G1 X22.902 Y34.163 E60.45783
G1 X23.003 Y33.969 E60.4651
G1 X23.402 Y33.268 E60.49193
G1 X23.541 Y33.043 E60.50072
G1 X24.067 Y32.267 E60.5319
G1 X24.445 Y31.786 E60.55225
G1 X24.624 Y31.571 E60.56156
G1 X25.255 Y30.876 E60.59278
G1 X25.984 Y30.202 E60.6258
G1 X26.272 Y29.959 E60.63833
G1 X27.014 Y29.385 E60.66953
G1 X28.027 Y28.749 E60.70932
G1 X28.335 Y28.578 E60.72103
G1 X29.173 Y28.158 E60.75221
G1 X30.015 Y27.821 E60.78238
G1 X30.324 Y27.712 E60.79327
G1 X31.221 Y27.438 E60.82447
G1 X31.928 Y27.28 E60.84856
G1 X32.233 Y27.222 E60.85889
G1 X33.161 Y27.086 E60.89009
G1 X34.047 Y27.031 E60.91961
G1 X35.475 Y27.002 E60.96712
G1 X110 Y27 E63.44583
G1 X184.793 Y27 E65.93345
G1 X184.955 Y27.001 E65.93884
G1 X185.565 Y27.01 E65.95913
G1 F2700 E60.95913
;MESH:TestMold-B1.stl
G0 F6000 X185.47 Y37.335
G0 X185.47 Y38.81
G0 X185.992 Y38.878
G0 X186.358 Y39.127
G0 X186.637 Y39.549
G0 X186.725 Y40.009
G0 X186.707 Y180.214
G0 X186.527 Y180.668
G0 X186.199 Y181.005
G0 X186.073 Y181.059
G0 X185.053 Y181.4
;TYPE:WALL-INNER
G1 F2700 E65.95913
G1 F1200 X34.522 Y181.4 E70.96581
G1 X34.25 Y181.375 E70.9749
G1 X33.943 Y181.281 E70.98558
G1 X33.739 Y181.171 E70.99329
G1 X33.521 Y180.996 E71.00258
G1 X33.352 Y180.793 E71.01137
G1 X33.203 Y180.515 E71.02186
G1 X33.134 Y180.286 E71.02981
G1 X33.102 Y179.984 E71.03991
G1 X33.1 Y110.413 E73.35386
G1 X33.1 Y40.017 E75.69524
G1 X33.124 Y39.748 E75.70422
G1 X33.21 Y39.465 E75.71406
G1 X33.338 Y39.225 E75.7231
G1 X33.505 Y39.021 E75.73187
G1 X33.712 Y38.847 E75.74087
G1 X33.956 Y38.713 E75.75012
G1 X34.23 Y38.629 E75.75966
G1 X34.508 Y38.602 E75.76895
G1 X110 Y38.6 E78.27982
G1 X185.478 Y38.6 E80.79023
G1 X185.75 Y38.625 E80.79931
G1 X186.057 Y38.719 E80.80999
G1 X186.258 Y38.827 E80.81758
G1 X186.48 Y39.006 E80.82707
G1 X186.641 Y39.2 E80.83545
G1 X186.797 Y39.485 E80.84626
G1 X186.866 Y39.714 E80.85421
G1 X186.896 Y39.998 E80.86371
G1 X186.9 Y109.587 E83.17825
G1 X186.9 Y179.978 E85.51947
G1 X186.875 Y180.249 E85.52852
G1 X186.781 Y180.557 E85.53923
G1 X186.671 Y180.761 E85.54694
G1 X186.496 Y180.979 E85.55623
G1 X186.293 Y181.148 E85.56502
G1 X186.015 Y181.297 E85.57551
G1 X185.786 Y181.366 E85.58346
G1 X185.483 Y181.398 E85.5936
G1 X185.053 Y181.4 E85.6079
G0 F6000 X185.055 Y181.8
;TYPE:WALL-OUTER
G1 F1200 X34.507 Y181.8 E90.61515
G1 X34.169 Y181.769 E90.62644
G1 X33.793 Y181.654 E90.63951
G1 X33.516 Y181.505 E90.64998
G1 X33.237 Y181.28 E90.6619
G1 X33.018 Y181.018 E90.67325
G1 X32.832 Y180.671 E90.68635
G1 X32.74 Y180.364 E90.69701
G1 X32.702 Y180.007 E90.70895
G1 X32.7 Y110.413 E93.02366
G1 X32.7 Y40.007 E95.36537
G1 X32.73 Y39.671 E95.37659
G1 X32.839 Y39.309 E95.38916
G1 X33.003 Y39.003 E95.40071
G1 X33.217 Y38.741 E95.41196
G1 X33.485 Y38.516 E95.4236
G1 X33.793 Y38.346 E95.4353
G1 X33.837 Y38.33 E95.43686
G1 X34.149 Y38.235 E95.44771
G1 X34.49 Y38.202 E95.4591
G1 X110 Y38.2 E97.97057
G1 X185.493 Y38.2 E100.48148
G1 X185.831 Y38.231 E100.49277
G1 X186.207 Y38.346 E100.50585
G1 X186.484 Y38.495 E100.51631
G1 X186.76 Y38.717 E100.52809
G1 X186.974 Y38.975 E100.53924
G1 X187.168 Y39.329 E100.55266
G1 X187.26 Y39.636 E100.56332
G1 X187.296 Y39.975 E100.57466
G1 X187.3 Y109.587 E102.88997
G1 X187.3 Y179.993 E105.23168
G1 X187.269 Y180.331 E105.24297
G1 X187.154 Y180.707 E105.25605
G1 X187.005 Y180.984 E105.26651
G1 X186.78 Y181.263 E105.27843
G1 X186.518 Y181.482 E105.28979
G1 X186.171 Y181.668 E105.30288
G1 X185.864 Y181.76 E105.31354
G1 X185.507 Y181.798 E105.32548
G1 X185.055 Y181.8 E105.34052
G0 F6000 X185.055 Y181.36
G0 X185.051 Y181.01
;TYPE:SKIN
G1 F1200 X34.535 Y181.01 E110.3467
G1 X34.329 Y180.991 E110.35358
G1 X34.091 Y180.918 E110.36186
G1 X33.955 Y180.845 E110.36699
G1 X33.796 Y180.717 E110.37378
G1 X33.675 Y180.572 E110.38006
G1 X33.565 Y180.368 E110.38777
G1 X33.518 Y180.211 E110.39322
G1 X33.492 Y179.962 E110.40155
G1 X33.49 Y110.413 E112.71476
G1 X33.49 Y40.025 E115.05587
G1 X33.508 Y39.823 E115.06262
G1 X33.572 Y39.612 E115.06995
G1 X33.661 Y39.446 E115.07622
G1 X33.783 Y39.297 E115.08262
G1 X33.936 Y39.169 E115.08926
G1 X34.106 Y39.076 E115.0957
G1 X34.309 Y39.013 E115.10277
G1 X34.525 Y38.992 E115.10999
G1 X110 Y38.99 E117.6203
G1 X185.465 Y38.99 E120.13027
G1 X185.671 Y39.009 E120.13715
G1 X185.909 Y39.082 E120.14543
G1 X186.038 Y39.151 E120.1503
G1 X186.204 Y39.284 E120.15737
G1 X186.319 Y39.424 E120.1634
G1 X186.436 Y39.637 E120.17148
G1 X186.481 Y39.785 E120.17663
G1 X186.506 Y40.019 E120.18446
G1 X186.51 Y109.587 E122.4983
G1 X186.51 Y179.965 E124.83908
G1 X186.491 Y180.171 E124.84596
G1 X186.418 Y180.408 E124.85421
G1 X186.345 Y180.545 E124.85937
G1 X186.217 Y180.704 E124.86616
G1 X186.072 Y180.825 E124.87244
G1 X185.868 Y180.935 E124.88015
G1 X185.711 Y180.982 E124.8856
G1 X185.46 Y181.008 E124.89399
G1 X185.051 Y181.01 E124.9076
G1 F2700 E119.9076
G0 F6000 X185.051 Y181.29
G0 X104.291 Y181.19
G0 X104.291 Y110.21
G1 F2700 E124.9076
G1 F1200 X104.291 Y109.792 E124.9215
G1 X115.71 Y109.79 E125.3013
G1 X115.71 Y110.21 E125.31527
G1 X104.291 Y110.21 E125.69506
G0 F6000 X103.892 Y110.61
G1 F1200 X103.89 Y109.392 E125.73557
G1 X116.11 Y109.39 E126.14201
G1 X116.11 Y110.61 E126.18259
