;FLAVOR:Marlin
;TIME:21804
;Filament used: 28.0029m
;Layer height: 0.2
;MINX:21.5
;MINY:27
;MINZ:0.2
;MAXX:198.5
;MAXY:193
;MAXZ:17
;Generated with Cura_SteamEngine 4.6.1
M140 S55
M105
M190 S55
M104 S205
M105
M109 S205
M82 ;absolute extrusion mode
M201 X500.00 Y500.00 Z100.00 E5000.00 ;Setup machine max acceleration
M203 X500.00 Y500.00 Z10.00 E50.00 ;Setup machine max feedrate
M204 P500.00 R1000.00 T500.00 ;Setup Print/Retract/Travel acceleration
M205 X8.00 Y8.00 Z0.40 E5.00 ;Setup Jerk
M220 S100 ;Reset Feedrate
M221 S100 ;Reset Flowrate

G28 ;Home

G92 E0 ;Reset Extruder
G1 Z2.0 F3000 ;Move Z Axis up
G1 X10.1 Y20 Z0.28 F5000.0 ;Move to start position
G1 X10.1 Y200.0 Z0.28 F1500.0 E15 ;Draw the first line
G1 X10.4 Y200.0 Z0.28 F5000.0 ;Move to side a little
G1 X10.4 Y20 Z0.28 F1500.0 E30 ;Draw the second line
G92 E0 ;Reset Extruder
G1 Z2.0 F3000 ;Move Z Axis up

G92 E0
G92 E0
G1 F2700 E-5
;LAYER_COUNT:85
;LAYER:0
M107
G0 F6000 X185.553 Y27.81 Z0.2
;TYPE:SKIRT
G1 F2700 E0
G1 F1200 X186.154 Y27.837 E0.02001
G1 X186.601 Y27.87 E0.03492
G1 X187.498 Y27.976 E0.06496
G1 X188.673 Y28.24 E0.10501
G1 X189.048 Y28.348 E0.11799
G1 X189.904 Y28.637 E0.14804
G1 X190.938 Y29.104 E0.18578
G1 X191.318 Y29.302 E0.20003
G1 X192.1 Y29.755 E0.23009
G1 X192.963 Y30.372 E0.26537
G1 X193.234 Y30.588 E0.2769
G1 X193.914 Y31.181 E0.30691
G1 X194.673 Y31.987 E0.34373
G1 X194.921 Y32.281 E0.35652
G1 X195.472 Y32.997 E0.38657
G1 X196.021 Y33.87 E0.42087
G1 X196.215 Y34.216 E0.43407
G1 X196.621 Y35.022 E0.46408
G1 X196.973 Y35.915 E0.49601
G1 X197.082 Y36.235 E0.50725
G1 X197.335 Y37.102 E0.53729
G1 X197.535 Y38.157 E0.57301
G1 X197.593 Y38.586 E0.58741
G1 X197.677 Y39.545 E0.61942
G1 X197.685 Y39.745 E0.62608
G1 X197.696 Y40.437 E0.6491
G1 X197.7 Y109.58 E2.94881
G1 X197.7 Y179.292 E5.26744
G1 X197.691 Y180.027 E5.29189
G1 X197.665 Y180.638 E5.31223
G1 X197.632 Y181.087 E5.3272
G1 X197.526 Y181.984 E5.35724
G1 X197.26 Y183.164 E5.39747
G1 X197.147 Y183.556 E5.41104
G1 X196.859 Y184.412 E5.44108
G1 X196.444 Y185.343 E5.47498
G1 X196.262 Y185.702 E5.48837
G1 X195.818 Y186.489 E5.51842
G1 X195.091 Y187.509 E5.56009
G1 X194.844 Y187.814 E5.57314
G1 X194.245 Y188.49 E5.60318
G1 X193.458 Y189.221 E5.6389
G1 X193.184 Y189.45 E5.65078
G1 X192.466 Y189.998 E5.68082
G1 X191.621 Y190.527 E5.71398
G1 X191.274 Y190.721 E5.7272
G1 X190.466 Y191.126 E5.75726
G1 X189.586 Y191.473 E5.78873
G1 X189.272 Y191.58 E5.79976
G1 X188.405 Y191.833 E5.8298
G1 X187.282 Y192.042 E5.86779
G1 X186.776 Y192.107 E5.88476
G1 X185.814 Y192.184 E5.91686
G1 X185.335 Y192.197 E5.9328
G1 X184.895 Y192.2 E5.94743
G1 X35.207 Y192.2 E10.92607
G1 X34.447 Y192.19 E10.95135
G1 X33.853 Y192.164 E10.97113
G1 X33.416 Y192.132 E10.9857
G1 X32.519 Y192.026 E11.01575
G1 X31.336 Y191.76 E11.05607
G1 X30.944 Y191.647 E11.06964
G1 X30.088 Y191.359 E11.09968
G1 X29.157 Y190.944 E11.13358
G1 X28.8 Y190.763 E11.1469
G1 X28.013 Y190.319 E11.17695
G1 X27.006 Y189.602 E11.21807
G1 X26.695 Y189.351 E11.23136
G1 X26.018 Y188.754 E11.26138
G1 X25.242 Y187.915 E11.29939
G1 X25.017 Y187.643 E11.31113
G1 X24.472 Y186.923 E11.34117
G1 X23.977 Y186.127 E11.37234
G1 X23.777 Y185.77 E11.38595
G1 X23.371 Y184.964 E11.41597
G1 X22.999 Y184.011 E11.45
G1 X22.898 Y183.708 E11.46062
G1 X22.651 Y182.839 E11.49067
G1 X22.457 Y181.777 E11.52657
G1 X22.392 Y181.269 E11.54361
G1 X22.311 Y180.132 E11.58152
G1 X22.302 Y179.459 E11.60391
G1 X22.3 Y110.416 E13.90029
G1 X22.3 Y40.707 E16.21882
G1 X22.31 Y39.922 E16.24493
G1 X22.337 Y39.308 E16.26537
G1 X22.364 Y38.945 E16.27748
G1 X22.471 Y38.049 E16.30749
G1 X22.611 Y37.351 E16.33117
G1 X22.674 Y37.085 E16.34026
G1 X22.859 Y36.408 E16.3636
G1 X22.919 Y36.215 E16.37032
G1 X23.225 Y35.365 E16.40037
G1 X23.612 Y34.533 E16.43089
G1 X23.713 Y34.339 E16.43817
G1 X24.082 Y33.688 E16.46305
G1 X24.221 Y33.463 E16.47185
G1 X24.73 Y32.717 E16.50189
G1 X25.06 Y32.298 E16.51963
G1 X25.239 Y32.083 E16.52893
G1 X25.847 Y31.415 E16.55897
G1 X26.5 Y30.813 E16.58852
G1 X26.788 Y30.57 E16.60105
G1 X27.504 Y30.019 E16.6311
G1 X28.415 Y29.448 E16.66686
G1 X28.723 Y29.277 E16.67857
G1 X29.531 Y28.874 E16.70861
G1 X30.281 Y28.576 E16.73545
G1 X30.59 Y28.467 E16.74635
G1 X31.454 Y28.204 E16.77638
G1 X32.077 Y28.066 E16.79761
G1 X32.382 Y28.008 E16.80793
G1 X33.276 Y27.878 E16.83798
G1 X34.065 Y27.83 E16.86427
G1 X35.475 Y27.802 E16.91118
G1 X110 Y27.8 E19.38989
G1 X184.793 Y27.8 E21.87752
G1 X184.943 Y27.801 E21.8825
G1 X185.553 Y27.81 E21.9028
G0 F6000 X185.559 Y27.41
G1 F1200 X186.183 Y27.438 E21.92357
G1 X186.63 Y27.471 E21.93848
G1 X187.545 Y27.578 E21.96912
G1 X188.784 Y27.856 E22.01135
G1 X189.159 Y27.964 E22.02433
G1 X190.031 Y28.257 E22.05493
G1 X191.123 Y28.75 E22.09478
G1 X191.503 Y28.948 E22.10903
G1 X192.3 Y29.408 E22.13964
G1 X193.212 Y30.059 E22.1769
G1 X193.483 Y30.275 E22.18843
G1 X194.177 Y30.879 E22.21903
G1 X194.978 Y31.729 E22.25788
G1 X195.226 Y32.023 E22.27067
G1 X195.789 Y32.752 E22.30131
G1 X196.37 Y33.674 E22.33755
G1 X196.564 Y34.02 E22.35075
G1 X196.979 Y34.842 E22.38137
G1 X197.352 Y35.786 E22.41513
G1 X197.461 Y36.106 E22.42638
G1 X197.72 Y36.99 E22.45701
G1 X197.931 Y38.104 E22.49472
G1 X197.989 Y38.533 E22.50912
G1 X198.077 Y39.529 E22.54238
G1 X198.085 Y39.729 E22.54904
G1 X198.096 Y40.437 E22.57259
G1 X198.1 Y109.58 E24.87229
G1 X198.1 Y179.292 E27.19092
G1 X198.091 Y180.032 E27.21554
G1 X198.063 Y180.667 E27.23668
G1 X198.03 Y181.116 E27.25165
G1 X197.923 Y182.03 E27.28226
G1 X197.644 Y183.275 E27.3247
G1 X197.531 Y183.667 E27.33826
G1 X197.238 Y184.54 E27.36889
G1 X196.8 Y185.524 E27.40472
G1 X196.618 Y185.883 E27.4181
G1 X196.167 Y186.685 E27.44871
G1 X195.402 Y187.761 E27.49262
G1 X195.155 Y188.066 E27.50567
G1 X194.545 Y188.756 E27.5363
G1 X193.715 Y189.528 E27.574
G1 X193.441 Y189.757 E27.58588
G1 X192.709 Y190.317 E27.61654
G1 X191.816 Y190.876 E27.65158
G1 X191.469 Y191.07 E27.6648
G1 X190.646 Y191.484 E27.69544
G1 X189.715 Y191.851 E27.72872
G1 X189.401 Y191.958 E27.73976
G1 X188.518 Y192.217 E27.77036
G1 X187.333 Y192.439 E27.81046
G1 X186.827 Y192.504 E27.82743
G1 X185.827 Y192.584 E27.8608
G1 X185.337 Y192.597 E27.8771
G1 X184.897 Y192.6 E27.89173
G1 X35.207 Y192.6 E32.87044
G1 X35.05 Y192.599 E32.87567
G1 X34.441 Y192.59 E32.89592
G1 X33.824 Y192.563 E32.91646
G1 X33.387 Y192.531 E32.93104
G1 X32.472 Y192.424 E32.96168
G1 X31.225 Y192.144 E33.00419
G1 X30.833 Y192.031 E33.01776
G1 X29.96 Y191.738 E33.04838
G1 X28.976 Y191.3 E33.08421
G1 X28.619 Y191.119 E33.09752
G1 X27.816 Y190.668 E33.12815
G1 X26.755 Y189.914 E33.17144
G1 X26.444 Y189.663 E33.18474
G1 X25.753 Y189.054 E33.21537
G1 X24.933 Y188.17 E33.25548
G1 X24.708 Y187.898 E33.26722
G1 X24.153 Y187.164 E33.29782
G1 X23.628 Y186.323 E33.3308
G1 X23.428 Y185.966 E33.34441
G1 X23.014 Y185.144 E33.37502
G1 X22.62 Y184.137 E33.41098
G1 X22.519 Y183.834 E33.42161
G1 X22.266 Y182.949 E33.45222
G1 X22.061 Y181.827 E33.49016
G1 X21.996 Y181.319 E33.50719
G1 X21.911 Y180.139 E33.54654
G1 X21.902 Y179.459 E33.56916
G1 X21.9 Y110.416 E35.86554
G1 X21.9 Y40.707 E38.18407
G1 X21.91 Y39.916 E38.21038
G1 X21.938 Y39.279 E38.23159
G1 X21.965 Y38.916 E38.24369
G1 X22.073 Y38.001 E38.27434
G1 X22.221 Y37.259 E38.2995
G1 X22.284 Y36.993 E38.3086
G1 X22.477 Y36.289 E38.33287
G1 X22.537 Y36.096 E38.3396
G1 X22.848 Y35.23 E38.3702
G1 X23.257 Y34.348 E38.40254
G1 X23.358 Y34.154 E38.40981
G1 X23.742 Y33.478 E38.43567
G1 X23.881 Y33.253 E38.44447
G1 X24.398 Y32.491 E38.47509
G1 X24.753 Y32.042 E38.49413
G1 X24.932 Y31.827 E38.50344
G1 X25.551 Y31.145 E38.53407
G1 X26.242 Y30.508 E38.56533
G1 X26.53 Y30.265 E38.57786
G1 X27.259 Y29.702 E38.6085
G1 X28.221 Y29.099 E38.64626
G1 X28.529 Y28.928 E38.65798
G1 X29.352 Y28.516 E38.68859
G1 X30.148 Y28.199 E38.71708
G1 X30.457 Y28.09 E38.72798
G1 X31.337 Y27.821 E38.75859
G1 X32.003 Y27.673 E38.78128
G1 X32.308 Y27.615 E38.79161
G1 X33.219 Y27.482 E38.82223
G1 X34.056 Y27.431 E38.85012
G1 X35.475 Y27.402 E38.89732
G1 X110 Y27.4 E41.37604
G1 X184.793 Y27.4 E43.86366
G1 X184.949 Y27.401 E43.86885
G1 X185.559 Y27.41 E43.88914
G0 F6000 X185.565 Y27.01
G1 F1200 X186.213 Y27.039 E43.91071
G1 X186.66 Y27.072 E43.92562
G1 X187.591 Y27.181 E43.9568
G1 X188.894 Y27.472 E44.0012
G1 X189.269 Y27.58 E44.01418
G1 X190.159 Y27.877 E44.04539
G1 X191.308 Y28.395 E44.08731
G1 X191.688 Y28.593 E44.10156
G1 X192.5 Y29.061 E44.13273
G1 X193.461 Y29.746 E44.17199
G1 X193.732 Y29.962 E44.18351
G1 X194.44 Y30.577 E44.2147
G1 X195.284 Y31.471 E44.2556
G1 X195.532 Y31.765 E44.26839
G1 X196.106 Y32.507 E44.29959
G1 X196.719 Y33.478 E44.33778
G1 X196.913 Y33.824 E44.35098
G1 X197.336 Y34.661 E44.38217
G1 X197.731 Y35.657 E44.4178
G1 X197.84 Y35.977 E44.42905
G1 X198.104 Y36.877 E44.46024
G1 X198.328 Y38.05 E44.49996
G1 X198.386 Y38.479 E44.51436
G1 X198.476 Y39.513 E44.54888
G1 X198.492 Y40.037 E44.56632
G1 X198.496 Y40.437 E44.57962
G1 X198.5 Y109.58 E46.87933
G1 X198.5 Y179.292 E49.19796
G1 X198.491 Y180.037 E49.22274
G1 X198.462 Y180.696 E49.24468
G1 X198.429 Y181.145 E49.25965
G1 X198.321 Y182.077 E49.29086
G1 X198.029 Y183.386 E49.33547
G1 X197.916 Y183.778 E49.34904
G1 X197.618 Y184.667 E49.38022
G1 X197.157 Y185.705 E49.418
G1 X196.975 Y186.064 E49.43138
G1 X196.516 Y186.882 E49.46258
G1 X195.712 Y188.013 E49.50874
G1 X195.465 Y188.318 E49.52179
G1 X194.845 Y189.021 E49.55297
G1 X193.971 Y189.835 E49.59269
G1 X193.697 Y190.064 E49.60457
G1 X192.953 Y190.635 E49.63576
G1 X192.011 Y191.225 E49.67273
G1 X191.664 Y191.419 E49.68595
G1 X190.827 Y191.842 E49.71714
G1 X189.844 Y192.23 E49.75229
G1 X189.53 Y192.337 E49.76333
G1 X188.63 Y192.601 E49.79452
G1 X187.384 Y192.835 E49.83669
G1 X186.878 Y192.9 E49.85366
G1 X185.841 Y192.984 E49.88826
G1 X185.34 Y192.997 E49.90493
G1 X184.9 Y193 E49.91956
G1 X35.207 Y193 E54.89837
G1 X35.044 Y192.999 E54.90379
G1 X34.435 Y192.99 E54.92405
G1 X33.795 Y192.962 E54.94536
G1 X33.358 Y192.93 E54.95993
G1 X32.426 Y192.821 E54.99114
G1 X31.114 Y192.529 E55.03585
G1 X30.722 Y192.416 E55.04942
G1 X29.833 Y192.118 E55.0806
G1 X28.795 Y191.657 E55.11838
G1 X28.438 Y191.476 E55.13169
G1 X27.62 Y191.017 E55.16289
G1 X26.503 Y190.225 E55.20843
G1 X26.192 Y189.974 E55.22172
G1 X25.488 Y189.354 E55.25292
G1 X24.625 Y188.425 E55.2951
G1 X24.4 Y188.153 E55.30684
G1 X23.834 Y187.406 E55.33801
G1 X23.279 Y186.518 E55.37284
G1 X23.079 Y186.161 E55.38645
G1 X22.656 Y185.324 E55.41764
G1 X22.24 Y184.264 E55.45551
G1 X22.139 Y183.961 E55.46614
G1 X21.881 Y183.059 E55.49734
G1 X21.664 Y181.878 E55.53728
G1 X21.599 Y181.37 E55.55431
G1 X21.511 Y180.145 E55.59516
G1 X21.502 Y179.459 E55.61798
G1 X21.5 Y110.416 E57.91436
G1 X21.5 Y40.707 E60.23289
G1 X21.51 Y39.911 E60.25937
G1 X21.539 Y39.249 E60.28141
G1 X21.566 Y38.886 E60.29351
G1 X21.676 Y37.955 E60.32469
G1 X21.832 Y37.167 E60.35141
G1 X21.895 Y36.901 E60.3605
G1 X22.095 Y36.17 E60.38571
G1 X22.155 Y35.977 E60.39243
G1 X22.471 Y35.095 E60.42359
G1 X22.902 Y34.163 E60.45775
G1 X23.003 Y33.969 E60.46502
G1 X23.402 Y33.268 E60.49185
G1 X23.541 Y33.043 E60.50065
G1 X24.067 Y32.267 E60.53183
G1 X24.445 Y31.786 E60.55217
G1 X24.624 Y31.571 E60.56148
G1 X25.255 Y30.876 E60.5927
G1 X25.984 Y30.202 E60.62572
G1 X26.272 Y29.959 E60.63825
G1 X27.014 Y29.385 E60.66946
G1 X28.027 Y28.749 E60.70924
G1 X28.335 Y28.578 E60.72096
G1 X29.173 Y28.158 E60.75213
G1 X30.015 Y27.821 E60.7823
G1 X30.324 Y27.712 E60.79319
G1 X31.221 Y27.438 E60.82439
G1 X31.928 Y27.28 E60.84848
G1 X32.233 Y27.222 E60.85881
G1 X33.161 Y27.086 E60.89001
G1 X34.047 Y27.031 E60.91953
G1 X35.475 Y27.002 E60.96704
G1 X110 Y27 E63.44575
G1 X184.793 Y27 E65.93337
G1 X184.955 Y27.001 E65.93876
G1 X185.565 Y27.01 E65.95905
G1 F2700 E60.95905
;MESH:TestMold-B.stl
G0 F6000 X184.847 Y40.653
G0 X185.565 Y39.6
G0 X34.072 Y39.572
G0 X33.9 Y180.6
;TYPE:WALL-INNER
G1 F2700 E65.95905
G1 F1200 X186.1 Y180.6 E71.02125
G1 X186.1 Y39.4 E75.71758
G1 X33.9 Y39.4 E80.77977
G1 X33.9 Y180.6 E85.4761
G0 F6000 X34.3 Y180.2
;TYPE:WALL-OUTER
G1 F1200 X185.7 Y180.2 E90.51168
G1 X185.7 Y39.8 E95.18141
G1 X34.3 Y39.8 E100.21699
G1 X34.3 Y180.2 E104.88671
G1 F2700 E99.88671
G0 F6000 X34 Y180.2
G0 X34.064 Y180.405
G0 X185.053 Y180.79
G0 X185.052 Y181.19
G0 X185.053 Y181.4
;TYPE:WALL-INNER
G1 F2700 E104.88671
G1 F1200 X34.522 Y181.4 E109.8934
G1 X34.25 Y181.375 E109.90248
G1 X33.943 Y181.281 E109.91316
G1 X33.739 Y181.171 E109.92087
G1 X33.521 Y180.996 E109.93017
G1 X33.352 Y180.793 E109.93895
G1 X33.203 Y180.515 E109.94944
G1 X33.134 Y180.286 E109.9574
G1 X33.102 Y179.984 E109.9675
G1 X33.1 Y110.413 E112.28144
G1 X33.1 Y40.017 E114.62282
G1 X33.124 Y39.748 E114.6318
G1 X33.21 Y39.465 E114.64164
G1 X33.338 Y39.225 E114.65069
G1 X33.505 Y39.021 E114.65945
G1 X33.712 Y38.847 E114.66845
G1 X33.956 Y38.713 E114.67771
G1 X34.23 Y38.629 E114.68724
G1 X34.508 Y38.602 E114.69653
G1 X110 Y38.6 E117.2074
G1 X185.478 Y38.6 E119.71781
G1 X185.755 Y38.625 E119.72706
G1 X186.004 Y38.7 E119.73571
G1 X186.297 Y38.853 E119.74671
G1 X186.475 Y39 E119.75438
G1 X186.649 Y39.207 E119.76338
G1 X186.797 Y39.485 E119.77385
G1 X186.866 Y39.714 E119.78181
G1 X186.896 Y39.998 E119.79131
G1 X186.9 Y109.587 E122.10585
G1 X186.9 Y179.978 E124.44706
G1 X186.875 Y180.249 E124.45611
G1 X186.781 Y180.557 E124.46682
G1 X186.671 Y180.761 E124.47453
G1 X186.496 Y180.979 E124.48383
G1 X186.293 Y181.148 E124.49261
G1 X186.015 Y181.297 E124.5031
G1 X185.786 Y181.366 E124.51106
G1 X185.483 Y181.398 E124.52119
G1 X185.053 Y181.4 E124.5355
G0 F6000 X185.055 Y181.8
;TYPE:WALL-OUTER
G1 F1200 X34.507 Y181.8 E129.54274
G1 X34.169 Y181.769 E129.55403
G1 X33.793 Y181.654 E129.56711
G1 X33.516 Y181.505 E129.57757
G1 X33.237 Y181.28 E129.58949
G1 X33.018 Y181.018 E129.60085
G1 X32.832 Y180.671 E129.61394
G1 X32.74 Y180.364 E129.6246
G1 X32.702 Y180.007 E129.63654
G1 X32.7 Y110.413 E131.95125
G1 X32.7 Y40.007 E134.29296
G1 X32.73 Y39.671 E134.30418
G1 X32.839 Y39.309 E134.31676
G1 X33.003 Y39.003 E134.3283
G1 X33.217 Y38.741 E134.33956
G1 X33.485 Y38.516 E134.35119
G1 X33.793 Y38.346 E134.3629
G1 X33.837 Y38.33 E134.36445
G1 X34.149 Y38.235 E134.3753
G1 X34.49 Y38.202 E134.38669
G1 X110 Y38.2 E136.89817
G1 X185.493 Y38.2 E139.40907
G1 X185.83 Y38.231 E139.42033
G1 X186.157 Y38.328 E139.43168
G1 X186.52 Y38.519 E139.44532
G1 X186.759 Y38.716 E139.45562
G1 X186.982 Y38.982 E139.46716
G1 X187.168 Y39.329 E139.48026
G1 X187.26 Y39.636 E139.49092
G1 X187.296 Y39.975 E139.50226
G1 X187.3 Y109.587 E141.81756
G1 X187.3 Y179.993 E144.15928
G1 X187.269 Y180.331 E144.17056
G1 X187.154 Y180.707 E144.18364
G1 X187.005 Y180.984 E144.1941
G1 X186.78 Y181.263 E144.20602
G1 X186.518 Y181.482 E144.21738
G1 X186.171 Y181.668 E144.23048
G1 X185.864 Y181.76 E144.24114
G1 X185.507 Y181.798 E144.25308
G1 X185.055 Y181.8 E144.26811
G0 F6000 X185.055 Y181.36
G0 X185.46 Y181.008
;TYPE:SKIN
G1 F1200 X34.535 Y181.01 E149.2879
G1 X34.329 Y180.991 E149.29478
G1 X185.633 Y180.99 E154.32717
G1 X185.46 Y181.008 E154.33295
G0 F6000 X185.488 Y181.287
G0 X186.199 Y181.005
G0 X186.464 Y180.733
G0 X186.768 Y180.197
G0 X186.491 Y180.171
G1 F1200 X186.49 Y39.871 E158.99935
G1 X186.506 Y40.019 E159.0043
G1 X186.51 Y109.587 E161.31814
G1 X186.51 Y179.965 E163.65892
G1 X186.491 Y180.171 E163.66581
G1 F2700 E158.66581
G0 F6000 X186.768 Y180.197
G0 X186.698 Y39.748
G0 X186.508 Y39.304
G0 X186.259 Y39.054
G0 X185.701 Y38.73
G0 X185.675 Y39.009
G1 F2700 E163.66581
G1 F1200 X34.339 Y39.01 E168.69926
G1 X34.525 Y38.992 E168.70548
G1 X110 Y38.99 E171.21579
G1 X185.465 Y38.99 E173.72576
G1 X185.675 Y39.009 E173.73277
G1 F2700 E168.73277
G0 F6000 X185.701 Y38.73
G0 X34.266 Y38.797
G0 X33.81 Y38.988
G0 X33.481 Y39.319
G0 X33.292 Y39.782
G0 X33.232 Y180.161
G0 X33.51 Y180.133
G1 F2700 E173.73277
G1 F1200 X33.492 Y179.962 E173.73849
G1 X33.49 Y110.413 E176.0517
G1 X33.49 Y40.025 E178.39282
G1 X33.508 Y39.823 E178.39956
G1 X33.51 Y180.133 E183.06629
G0 F6000 X33.512 Y180.307
;TYPE:SKIN
G1 F1200 X33.74 Y180.535 E183.07165
G0 F6000 X33.963 Y180.759
G1 F1200 X34.156 Y180.952 E183.07619
G0 F6000 X34.076 Y181.154
G1 F1200 X33.34 Y180.418 E183.0935
G1 F2700 E178.0935
G0 F6000 X33.293 Y180.43
