;FLAVOR:Marlin
;TIME:47272
;Filament used: 54.4682m
;Layer height: 0.2
;MINX:21.5
;MINY:27
;MINZ:0.2
;MAXX:198.5
;MAXY:193
;MAXZ:39
;Generated with Cura_SteamEngine 4.6.1
M140 S50
M105
M190 S50
M104 S200
M105
M109 S200
M82 ;absolute extrusion mode
M201 X500.00 Y500.00 Z100.00 E5000.00 ;Setup machine max acceleration
M203 X500.00 Y500.00 Z10.00 E50.00 ;Setup machine max feedrate
M204 P500.00 R1000.00 T500.00 ;Setup Print/Retract/Travel acceleration
M205 X8.00 Y8.00 Z0.40 E5.00 ;Setup Jerk
M220 S100 ;Reset Feedrate
M221 S100 ;Reset Flowrate

G28 ;Home

G92 E0 ;Reset Extruder
G1 Z2.0 F3000 ;Move Z Axis up
G1 X10.1 Y20 Z0.28 F5000.0 ;Move to start position
G1 X10.1 Y200.0 Z0.28 F1500.0 E15 ;Draw the first line
G1 X10.4 Y200.0 Z0.28 F5000.0 ;Move to side a little
G1 X10.4 Y20 Z0.28 F1500.0 E30 ;Draw the second line
G92 E0 ;Reset Extruder
G1 Z2.0 F3000 ;Move Z Axis up

G92 E0
G92 E0
G1 F2700 E-5
;LAYER_COUNT:195
;LAYER:0
M107
G0 F6000 X185.51 Y27.809 Z0.2
;TYPE:SKIRT
G1 F2700 E0
G1 F1200 X186.143 Y27.837 E0.02107
G1 X186.642 Y27.875 E0.03772
G1 X187.538 Y27.984 E0.06774
G1 X188.69 Y28.244 E0.10702
G1 X188.94 Y28.316 E0.11567
G1 X189.975 Y28.676 E0.15212
G1 X190.276 Y28.799 E0.16293
G1 X191.359 Y29.317 E0.20286
G1 X191.536 Y29.415 E0.20959
G1 X192.306 Y29.887 E0.23963
G1 X192.995 Y30.397 E0.26814
G1 X193.268 Y30.617 E0.2798
G1 X193.946 Y31.214 E0.30985
G1 X194.59 Y31.895 E0.34102
G1 X194.848 Y32.194 E0.35416
G1 X195.408 Y32.904 E0.38424
G1 X196.023 Y33.869 E0.4223
G1 X196.203 Y34.19 E0.43454
G1 X196.609 Y34.997 E0.46458
G1 X196.928 Y35.793 E0.4931
G1 X197.048 Y36.134 E0.50513
G1 X197.309 Y36.998 E0.53515
G1 X197.455 Y37.659 E0.55766
G1 X197.496 Y37.88 E0.56514
G1 X197.627 Y38.843 E0.59746
G1 X197.646 Y39.058 E0.60464
G1 X197.678 Y39.556 E0.62124
G1 X197.696 Y40.125 E0.64017
G1 X197.698 Y40.449 E0.65095
G1 X197.7 Y101.337 E2.67609
G1 X197.7 Y179.292 E5.26889
G1 X197.691 Y180.005 E5.2926
G1 X197.664 Y180.613 E5.31285
G1 X197.627 Y181.114 E5.32955
G1 X197.521 Y182.011 E5.3596
G1 X197.258 Y183.18 E5.39945
G1 X197.185 Y183.434 E5.40824
G1 X196.823 Y184.478 E5.44499
G1 X196.695 Y184.791 E5.45624
G1 X196.317 Y185.611 E5.48627
G1 X195.865 Y186.398 E5.51646
G1 X195.698 Y186.661 E5.52682
G1 X194.942 Y187.7 E5.56955
G1 X194.802 Y187.869 E5.57685
G1 X194.196 Y188.538 E5.60688
G1 X193.612 Y189.083 E5.63344
G1 X193.305 Y189.348 E5.64693
G1 X192.596 Y189.908 E5.67698
G1 X191.631 Y190.522 E5.71503
G1 X191.312 Y190.701 E5.72719
G1 X190.506 Y191.108 E5.75722
G1 X189.687 Y191.435 E5.78655
G1 X189.338 Y191.557 E5.79885
G1 X188.473 Y191.817 E5.82889
G1 X187.809 Y191.961 E5.85149
G1 X187.596 Y192 E5.85869
G1 X186.701 Y192.123 E5.88874
G1 X186.052 Y192.163 E5.91037
G1 X184.611 Y192.2 E5.95831
G1 X35.207 Y192.2 E10.92751
G1 X34.49 Y192.191 E10.95136
G1 X33.857 Y192.163 E10.97243
G1 X33.358 Y192.125 E10.98908
G1 X32.462 Y192.016 E11.0191
G1 X31.31 Y191.756 E11.05838
G1 X31.06 Y191.684 E11.06703
G1 X30.552 Y191.523 E11.08475
G1 X30.361 Y191.457 E11.09148
G1 X29.521 Y191.124 E11.12153
G1 X28.856 Y190.797 E11.14618
G1 X28.583 Y190.65 E11.15649
G1 X27.808 Y190.187 E11.18652
G1 X27.067 Y189.65 E11.21695
G1 X26.773 Y189.416 E11.22945
G1 X26.092 Y188.823 E11.25948
G1 X25.36 Y188.049 E11.29492
G1 X25.107 Y187.752 E11.30789
G1 X24.553 Y187.04 E11.3379
G1 X23.974 Y186.124 E11.37394
G1 X23.793 Y185.801 E11.38626
G1 X23.387 Y184.995 E11.41627
G1 X23.047 Y184.136 E11.447
G1 X22.922 Y183.773 E11.45977
G1 X22.666 Y182.907 E11.4898
G1 X22.443 Y181.706 E11.53043
G1 X22.389 Y181.27 E11.54504
G1 X22.318 Y180.374 E11.57494
G1 X22.304 Y179.859 E11.59207
G1 X22.302 Y179.499 E11.60405
G1 X22.3 Y118.662 E13.6275
G1 X22.3 Y40.692 E16.22079
G1 X22.301 Y40.54 E16.22584
G1 X22.31 Y39.936 E16.24593
G1 X22.338 Y39.32 E16.26644
G1 X22.37 Y38.896 E16.28059
G1 X22.478 Y38 E16.3106
G1 X22.705 Y36.962 E16.34594
G1 X22.808 Y36.587 E16.35888
G1 X23.086 Y35.728 E16.38891
G1 X23.568 Y34.635 E16.42864
G1 X23.768 Y34.245 E16.44322
G1 X24.215 Y33.46 E16.47326
G1 X24.914 Y32.484 E16.51319
G1 X25.151 Y32.191 E16.52572
G1 X25.749 Y31.515 E16.55574
G1 X26.543 Y30.777 E16.5918
G1 X26.84 Y30.529 E16.60467
G1 X27.558 Y29.981 E16.63471
G1 X28.46 Y29.422 E16.67
G1 X28.778 Y29.247 E16.68208
G1 X29.588 Y28.847 E16.71212
G1 X30.554 Y28.479 E16.7465
G1 X30.971 Y28.344 E16.76108
G1 X31.842 Y28.104 E16.79113
G1 X32.731 Y27.942 E16.82119
G1 X33.777 Y27.854 E16.8561
G1 X35.173 Y27.808 E16.90256
G1 X35.509 Y27.802 E16.91373
G1 X110 Y27.8 E19.39131
G1 X184.793 Y27.8 E21.87894
G1 X184.935 Y27.801 E21.88366
G1 X185.51 Y27.809 E21.90279
G0 F6000 X185.515 Y27.409
G1 F1200 X186.173 Y27.439 E21.9247
G1 X186.672 Y27.477 E21.94134
G1 X187.586 Y27.586 E21.97196
G1 X188.801 Y27.86 E22.01338
G1 X189.051 Y27.932 E22.02203
G1 X190.127 Y28.306 E22.05992
G1 X190.428 Y28.429 E22.07074
G1 X191.552 Y28.968 E22.1122
G1 X191.729 Y29.066 E22.11893
G1 X192.515 Y29.546 E22.14956
G1 X193.246 Y30.085 E22.17977
G1 X193.519 Y30.305 E22.19143
G1 X194.21 Y30.914 E22.22206
G1 X194.893 Y31.634 E22.25507
G1 X195.151 Y31.933 E22.26821
G1 X195.722 Y32.656 E22.29885
G1 X196.372 Y33.674 E22.33902
G1 X196.552 Y33.995 E22.35126
G1 X196.967 Y34.816 E22.38186
G1 X197.305 Y35.66 E22.4121
G1 X197.425 Y36.001 E22.42412
G1 X197.693 Y36.882 E22.45475
G1 X197.848 Y37.586 E22.47872
G1 X197.889 Y37.807 E22.4862
G1 X198.026 Y38.808 E22.5198
G1 X198.045 Y39.023 E22.52698
G1 X198.078 Y39.541 E22.54425
G1 X198.096 Y40.122 E22.56358
G1 X198.098 Y40.449 E22.57446
G1 X198.1 Y101.337 E24.5996
G1 X198.1 Y179.292 E27.19239
G1 X198.091 Y180.011 E27.21631
G1 X198.063 Y180.643 E27.23735
G1 X198.026 Y181.144 E27.25406
G1 X197.919 Y182.058 E27.28467
G1 X197.643 Y183.291 E27.32669
G1 X197.57 Y183.545 E27.33548
G1 X197.193 Y184.629 E27.37365
G1 X197.065 Y184.942 E27.3849
G1 X196.68 Y185.779 E27.41554
G1 X196.202 Y186.612 E27.44749
G1 X196.035 Y186.875 E27.45785
G1 X195.25 Y187.955 E27.50226
G1 X195.11 Y188.124 E27.50955
G1 X194.492 Y188.807 E27.54019
G1 X193.873 Y189.386 E27.56838
G1 X193.566 Y189.651 E27.58187
G1 X192.844 Y190.222 E27.61249
G1 X191.827 Y190.871 E27.65261
G1 X191.508 Y191.05 E27.66478
G1 X190.686 Y191.465 E27.69541
G1 X189.819 Y191.812 E27.72647
G1 X189.47 Y191.934 E27.73876
G1 X188.588 Y192.2 E27.7694
G1 X187.881 Y192.355 E27.79348
G1 X187.668 Y192.394 E27.80068
G1 X186.756 Y192.52 E27.8313
G1 X186.064 Y192.563 E27.85436
G1 X184.611 Y192.6 E27.9027
G1 X35.207 Y192.6 E32.8719
G1 X34.485 Y192.591 E32.89592
G1 X33.827 Y192.561 E32.91782
G1 X33.328 Y192.523 E32.93447
G1 X32.414 Y192.414 E32.96508
G1 X31.199 Y192.14 E33.00651
G1 X30.949 Y192.068 E33.01516
G1 X30.421 Y191.901 E33.03358
G1 X30.23 Y191.835 E33.0403
G1 X29.374 Y191.497 E33.07091
G1 X28.667 Y191.149 E33.09712
G1 X28.394 Y191.002 E33.10743
G1 X27.603 Y190.531 E33.13805
G1 X26.818 Y189.963 E33.17028
G1 X26.524 Y189.729 E33.18278
G1 X25.829 Y189.125 E33.2134
G1 X25.056 Y188.309 E33.25079
G1 X24.803 Y188.012 E33.26376
G1 X24.237 Y187.286 E33.29438
G1 X23.625 Y186.32 E33.33242
G1 X23.444 Y185.997 E33.34473
G1 X23.029 Y185.175 E33.37536
G1 X22.669 Y184.266 E33.40788
G1 X22.544 Y183.903 E33.42065
G1 X22.282 Y183.021 E33.45125
G1 X22.046 Y181.755 E33.49408
G1 X21.992 Y181.319 E33.50869
G1 X21.919 Y180.388 E33.53975
G1 X21.904 Y179.861 E33.55729
G1 X21.902 Y179.499 E33.56933
G1 X21.9 Y118.662 E35.59278
G1 X21.9 Y40.692 E38.18607
G1 X21.901 Y40.534 E38.19132
G1 X21.91 Y39.93 E38.21142
G1 X21.939 Y39.29 E38.23272
G1 X21.971 Y38.866 E38.24687
G1 X22.08 Y37.952 E38.27748
G1 X22.32 Y36.857 E38.31477
G1 X22.423 Y36.482 E38.3277
G1 X22.705 Y35.605 E38.35834
G1 X23.212 Y34.452 E38.40023
G1 X23.412 Y34.062 E38.41481
G1 X23.867 Y33.262 E38.44542
G1 X24.603 Y32.233 E38.4875
G1 X24.84 Y31.94 E38.50003
G1 X25.449 Y31.25 E38.53064
G1 X26.287 Y30.47 E38.56872
G1 X26.584 Y30.222 E38.58159
G1 X27.316 Y29.663 E38.61222
G1 X28.267 Y29.071 E38.64948
G1 X28.585 Y28.896 E38.66155
G1 X29.411 Y28.488 E38.6922
G1 X30.431 Y28.098 E38.72852
G1 X30.848 Y27.963 E38.74309
G1 X31.736 Y27.718 E38.77373
G1 X32.641 Y27.551 E38.80434
G1 X33.764 Y27.454 E38.84183
G1 X35.16 Y27.408 E38.88829
G1 X35.509 Y27.402 E38.8999
G1 X110 Y27.4 E41.37748
G1 X184.793 Y27.4 E43.8651
G1 X184.94 Y27.401 E43.86999
G1 X185.515 Y27.409 E43.88912
G0 F6000 X185.521 Y27.009
G1 F1200 X186.203 Y27.04 E43.91183
G1 X186.702 Y27.078 E43.92847
G1 X187.634 Y27.189 E43.95969
G1 X188.911 Y27.476 E44.00322
G1 X189.161 Y27.548 E44.01187
G1 X190.278 Y27.935 E44.05119
G1 X190.579 Y28.058 E44.06201
G1 X191.746 Y28.618 E44.10506
G1 X191.923 Y28.716 E44.11179
G1 X192.724 Y29.204 E44.14299
G1 X193.497 Y29.774 E44.17493
G1 X193.77 Y29.994 E44.18659
G1 X194.475 Y30.613 E44.21779
G1 X195.196 Y31.373 E44.25264
G1 X195.454 Y31.672 E44.26577
G1 X196.036 Y32.407 E44.29695
G1 X196.721 Y33.478 E44.33924
G1 X196.901 Y33.799 E44.35148
G1 X197.324 Y34.636 E44.38267
G1 X197.682 Y35.528 E44.41464
G1 X197.802 Y35.869 E44.42666
G1 X198.076 Y36.766 E44.45786
G1 X198.241 Y37.514 E44.48334
G1 X198.282 Y37.735 E44.49081
G1 X198.424 Y38.773 E44.52566
G1 X198.443 Y38.988 E44.53284
G1 X198.478 Y39.525 E44.55073
G1 X198.488 Y39.78 E44.55922
G1 X198.498 Y40.449 E44.58148
G1 X198.5 Y101.337 E46.60662
G1 X198.5 Y179.292 E49.19941
G1 X198.491 Y180.016 E49.22349
G1 X198.462 Y180.672 E49.24533
G1 X198.425 Y181.173 E49.26204
G1 X198.316 Y182.105 E49.29325
G1 X198.027 Y183.401 E49.33742
G1 X197.954 Y183.655 E49.34621
G1 X197.564 Y184.781 E49.38584
G1 X197.436 Y185.094 E49.39709
G1 X197.044 Y185.946 E49.42828
G1 X196.54 Y186.826 E49.46201
G1 X196.373 Y187.089 E49.47237
G1 X195.558 Y188.21 E49.51847
G1 X195.418 Y188.379 E49.52577
G1 X194.789 Y189.075 E49.55697
G1 X194.135 Y189.689 E49.58681
G1 X193.828 Y189.954 E49.6003
G1 X193.092 Y190.536 E49.6315
G1 X192.023 Y191.22 E49.67371
G1 X191.704 Y191.399 E49.68588
G1 X190.867 Y191.823 E49.71709
G1 X189.951 Y192.19 E49.74991
G1 X189.602 Y192.312 E49.7622
G1 X188.704 Y192.583 E49.7934
G1 X187.953 Y192.748 E49.81898
G1 X187.74 Y192.787 E49.82618
G1 X186.811 Y192.917 E49.85738
G1 X186.075 Y192.962 E49.8819
G1 X184.611 Y193 E49.93061
G1 X35.207 Y193 E54.89981
G1 X34.479 Y192.991 E54.92403
G1 X33.797 Y192.96 E54.94673
G1 X33.298 Y192.922 E54.96338
G1 X32.366 Y192.811 E54.99459
G1 X31.089 Y192.524 E55.03813
G1 X30.839 Y192.452 E55.04678
G1 X30.29 Y192.279 E55.06593
G1 X30.099 Y192.213 E55.07265
G1 X29.227 Y191.869 E55.10382
G1 X28.477 Y191.501 E55.13161
G1 X28.204 Y191.354 E55.14192
G1 X27.398 Y190.875 E55.17311
G1 X26.569 Y190.276 E55.20712
G1 X26.275 Y190.042 E55.21962
G1 X25.567 Y189.427 E55.25081
G1 X24.751 Y188.568 E55.29022
G1 X24.498 Y188.271 E55.3032
G1 X23.921 Y187.532 E55.33438
G1 X23.276 Y186.515 E55.37444
G1 X23.095 Y186.192 E55.38675
G1 X22.672 Y185.355 E55.41794
G1 X22.29 Y184.396 E55.45228
G1 X22.165 Y184.033 E55.46505
G1 X21.898 Y183.135 E55.49621
G1 X21.649 Y181.804 E55.54124
G1 X21.595 Y181.368 E55.55585
G1 X21.519 Y180.402 E55.58808
G1 X21.504 Y179.864 E55.60598
G1 X21.502 Y179.499 E55.61812
G1 X21.5 Y118.662 E57.64157
G1 X21.5 Y40.692 E60.23486
G1 X21.501 Y40.528 E60.24032
G1 X21.51 Y39.924 E60.26041
G1 X21.54 Y39.26 E60.28252
G1 X21.572 Y38.836 E60.29666
G1 X21.683 Y37.905 E60.32784
G1 X21.934 Y36.751 E60.36712
G1 X22.037 Y36.376 E60.38006
G1 X22.324 Y35.483 E60.41126
G1 X22.856 Y34.27 E60.45531
G1 X23.056 Y33.88 E60.46989
G1 X23.519 Y33.064 E60.50109
G1 X24.292 Y31.981 E60.54535
G1 X24.529 Y31.688 E60.55788
G1 X25.149 Y30.985 E60.58906
G1 X26.031 Y30.163 E60.62916
G1 X26.328 Y29.915 E60.64203
G1 X27.072 Y29.345 E60.6732
G1 X28.075 Y28.721 E60.71249
G1 X28.393 Y28.546 E60.72456
G1 X29.233 Y28.129 E60.75575
G1 X30.308 Y27.718 E60.79403
G1 X30.725 Y27.583 E60.80861
G1 X31.629 Y27.332 E60.83982
G1 X32.551 Y27.16 E60.87101
G1 X33.751 Y27.054 E60.91108
G1 X35.147 Y27.008 E60.95753
G1 X35.509 Y27.002 E60.96958
G1 X110 Y27 E63.44716
G1 X184.793 Y27 E65.93478
G1 X184.946 Y27.001 E65.93987
G1 X185.521 Y27.009 E65.959
G1 F2700 E60.959
;MESH:TestMold-T.stl
G0 F6000 X185.467 Y37.335
G0 X185.467 Y38.81
G0 X185.985 Y38.876
G0 X186.359 Y39.127
G0 X186.64 Y39.551
G0 X186.727 Y40.025
G0 X186.706 Y180.218
G0 X186.526 Y180.671
G0 X186.194 Y181.009
G0 X186.07 Y181.062
G0 X185.11 Y181.4
;TYPE:WALL-INNER
G1 F2700 E65.959
G1 F1200 X34.524 Y181.4 E70.96751
G1 X34.248 Y181.374 E70.97673
G1 X33.95 Y181.283 E70.98709
G1 X33.732 Y181.167 E70.9953
G1 X33.522 Y180.996 E71.00431
G1 X33.349 Y180.79 E71.01326
G1 X33.201 Y180.515 E71.02365
G1 X33.133 Y180.286 E71.03159
G1 X33.102 Y179.984 E71.04169
G1 X33.1 Y118.659 E73.08137
G1 X33.1 Y40.019 E75.69694
G1 X33.125 Y39.747 E75.70603
G1 X33.205 Y39.474 E75.71549
G1 X33.338 Y39.224 E75.72491
G1 X33.502 Y39.024 E75.73351
G1 X33.712 Y38.849 E75.7426
G1 X33.984 Y38.703 E75.75287
G1 X34.228 Y38.629 E75.76135
G1 X34.508 Y38.602 E75.77071
G1 X110 Y38.6 E78.28158
G1 X185.476 Y38.6 E80.79192
G1 X185.752 Y38.626 E80.80114
G1 X186.05 Y38.717 E80.81151
G1 X186.268 Y38.833 E80.81972
G1 X186.478 Y39.004 E80.82873
G1 X186.651 Y39.21 E80.83768
G1 X186.798 Y39.483 E80.84799
G1 X186.867 Y39.714 E80.85601
G1 X186.898 Y40.016 E80.8661
G1 X186.9 Y101.341 E82.90578
G1 X186.9 Y179.976 E85.52119
G1 X186.874 Y180.252 E85.53041
G1 X186.783 Y180.55 E85.54078
G1 X186.667 Y180.768 E85.54899
G1 X186.496 Y180.978 E85.558
G1 X186.29 Y181.151 E85.56694
G1 X186.017 Y181.298 E85.57726
G1 X185.786 Y181.367 E85.58528
G1 X185.482 Y181.398 E85.59544
G1 X185.11 Y181.4 E85.60781
G0 F6000 X185.112 Y181.8
;TYPE:WALL-OUTER
G1 F1200 X34.508 Y181.8 E90.61692
G1 X34.166 Y181.768 E90.62835
G1 X33.796 Y181.655 E90.64121
G1 X33.51 Y181.502 E90.652
G1 X33.239 Y181.282 E90.66361
G1 X33.017 Y181.017 E90.67511
G1 X32.831 Y180.672 E90.68815
G1 X32.739 Y180.362 E90.6989
G1 X32.702 Y180.006 E90.7108
G1 X32.7 Y118.659 E92.75121
G1 X32.7 Y40.004 E95.36729
G1 X32.731 Y39.67 E95.37845
G1 X32.831 Y39.328 E95.3903
G1 X32.847 Y39.295 E95.39152
G1 X33.004 Y39.001 E95.4026
G1 X33.218 Y38.74 E95.41383
G1 X33.487 Y38.515 E95.42549
G1 X33.829 Y38.332 E95.43839
G1 X34.148 Y38.235 E95.44948
G1 X34.491 Y38.202 E95.46094
G1 X110 Y38.2 E97.97238
G1 X185.492 Y38.2 E100.48326
G1 X185.834 Y38.232 E100.49468
G1 X186.204 Y38.345 E100.50755
G1 X186.49 Y38.498 E100.51834
G1 X186.761 Y38.718 E100.52995
G1 X186.983 Y38.983 E100.54145
G1 X187.169 Y39.328 E100.55448
G1 X187.261 Y39.638 E100.56524
G1 X187.298 Y39.994 E100.57714
G1 X187.3 Y101.341 E102.61755
G1 X187.3 Y179.992 E105.23349
G1 X187.268 Y180.334 E105.24492
G1 X187.155 Y180.704 E105.25779
G1 X187.002 Y180.99 E105.26857
G1 X186.782 Y181.261 E105.28018
G1 X186.517 Y181.483 E105.29168
G1 X186.172 Y181.669 E105.30472
G1 X185.862 Y181.761 E105.31547
G1 X185.505 Y181.798 E105.32741
G1 X185.112 Y181.8 E105.34048
G0 F6000 X185.111 Y181.36
G0 X185.108 Y181.01
;TYPE:SKIN
G1 F1200 X34.539 Y181.01 E110.34843
G1 X34.326 Y180.99 E110.35554
G1 X34.102 Y180.922 E110.36333
G1 X33.944 Y180.838 E110.36928
G1 X33.795 Y180.716 E110.37569
G1 X33.673 Y180.571 E110.38199
G1 X33.565 Y180.368 E110.38964
G1 X33.517 Y180.209 E110.39516
G1 X33.492 Y179.964 E110.40335
G1 X33.49 Y118.659 E112.44236
G1 X33.49 Y40.032 E115.05751
G1 X33.509 Y39.822 E115.06452
G1 X33.567 Y39.626 E115.07132
G1 X33.666 Y39.44 E115.07833
G1 X33.781 Y39.299 E115.08438
G1 X33.932 Y39.173 E115.09092
G1 X34.134 Y39.065 E115.09854
G1 X34.304 Y39.013 E115.10445
G1 X34.525 Y38.992 E115.11184
G1 X110 Y38.99 E117.62214
G1 X185.461 Y38.99 E120.13199
G1 X185.674 Y39.01 E120.1391
G1 X185.898 Y39.078 E120.14689
G1 X186.056 Y39.162 E120.15284
G1 X186.203 Y39.283 E120.15917
G1 X186.327 Y39.429 E120.16554
G1 X186.435 Y39.631 E120.17316
G1 X186.483 Y39.791 E120.17872
G1 X186.508 Y40.036 E120.18691
G1 X186.51 Y101.341 E122.22592
G1 X186.51 Y179.954 E124.8406
G1 X186.49 Y180.174 E124.84795
G1 X186.422 Y180.398 E124.85574
G1 X186.338 Y180.556 E124.86169
G1 X186.217 Y180.703 E124.86802
G1 X186.071 Y180.827 E124.87439
G1 X185.869 Y180.935 E124.88201
G1 X185.709 Y180.983 E124.88756
G1 X185.461 Y181.008 E124.89586
G1 X185.108 Y181.01 E124.9076
G1 F2700 E119.9076
G0 F6000 X185.108 Y181.29
G0 X185.949 Y181.14
G0 X186.373 Y180.859
G0 X186.624 Y180.485
G0 X186.729 Y179.964
G0 X186.699 Y39.747
G0 X186.509 Y39.306
