;FLAVOR:Marlin
;TIME:40960
;Filament used: 45.5358m
;Layer height: 0.2
;MINX:23.5
;MINY:29
;MINZ:0.2
;MAXX:196.5
;MAXY:191
;MAXZ:36.4
;Generated with Cura_SteamEngine 4.6.1
M140 S50
M105
M190 S50
M104 S203
M105
M109 S203
M82 ;absolute extrusion mode
M201 X500.00 Y500.00 Z100.00 E5000.00 ;Setup machine max acceleration
M203 X500.00 Y500.00 Z10.00 E50.00 ;Setup machine max feedrate
M204 P500.00 R1000.00 T500.00 ;Setup Print/Retract/Travel acceleration
M205 X8.00 Y8.00 Z0.40 E5.00 ;Setup Jerk
M220 S100 ;Reset Feedrate
M221 S100 ;Reset Flowrate

G28 ;Home

G92 E0 ;Reset Extruder
G1 Z2.0 F3000 ;Move Z Axis up
G1 X10.1 Y20 Z0.28 F5000.0 ;Move to start position
G1 X10.1 Y200.0 Z0.28 F1500.0 E15 ;Draw the first line
G1 X10.4 Y200.0 Z0.28 F5000.0 ;Move to side a little
G1 X10.4 Y20 Z0.28 F1500.0 E30 ;Draw the second line
G92 E0 ;Reset Extruder
G1 Z2.0 F3000 ;Move Z Axis up

G92 E0
G92 E0
G1 F2700 E-5
;LAYER_COUNT:182
;LAYER:0
M107
G0 F6000 X185.637 Y29.811 Z0.2
;TYPE:SKIRT
G1 F2700 E0
G1 F1200 X186.539 Y29.864 E0.03005
G1 X187.432 Y29.996 E0.06008
G1 X188.31 Y30.207 E0.09011
G1 X189.166 Y30.495 E0.12015
G1 X189.993 Y30.857 E0.15018
G1 X190.785 Y31.292 E0.18023
G1 X191.536 Y31.794 E0.21027
G1 X192.239 Y32.361 E0.24031
G1 X192.889 Y32.988 E0.27035
G1 X193.481 Y33.67 E0.30039
G1 X194.011 Y34.401 E0.33042
G1 X194.473 Y35.177 E0.36046
G1 X194.866 Y35.99 E0.39049
G1 X195.184 Y36.835 E0.42052
G1 X195.427 Y37.705 E0.45056
G1 X195.592 Y38.593 E0.4806
G1 X195.687 Y39.723 E0.51832
G1 X195.7 Y40.33 E0.53851
G1 X195.7 Y179.264 E5.15948
G1 X195.69 Y180.117 E5.18785
G1 X195.639 Y181.019 E5.2179
G1 X195.508 Y181.913 E5.24795
G1 X195.299 Y182.791 E5.27797
G1 X195.013 Y183.648 E5.30802
G1 X194.652 Y184.476 E5.33806
G1 X194.22 Y185.268 E5.36807
G1 X193.719 Y186.02 E5.39812
G1 X193.153 Y186.724 E5.42817
G1 X192.528 Y187.375 E5.45818
G1 X191.847 Y187.969 E5.48824
G1 X191.116 Y188.5 E5.51829
G1 X190.342 Y188.964 E5.5483
G1 X189.529 Y189.358 E5.57835
G1 X188.685 Y189.678 E5.60837
G1 X187.815 Y189.923 E5.63844
G1 X186.928 Y190.089 E5.66845
G1 X185.777 Y190.187 E5.70687
G1 X185.17 Y190.2 E5.72706
G1 X35.207 Y190.2 E10.71485
G1 X34.377 Y190.19 E10.74246
G1 X33.476 Y190.139 E10.77248
G1 X32.582 Y190.007 E10.80253
G1 X31.704 Y189.798 E10.83255
G1 X30.847 Y189.511 E10.86261
G1 X30.02 Y189.15 E10.89262
G1 X29.227 Y188.717 E10.92268
G1 X28.476 Y188.216 E10.9527
G1 X27.772 Y187.65 E10.98275
G1 X27.121 Y187.024 E11.01279
G1 X26.528 Y186.343 E11.04282
G1 X25.998 Y185.612 E11.07285
G1 X25.534 Y184.837 E11.10289
G1 X25.14 Y184.024 E11.13294
G1 X24.82 Y183.18 E11.16296
G1 X24.576 Y182.31 E11.19302
G1 X24.41 Y181.422 E11.22306
G1 X24.313 Y180.267 E11.26161
G1 X24.3 Y179.658 E11.28187
G1 X24.3 Y40.674 E15.9045
G1 X24.31 Y39.871 E15.93121
G1 X24.362 Y38.969 E15.96126
G1 X24.494 Y38.076 E15.99128
G1 X24.704 Y37.198 E16.02131
G1 X24.991 Y36.341 E16.05137
G1 X25.353 Y35.514 E16.0814
G1 X25.786 Y34.722 E16.11142
G1 X26.288 Y33.971 E16.14146
G1 X26.855 Y33.267 E16.17153
G1 X27.481 Y32.617 E16.20154
G1 X28.162 Y32.024 E16.23158
G1 X28.894 Y31.494 E16.26164
G1 X29.669 Y31.031 E16.29166
G1 X30.482 Y30.638 E16.3217
G1 X31.327 Y30.318 E16.35175
G1 X32.196 Y30.075 E16.38176
G1 X33.084 Y29.909 E16.41181
G1 X34.223 Y29.813 E16.44982
G1 X34.83 Y29.8 E16.47002
G1 X184.793 Y29.8 E21.45781
G1 X184.939 Y29.801 E21.46266
G1 X185.637 Y29.811 E21.48588
G0 F6000 X185.643 Y29.411
G1 F1200 X186.562 Y29.464 E21.5165
G1 X187.473 Y29.597 E21.54712
G1 X188.369 Y29.808 E21.57774
G1 X189.243 Y30.096 E21.60834
G1 X190.09 Y30.459 E21.63899
G1 X190.901 Y30.894 E21.6696
G1 X191.671 Y31.398 E21.70021
G1 X192.395 Y31.967 E21.73084
G1 X193.067 Y32.597 E21.76147
G1 X193.682 Y33.282 E21.79209
G1 X194.235 Y34.018 E21.82271
G1 X194.722 Y34.799 E21.85332
G1 X195.139 Y35.62 E21.88395
G1 X195.484 Y36.474 E21.91459
G1 X195.753 Y37.354 E21.94519
G1 X195.945 Y38.255 E21.97583
G1 X196.058 Y39.168 E22.00643
G1 X196.087 Y39.712 E22.02455
G1 X196.1 Y40.33 E22.04511
G1 X196.1 Y179.264 E26.66607
G1 X196.09 Y180.122 E26.69461
G1 X196.039 Y181.041 E26.72522
G1 X195.908 Y181.953 E26.75587
G1 X195.698 Y182.849 E26.78648
G1 X195.412 Y183.724 E26.8171
G1 X195.051 Y184.571 E26.84772
G1 X194.617 Y185.383 E26.87834
G1 X194.115 Y186.155 E26.90897
G1 X193.547 Y186.88 E26.9396
G1 X192.919 Y187.553 E26.97022
G1 X192.235 Y188.169 E27.00083
G1 X191.5 Y188.723 E27.03145
G1 X190.72 Y189.212 E27.06207
G1 X189.9 Y189.631 E27.09269
G1 X189.047 Y189.977 E27.12331
G1 X188.167 Y190.248 E27.15393
G1 X187.267 Y190.441 E27.18455
G1 X186.353 Y190.556 E27.21519
G1 X185.788 Y190.587 E27.23401
G1 X185.17 Y190.6 E27.25457
G1 X35.207 Y190.6 E32.24236
G1 X34.372 Y190.59 E32.27013
G1 X33.453 Y190.538 E32.30075
G1 X32.542 Y190.407 E32.33136
G1 X31.646 Y190.197 E32.36197
G1 X30.771 Y189.91 E32.3926
G1 X29.924 Y189.548 E32.42323
G1 X29.112 Y189.114 E32.45386
G1 X28.341 Y188.612 E32.48446
G1 X27.616 Y188.044 E32.51509
G1 X26.943 Y187.415 E32.54573
G1 X26.328 Y186.731 E32.57632
G1 X25.774 Y185.996 E32.60693
G1 X25.286 Y185.215 E32.63756
G1 X24.867 Y184.395 E32.66819
G1 X24.521 Y183.542 E32.69881
G1 X24.251 Y182.662 E32.72942
G1 X24.058 Y181.761 E32.76007
G1 X23.944 Y180.848 E32.79067
G1 X23.913 Y180.277 E32.80969
G1 X23.9 Y179.658 E32.83028
G1 X23.9 Y40.674 E37.45291
G1 X23.91 Y39.866 E37.47979
G1 X23.962 Y38.946 E37.51043
G1 X24.094 Y38.035 E37.54105
G1 X24.305 Y37.139 E37.57167
G1 X24.592 Y36.264 E37.6023
G1 X24.955 Y35.418 E37.63291
G1 X25.389 Y34.606 E37.66354
G1 X25.892 Y33.835 E37.69416
G1 X26.461 Y33.111 E37.72478
G1 X27.089 Y32.439 E37.75537
G1 X27.774 Y31.823 E37.78601
G1 X28.51 Y31.27 E37.81663
G1 X29.291 Y30.782 E37.84726
G1 X30.111 Y30.364 E37.87788
G1 X30.965 Y30.019 E37.90851
G1 X31.845 Y29.749 E37.93913
G1 X32.745 Y29.557 E37.96973
G1 X33.659 Y29.443 E38.00037
G1 X34.212 Y29.413 E38.01879
G1 X34.83 Y29.4 E38.03935
G1 X184.793 Y29.4 E43.02714
G1 X184.945 Y29.401 E43.03219
G1 X185.643 Y29.411 E43.05541
G0 F6000 X185.649 Y29.011
G1 F1200 X186.585 Y29.065 E43.0866
G1 X187.513 Y29.197 E43.11777
G1 X188.427 Y29.409 E43.14898
G1 X189.319 Y29.698 E43.18016
G1 X190.184 Y30.061 E43.21136
G1 X191.014 Y30.497 E43.24255
G1 X191.805 Y31.002 E43.27376
G1 X192.549 Y31.573 E43.30495
G1 X193.242 Y32.205 E43.33615
G1 X193.879 Y32.893 E43.36733
G1 X194.454 Y33.634 E43.39853
G1 X194.965 Y34.42 E43.42971
G1 X195.407 Y35.248 E43.46093
G1 X195.776 Y36.11 E43.49212
G1 X196.071 Y37 E43.5233
G1 X196.289 Y37.912 E43.55449
G1 X196.429 Y38.84 E43.5857
G1 X196.487 Y39.701 E43.61441
G1 X196.5 Y40.33 E43.63533
G1 X196.5 Y179.264 E48.25629
G1 X196.49 Y180.127 E48.285
G1 X196.439 Y181.064 E48.31621
G1 X196.307 Y181.992 E48.34739
G1 X196.098 Y182.906 E48.37857
G1 X195.811 Y183.799 E48.40977
G1 X195.449 Y184.665 E48.44099
G1 X195.015 Y185.496 E48.47217
G1 X194.511 Y186.287 E48.50336
G1 X193.942 Y187.032 E48.53454
G1 X193.311 Y187.727 E48.56577
G1 X192.624 Y188.365 E48.59695
G1 X191.885 Y188.942 E48.62813
G1 X191.099 Y189.454 E48.65933
G1 X190.273 Y189.897 E48.69051
G1 X189.411 Y190.269 E48.72173
G1 X188.522 Y190.565 E48.7529
G1 X187.61 Y190.785 E48.7841
G1 X186.683 Y190.926 E48.81529
G1 X185.799 Y190.987 E48.84476
G1 X185.17 Y191 E48.86568
G1 X35.207 Y191 E53.85347
G1 X34.367 Y190.99 E53.88141
G1 X33.431 Y190.938 E53.91259
G1 X32.502 Y190.806 E53.9438
G1 X31.588 Y190.596 E53.97499
G1 X30.695 Y190.309 E54.00619
G1 X29.83 Y189.946 E54.03739
G1 X28.999 Y189.512 E54.06857
G1 X28.208 Y189.008 E54.09977
G1 X27.463 Y188.438 E54.13097
G1 X26.769 Y187.807 E54.16217
G1 X26.132 Y187.12 E54.19333
G1 X25.555 Y186.38 E54.22454
G1 X25.043 Y185.594 E54.25574
G1 X24.6 Y184.767 E54.28694
G1 X24.229 Y183.906 E54.31812
G1 X23.933 Y183.016 E54.34932
G1 X23.714 Y182.104 E54.38051
G1 X23.573 Y181.177 E54.4117
G1 X23.513 Y180.288 E54.44134
G1 X23.5 Y179.658 E54.46229
G1 X23.5 Y40.674 E59.08492
G1 X23.51 Y39.86 E59.112
G1 X23.563 Y38.924 E59.14318
G1 X23.695 Y37.995 E59.17439
G1 X23.906 Y37.081 E59.20559
G1 X24.194 Y36.189 E59.23676
G1 X24.557 Y35.324 E59.26796
G1 X24.992 Y34.493 E59.29916
G1 X25.496 Y33.703 E59.33033
G1 X26.066 Y32.958 E59.36153
G1 X26.698 Y32.264 E59.39275
G1 X27.386 Y31.627 E59.42393
G1 X28.126 Y31.051 E59.45512
G1 X28.912 Y30.539 E59.48632
G1 X29.739 Y30.097 E59.51751
G1 X30.601 Y29.727 E59.54871
G1 X31.491 Y29.431 E59.57991
G1 X32.403 Y29.213 E59.61109
G1 X33.33 Y29.072 E59.64228
G1 X34.201 Y29.013 E59.67132
G1 X34.83 Y29 E59.69224
G1 X184.793 Y29 E64.68003
G1 X184.951 Y29.001 E64.68529
G1 X185.649 Y29.011 E64.7085
G1 F2700 E59.7085
;MESH:TestMold-T2.stl
G0 F6000 X184.69 Y39.335
G0 X184.69 Y40.81
G0 X184.718 Y179.218
G0 X35.1 Y179.4
;TYPE:WALL-INNER
G1 F2700 E64.7085
G1 F1200 X35.1 Y40.6 E69.32501
G1 X184.9 Y40.6 E74.30738
G1 X184.9 Y179.4 E78.92389
G1 X35.1 Y179.4 E83.90625
G0 F6000 X34.7 Y179.8
;TYPE:WALL-OUTER
G1 F1200 X34.7 Y40.2 E88.54937
G1 X185.3 Y40.2 E93.55834
G1 X185.3 Y179.8 E98.20146
G1 X34.7 Y179.8 E103.21044
G0 F6000 X34.97 Y179.53
G0 X35.21 Y179.01
G0 X35.49 Y179.01
;TYPE:SKIN
G1 F1200 X35.49 Y40.99 E107.801
G1 X184.51 Y40.99 E112.75743
G1 X184.51 Y179.01 E117.34799
G1 X35.49 Y179.01 E122.30441
G1 F2700 E117.30441
G0 F6000 X35.21 Y179.01
G0 X35.31 Y110.21
G0 X104.29 Y110.21
G1 F2700 E122.30441
G1 F1200 X104.29 Y109.79 E122.31838
G1 X115.71 Y109.79 E122.69821
G1 X115.71 Y110.21 E122.71218
G1 X104.29 Y110.21 E123.09201
G0 F6000 X103.89 Y110.61
G1 F1200 X103.89 Y109.39 E123.13259
G1 X116.11 Y109.39 E123.53903
G1 X116.11 Y110.61 E123.57961
G1 X103.89 Y110.61 E123.98605
G0 F6000 X103.49 Y111.01
G1 F1200 X103.49 Y108.99 E124.05323
G1 X116.51 Y108.99 E124.48628
G1 X116.51 Y111.01 E124.55346
G1 X103.49 Y111.01 E124.98651
G0 F6000 X103.09 Y111.41
G1 F1200 X103.09 Y108.59 E125.08031
G1 X116.91 Y108.59 E125.53996
G1 X116.91 Y111.41 E125.63375
G1 X103.09 Y111.41 E126.09341
G0 F6000 X102.69 Y111.81
G1 F1200 X102.69 Y108.19 E126.21381
G1 X117.31 Y108.19 E126.70007
G1 X117.31 Y111.81 E126.82048
G1 X102.69 Y111.81 E127.30674
G0 F6000 X102.29 Y112.21
G1 F1200 X102.29 Y107.79 E127.45375
G1 X117.71 Y107.79 E127.96662
G1 X117.71 Y112.21 E128.11363
G1 X102.29 Y112.21 E128.6265
G0 F6000 X101.89 Y112.61
G1 F1200 X101.89 Y107.39 E128.80012
G1 X118.11 Y107.39 E129.3396
G1 X118.11 Y112.61 E129.51322
G1 X101.89 Y112.61 E130.0527
G0 F6000 X101.49 Y113.01
G1 F1200 X101.49 Y106.99 E130.25292
G1 X118.51 Y106.99 E130.81901
G1 X118.51 Y113.01 E131.01923
G1 X101.49 Y113.01 E131.58532
G0 F6000 X101.09 Y113.41
G1 F1200 X101.09 Y106.59 E131.81216
G1 X118.91 Y106.59 E132.40485
G1 X118.91 Y113.41 E132.63169
G1 X101.09 Y113.41 E133.22438
G0 F6000 X100.69 Y113.81
G1 F1200 X100.69 Y106.19 E133.47782
G1 X119.31 Y106.19 E134.09713
G1 X119.31 Y113.81 E134.35057
G1 X100.69 Y113.81 E134.96987
G0 F6000 X100.29 Y114.21
G1 F1200 X100.29 Y105.79 E135.24992
G1 X119.71 Y105.79 E135.89584
G1 X119.71 Y114.21 E136.17589
G1 X100.29 Y114.21 E136.8218
G0 F6000 X99.89 Y114.61
G1 F1200 X99.89 Y105.39 E137.12846
G1 X120.11 Y105.39 E137.80098
G1 X120.11 Y114.61 E138.10763
G1 X99.89 Y114.61 E138.78015
G0 F6000 X99.49 Y115.01
G1 F1200 X99.49 Y104.99 E139.11342
G1 X120.51 Y104.99 E139.81255
G1 X120.51 Y115.01 E140.14582
G1 X99.49 Y115.01 E140.84494
G0 F6000 X99.09 Y115.41
G1 F1200 X99.09 Y104.59 E141.20482
G1 X120.91 Y104.59 E141.93055
G1 X120.91 Y115.41 E142.29043
G1 X99.09 Y115.41 E143.01617
G0 F6000 X98.69 Y115.81
G1 F1200 X98.69 Y104.19 E143.40265
G1 X121.31 Y104.19 E144.15499
G1 X121.31 Y115.81 E144.54148
G1 X98.69 Y115.81 E145.29382
G0 F6000 X98.29 Y116.21
G1 F1200 X98.29 Y103.79 E145.70691
G1 X121.71 Y103.79 E146.48586
G1 X121.71 Y116.21 E146.89895
G1 X98.29 Y116.21 E147.67791
G0 F6000 X97.89 Y116.61
G1 F1200 X97.89 Y103.39 E148.11761
G1 X122.11 Y103.39 E148.92317
G1 X122.11 Y116.61 E149.36286
G1 X97.89 Y116.61 E150.16842
G0 F6000 X97.49 Y117.01
G1 F1200 X97.49 Y102.99 E150.63473
G1 X122.51 Y102.99 E151.4669
G1 X122.51 Y117.01 E151.93321
G1 X97.49 Y117.01 E152.76538
G0 F6000 X97.09 Y117.41
G1 F1200 X97.09 Y102.59 E153.25829
G1 X122.91 Y102.59 E154.11707
G1 X122.91 Y117.41 E154.60998
G1 X97.09 Y117.41 E155.46876
G0 F6000 X96.69 Y117.81
G1 F1200 X96.69 Y102.19 E155.98828
G1 X123.31 Y102.19 E156.87367
G1 X123.31 Y117.81 E157.39319
G1 X96.69 Y117.81 E158.27858
G0 F6000 X96.29 Y118.21
G1 F1200 X96.29 Y101.79 E158.82471
G1 X123.71 Y101.79 E159.7367
G1 X123.71 Y118.21 E160.28283
G1 X96.29 Y118.21 E161.19482
G0 F6000 X95.89 Y118.61
G1 F1200 X95.89 Y101.39 E161.76756
G1 X124.11 Y101.39 E162.70617
G1 X124.11 Y118.61 E163.27891
G1 X95.89 Y118.61 E164.21751
G0 F6000 X95.49 Y119.01
G1 F1200 X95.49 Y100.99 E164.81685
G1 X124.51 Y100.99 E165.78206
G1 X124.51 Y119.01 E166.38141
G1 X95.49 Y119.01 E167.34662
G0 F6000 X95.09 Y119.41
G1 F1200 X95.09 Y100.59 E167.97258
G1 X124.91 Y100.59 E168.96439
G1 X124.91 Y119.41 E169.59035
G1 X95.09 Y119.41 E170.58217
G0 F6000 X94.69 Y119.81
G1 F1200 X94.69 Y100.19 E171.23473
G1 X125.31 Y100.19 E172.25315
G1 X125.31 Y119.81 E172.90572
G1 X94.69 Y119.81 E173.92414
G0 F6000 X94.29 Y120.21
G1 F1200 X94.29 Y99.79 E174.60332
G1 X125.71 Y99.79 E175.64835
G1 X125.71 Y120.21 E176.32752
G1 X94.29 Y120.21 E177.37255
G0 F6000 X93.89 Y120.61
G1 F1200 X93.89 Y99.39 E178.07833
G1 X126.11 Y99.39 E179.14998
G1 X126.11 Y120.61 E179.85576
G1 X93.89 Y120.61 E180.9274
G0 F6000 X93.49 Y121.01
G1 F1200 X93.49 Y98.99 E181.65979
G1 X126.51 Y98.99 E182.75804
G1 X126.51 Y121.01 E183.49042
G1 X93.49 Y121.01 E184.58867
G0 F6000 X93.09 Y121.41
G1 F1200 X93.09 Y98.59 E185.34767
G1 X126.91 Y98.59 E186.47253
G1 X126.91 Y121.41 E187.23152
G1 X93.09 Y121.41 E188.35638
G0 F6000 X92.69 Y121.81
G1 F1200 X92.69 Y98.19 E189.14199
G1 X127.31 Y98.19 E190.29345
G1 X127.31 Y121.81 E191.07906
G1 X92.69 Y121.81 E192.23052
G0 F6000 X92.29 Y122.21
G1 F1200 X92.29 Y97.79 E193.04273
G1 X127.71 Y97.79 E194.22081
G1 X127.71 Y122.21 E195.03302
G1 X92.29 Y122.21 E196.2111
G0 F6000 X91.89 Y122.61
G1 F1200 X91.89 Y97.39 E197.04992
G1 X128.11 Y97.39 E198.2546
G1 X128.11 Y122.61 E199.09342
G1 X91.89 Y122.61 E200.2981
G0 F6000 X91.49 Y123.01
G1 F1200 X91.49 Y96.99 E201.16353
G1 X128.51 Y96.99 E202.39482
G1 X128.51 Y123.01 E203.26025
G1 X91.49 Y123.01 E204.49154
G0 F6000 X91.09 Y123.41
G1 F1200 X91.09 Y96.59 E205.38358
G1 X128.91 Y96.59 E206.64147
G1 X128.91 Y123.41 E207.53351
G1 X91.09 Y123.41 E208.79141
G0 F6000 X90.69 Y123.81
G1 F1200 X90.69 Y96.19 E209.71005
G1 X129.31 Y96.19 E210.99456
G1 X129.31 Y123.81 E211.9132
G1 X90.69 Y123.81 E213.19771
G0 F6000 X90.29 Y124.21
G1 F1200 X90.29 Y95.79 E214.14296
G1 X129.71 Y95.79 E215.45408
G1 X129.71 Y124.21 E216.39933
G1 X90.29 Y124.21 E217.71045
G0 F6000 X89.89 Y124.61
G1 F1200 X89.89 Y95.39 E218.68231
G1 X130.11 Y95.39 E220.02003
G1 X130.11 Y124.61 E220.99189
G1 X89.89 Y124.61 E222.32961
G0 F6000 X89.49 Y125.01
G1 F1200 X89.49 Y94.99 E223.32808
G1 X130.51 Y94.99 E224.69241
G1 X130.51 Y125.01 E225.69088
G1 X89.49 Y125.01 E227.05521
G0 F6000 X89.09 Y125.41
G1 F1200 X89.09 Y94.59 E228.08029
G1 X130.91 Y94.59 E229.47123
G1 X130.91 Y125.41 E230.49631
G1 X89.09 Y125.41 E231.88725
G0 F6000 X88.69 Y125.81
G1 F1200 X88.69 Y94.19 E232.93893
G1 X131.31 Y94.19 E234.35648
G1 X131.31 Y125.81 E235.40816
G1 X88.69 Y125.81 E236.82571
G0 F6000 X88.29 Y126.21
G1 F1200 X88.29 Y93.79 E237.904
G1 X131.71 Y93.79 E239.34816
G1 X131.71 Y126.21 E240.42645
G1 X88.29 Y126.21 E241.87061
G0 F6000 X87.89 Y126.61
G1 F1200 X87.89 Y93.39 E242.97551
G1 X132.11 Y93.39 E244.44627
G1 X132.11 Y126.61 E245.55118
G1 X87.89 Y126.61 E247.02194
G0 F6000 X87.49 Y127.01
G1 F1200 X87.49 Y92.99 E248.15345
G1 X132.51 Y92.99 E249.65082
G1 X132.51 Y127.01 E250.78233
G1 X87.49 Y127.01 E252.2797
G0 F6000 X87.09 Y127.41
G1 F1200 X87.09 Y92.59 E253.43782
G1 X132.91 Y92.59 E254.9618
G1 X132.91 Y127.41 E256.11992
G1 X87.09 Y127.41 E257.64389
G0 F6000 X86.69 Y127.81
G1 F1200 X86.69 Y92.19 E258.82862
G1 X133.31 Y92.19 E260.37921
G1 X133.31 Y127.81 E261.56393
G1 X86.69 Y127.81 E263.11452
G0 F6000 X86.29 Y128.21
G1 F1200 X86.29 Y91.79 E264.32586
G1 X133.71 Y91.79 E265.90305
G1 X133.71 Y128.21 E267.11439
G1 X86.29 Y128.21 E268.69158
G0 F6000 X85.89 Y128.61
G1 F1200 X85.89 Y91.39 E269.92952
G1 X134.11 Y91.39 E271.53333
G1 X134.11 Y128.61 E272.77127
