;FLAVOR:Marlin
;TIME:345
;Filament used: 0.184139m
;Layer height: 0.2
;MINX:94
;MINY:89
;MINZ:0.2
;MAXX:126
;MAXY:131
;MAXZ:4
;Generated with Cura_SteamEngine 4.6.1
M140 S55
M105
M190 S55
M104 S205
M105
M109 S205
M82 ;absolute extrusion mode
M201 X500.00 Y500.00 Z100.00 E5000.00 ;Setup machine max acceleration
M203 X500.00 Y500.00 Z10.00 E50.00 ;Setup machine max feedrate
M204 P500.00 R1000.00 T500.00 ;Setup Print/Retract/Travel acceleration
M205 X8.00 Y8.00 Z0.40 E5.00 ;Setup Jerk
M220 S100 ;Reset Feedrate
M221 S100 ;Reset Flowrate

G28 ;Home

G92 E0 ;Reset Extruder
G1 Z2.0 F3000 ;Move Z Axis up
G1 X10.1 Y20 Z0.28 F5000.0 ;Move to start position
G1 X10.1 Y200.0 Z0.28 F1500.0 E15 ;Draw the first line
G1 X10.4 Y200.0 Z0.28 F5000.0 ;Move to side a little
G1 X10.4 Y20 Z0.28 F1500.0 E30 ;Draw the second line
G92 E0 ;Reset Extruder
G1 Z2.0 F3000 ;Move Z Axis up

G92 E0
G92 E0
G1 F2700 E-5
;LAYER_COUNT:20
;LAYER:0
M107
G0 F6000 X115.137 Y89.811 Z0.2
;TYPE:SKIRT
G1 F2700 E0
G1 F1200 X116.039 Y89.864 E0.03005
G1 X116.932 Y89.996 E0.06008
G1 X117.81 Y90.207 E0.09011
G1 X118.666 Y90.495 E0.12015
G1 X119.493 Y90.857 E0.15018
G1 X120.285 Y91.292 E0.18023
G1 X121.036 Y91.794 E0.21027
G1 X121.739 Y92.361 E0.24031
G1 X122.389 Y92.988 E0.27035
G1 X122.981 Y93.67 E0.30039
G1 X123.511 Y94.401 E0.33042
G1 X123.973 Y95.177 E0.36046
G1 X124.366 Y95.99 E0.39049
G1 X124.684 Y96.835 E0.42052
G1 X124.927 Y97.705 E0.45056
G1 X125.092 Y98.593 E0.4806
G1 X125.187 Y99.723 E0.51832
G1 X125.2 Y100.33 E0.53851
G1 X125.199 Y102.438 E0.60863
G1 X125.181 Y103.63 E0.64828
G1 X125.124 Y105.675 E0.71632
G1 X125.124 Y108.269 E0.8026
G1 X125.152 Y109.543 E0.84498
G1 X125.2 Y111.312 E0.90384
G1 X125.199 Y113.409 E0.97359
G1 X125.192 Y113.889 E0.98955
G1 X125.199 Y119.404 E1.17298
G1 X125.189 Y120.131 E1.19717
G1 X125.137 Y121.033 E1.22722
G1 X125.005 Y121.926 E1.25724
G1 X124.794 Y122.805 E1.28731
G1 X124.507 Y123.661 E1.31733
G1 X124.145 Y124.488 E1.34736
G1 X123.711 Y125.28 E1.3774
G1 X123.209 Y126.031 E1.40744
G1 X122.643 Y126.734 E1.43746
G1 X122.016 Y127.385 E1.46752
G1 X121.335 Y127.977 E1.49754
G1 X120.604 Y128.507 E1.52757
G1 X119.828 Y128.97 E1.55762
G1 X119.015 Y129.363 E1.58766
G1 X118.17 Y129.683 E1.61771
G1 X117.301 Y129.926 E1.64772
G1 X116.413 Y130.091 E1.67776
G1 X115.277 Y130.187 E1.71568
G1 X114.67 Y130.2 E1.73587
G1 X105.575 Y130.199 E2.03837
G1 X104.877 Y130.19 E2.06159
G1 X103.976 Y130.139 E2.09161
G1 X103.082 Y130.007 E2.12166
G1 X102.204 Y129.798 E2.15168
G1 X101.347 Y129.511 E2.18174
G1 X100.52 Y129.15 E2.21175
G1 X99.727 Y128.717 E2.2418
G1 X98.976 Y128.216 E2.27183
G1 X98.272 Y127.65 E2.30188
G1 X97.621 Y127.024 E2.33191
G1 X97.028 Y126.343 E2.36195
G1 X96.498 Y125.612 E2.39198
G1 X96.034 Y124.837 E2.42202
G1 X95.64 Y124.024 E2.45207
G1 X95.32 Y123.18 E2.48209
G1 X95.076 Y122.31 E2.51215
G1 X94.91 Y121.422 E2.54219
G1 X94.813 Y120.267 E2.58074
G1 X94.8 Y119.658 E2.601
G1 X94.801 Y100.536 E3.237
G1 X94.81 Y99.871 E3.25912
G1 X94.862 Y98.969 E3.28917
G1 X94.994 Y98.076 E3.3192
G1 X95.204 Y97.198 E3.34922
G1 X95.491 Y96.341 E3.37928
G1 X95.853 Y95.514 E3.40931
G1 X96.286 Y94.722 E3.43933
G1 X96.788 Y93.971 E3.46938
G1 X97.355 Y93.267 E3.49944
G1 X97.981 Y92.617 E3.52946
G1 X98.662 Y92.024 E3.55949
G1 X99.394 Y91.494 E3.58955
G1 X100.169 Y91.031 E3.61957
G1 X100.982 Y90.638 E3.64961
G1 X101.827 Y90.318 E3.67966
G1 X102.696 Y90.075 E3.70967
G1 X103.584 Y89.909 E3.73972
G1 X104.723 Y89.813 E3.77774
G1 X105.33 Y89.8 E3.79793
G1 X114.439 Y89.801 E4.1009
G1 X115.137 Y89.811 E4.12412
G0 F6000 X115.143 Y89.411
G1 F1200 X116.062 Y89.464 E4.15473
G1 X116.973 Y89.597 E4.18535
G1 X117.869 Y89.808 E4.21597
G1 X118.743 Y90.096 E4.24658
G1 X119.59 Y90.459 E4.27723
G1 X120.401 Y90.894 E4.30783
G1 X121.171 Y91.398 E4.33844
G1 X121.895 Y91.967 E4.36907
G1 X122.567 Y92.597 E4.39971
G1 X123.182 Y93.282 E4.43033
G1 X123.735 Y94.018 E4.46095
G1 X124.222 Y94.799 E4.49156
G1 X124.639 Y95.62 E4.52218
G1 X124.984 Y96.474 E4.55282
G1 X125.253 Y97.354 E4.58343
G1 X125.445 Y98.255 E4.61407
G1 X125.558 Y99.168 E4.64466
G1 X125.587 Y99.712 E4.66278
G1 X125.6 Y100.33 E4.68334
G1 X125.599 Y102.444 E4.75365
G1 X125.581 Y103.641 E4.79347
G1 X125.524 Y105.686 E4.86151
G1 X125.524 Y108.26 E4.94713
G1 X125.552 Y109.531 E4.98941
G1 X125.6 Y111.312 E5.04867
G1 X125.599 Y113.415 E5.11861
G1 X125.592 Y113.894 E5.13455
G1 X125.599 Y119.41 E5.31801
G1 X125.589 Y120.137 E5.34219
G1 X125.536 Y121.056 E5.37281
G1 X125.404 Y121.967 E5.40343
G1 X125.193 Y122.863 E5.43404
G1 X124.906 Y123.738 E5.46467
G1 X124.543 Y124.584 E5.49529
G1 X124.109 Y125.396 E5.52591
G1 X123.605 Y126.167 E5.55655
G1 X123.037 Y126.891 E5.58715
G1 X122.408 Y127.563 E5.61777
G1 X121.723 Y128.178 E5.64839
G1 X120.987 Y128.731 E5.67901
G1 X120.206 Y129.219 E5.70964
G1 X119.386 Y129.637 E5.74025
G1 X118.532 Y129.982 E5.77088
G1 X117.652 Y130.251 E5.80149
G1 X116.751 Y130.444 E5.83214
G1 X115.838 Y130.557 E5.86273
G1 X115.288 Y130.587 E5.88105
G1 X114.67 Y130.6 E5.90161
G1 X105.57 Y130.599 E6.20428
G1 X104.872 Y130.59 E6.2275
G1 X103.953 Y130.538 E6.25811
G1 X103.042 Y130.407 E6.28873
G1 X102.146 Y130.197 E6.31933
G1 X101.271 Y129.91 E6.34996
G1 X100.424 Y129.548 E6.3806
G1 X99.612 Y129.114 E6.41122
G1 X98.841 Y128.612 E6.44182
G1 X98.116 Y128.044 E6.47245
G1 X97.443 Y127.415 E6.50309
G1 X96.828 Y126.731 E6.53369
G1 X96.274 Y125.996 E6.5643
G1 X95.786 Y125.215 E6.59493
G1 X95.367 Y124.395 E6.62556
G1 X95.021 Y123.542 E6.65617
G1 X94.751 Y122.662 E6.68679
G1 X94.558 Y121.761 E6.71744
G1 X94.444 Y120.848 E6.74804
G1 X94.413 Y120.277 E6.76706
G1 X94.4 Y119.658 E6.78765
G1 X94.401 Y100.531 E7.42382
G1 X94.41 Y99.866 E7.44594
G1 X94.462 Y98.946 E7.47658
G1 X94.594 Y98.035 E7.5072
G1 X94.805 Y97.139 E7.53782
G1 X95.092 Y96.264 E7.56845
G1 X95.455 Y95.418 E7.59906
G1 X95.889 Y94.606 E7.62969
G1 X96.392 Y93.835 E7.66031
G1 X96.961 Y93.111 E7.69093
G1 X97.589 Y92.439 E7.72152
G1 X98.274 Y91.823 E7.75216
G1 X99.01 Y91.27 E7.78278
G1 X99.791 Y90.782 E7.81341
G1 X100.611 Y90.364 E7.84403
G1 X101.465 Y90.019 E7.87466
G1 X102.345 Y89.749 E7.90528
G1 X103.245 Y89.557 E7.93588
G1 X104.159 Y89.443 E7.96652
G1 X104.712 Y89.413 E7.98494
G1 X105.33 Y89.4 E8.0055
G1 X114.445 Y89.401 E8.30867
G1 X115.143 Y89.411 E8.33188
G0 F6000 X115.149 Y89.011
G1 F1200 X116.085 Y89.065 E8.36307
G1 X117.013 Y89.197 E8.39424
G1 X117.927 Y89.409 E8.42545
G1 X118.819 Y89.698 E8.45664
G1 X119.684 Y90.061 E8.48784
G1 X120.514 Y90.497 E8.51902
G1 X121.305 Y91.002 E8.55023
G1 X122.049 Y91.573 E8.58143
G1 X122.742 Y92.205 E8.61262
G1 X123.379 Y92.893 E8.64381
G1 X123.954 Y93.634 E8.675
G1 X124.465 Y94.42 E8.70618
G1 X124.907 Y95.248 E8.7374
G1 X125.276 Y96.11 E8.76859
G1 X125.571 Y97 E8.79977
G1 X125.789 Y97.912 E8.83096
G1 X125.929 Y98.84 E8.86217
G1 X125.987 Y99.701 E8.89088
G1 X126 Y100.33 E8.9118
G1 X125.999 Y102.45 E8.98231
G1 X125.981 Y103.653 E9.02233
G1 X125.924 Y105.698 E9.09037
G1 X125.924 Y108.251 E9.17529
G1 X125.952 Y109.52 E9.2175
G1 X126 Y111.312 E9.27713
G1 X125.999 Y113.421 E9.34727
G1 X125.992 Y113.9 E9.36321
G1 X125.999 Y119.415 E9.54664
G1 X125.989 Y120.142 E9.57082
G1 X125.936 Y121.079 E9.60203
G1 X125.804 Y122.007 E9.63321
G1 X125.593 Y122.921 E9.66441
G1 X125.304 Y123.813 E9.69559
G1 X124.941 Y124.678 E9.7268
G1 X124.506 Y125.509 E9.75799
G1 X124.001 Y126.299 E9.78918
G1 X123.431 Y127.044 E9.82038
G1 X122.8 Y127.738 E9.85157
G1 X122.111 Y128.375 E9.88278
G1 X121.371 Y128.951 E9.91397
G1 X120.585 Y129.462 E9.94515
G1 X119.758 Y129.904 E9.97634
G1 X118.896 Y130.274 E10.00754
G1 X118.006 Y130.569 E10.03873
G1 X117.094 Y130.788 E10.06992
G1 X116.167 Y130.928 E10.10111
G1 X115.299 Y130.987 E10.13004
G1 X114.67 Y131 E10.15097
G1 X105.565 Y130.999 E10.4538
G1 X104.867 Y130.99 E10.47702
G1 X103.931 Y130.938 E10.5082
G1 X103.002 Y130.806 E10.53941
G1 X102.088 Y130.596 E10.5706
G1 X101.195 Y130.309 E10.6018
G1 X100.33 Y129.946 E10.633
G1 X99.499 Y129.512 E10.66418
G1 X98.708 Y129.008 E10.69537
G1 X97.963 Y128.438 E10.72657
G1 X97.269 Y127.807 E10.75777
G1 X96.632 Y127.12 E10.78893
G1 X96.055 Y126.38 E10.82014
G1 X95.543 Y125.594 E10.85134
G1 X95.1 Y124.767 E10.88254
G1 X94.729 Y123.906 E10.91373
G1 X94.433 Y123.016 E10.94492
G1 X94.214 Y122.104 E10.97612
G1 X94.073 Y121.177 E11.0073
G1 X94.013 Y120.288 E11.03694
G1 X94 Y119.658 E11.0579
G1 X94.001 Y100.525 E11.69426
G1 X94.01 Y99.86 E11.71638
G1 X94.063 Y98.924 E11.74757
G1 X94.195 Y97.995 E11.77878
G1 X94.406 Y97.081 E11.80997
G1 X94.694 Y96.189 E11.84115
G1 X95.057 Y95.324 E11.87235
G1 X95.492 Y94.493 E11.90355
G1 X95.996 Y93.703 E11.93472
G1 X96.566 Y92.958 E11.96592
G1 X97.198 Y92.264 E11.99713
G1 X97.886 Y91.627 E12.02832
G1 X98.626 Y91.051 E12.05951
G1 X99.412 Y90.539 E12.09071
G1 X100.239 Y90.097 E12.1219
G1 X101.101 Y89.727 E12.1531
G1 X101.991 Y89.431 E12.18429
G1 X102.903 Y89.213 E12.21548
G1 X103.83 Y89.072 E12.24667
G1 X104.701 Y89.013 E12.2757
G1 X105.33 Y89 E12.29663
G1 X114.451 Y89.001 E12.59999
G1 X115.149 Y89.011 E12.62321
G1 F2700 E7.62321
;MESH:E-1.stl
G0 F6000 X114.586 Y99.335
G0 X114.586 Y100.414
G0 X114.564 Y102.559
G0 X108.572 Y102.572
G0 X108.572 Y111.428
G0 X114.477 Y111.44
G0 X114.457 Y113.558
G0 X108.572 Y113.572
G0 X108.572 Y117.428
G0 X114.419 Y117.439
G0 X114.4 Y119.4
;TYPE:WALL-INNER
G1 F2700 E12.62321
G1 F1200 X105.6 Y119.4 E12.9159
G1 X105.6 Y100.6 E13.54119
G1 X114.4 Y100.6 E13.83388
G1 X114.4 Y102.4 E13.89375
G1 X108.4 Y102.4 E14.09331
G1 X108.4 Y111.6 E14.3993
G1 X114.4 Y111.6 E14.59886
G1 X114.4 Y113.4 E14.65873
G1 X108.4 Y113.4 E14.85829
G1 X108.4 Y117.6 E14.99799
G1 X114.4 Y117.6 E15.19755
G1 X114.4 Y119.4 E15.25741
G0 F6000 X114.8 Y119.8
;TYPE:WALL-OUTER
G1 F1200 X105.2 Y119.8 E15.57671
G1 X105.2 Y100.2 E16.22861
G1 X114.8 Y100.2 E16.54791
G1 X114.8 Y102.8 E16.63438
G1 X108.8 Y102.8 E16.83395
G1 X108.8 Y111.2 E17.11333
G1 X114.8 Y111.2 E17.31289
G1 X114.8 Y113.8 E17.39937
G1 X108.8 Y113.8 E17.59893
G1 X108.8 Y117.2 E17.71201
G1 X114.8 Y117.2 E17.91157
G1 X114.8 Y119.8 E17.99805
G0 F6000 X114.53 Y119.53
G0 X114.29 Y119.01
G0 X114.01 Y119.01
;TYPE:SKIN
G1 F1200 X105.99 Y119.01 E18.2648
G1 X105.99 Y100.99 E18.86414
G1 X114.01 Y100.99 E19.13089
G1 X114.01 Y102.01 E19.16482
G1 X108.01 Y102.01 E19.36438
G1 X108.01 Y111.99 E19.69631
G1 X114.01 Y111.99 E19.89587
G1 X114.01 Y113.01 E19.9298
G1 X108.01 Y113.01 E20.12936
G1 X108.01 Y117.99 E20.29499
G1 X114.01 Y117.99 E20.49456
G1 X114.01 Y119.01 E20.52848
G0 F6000 X114.29 Y119.01
G0 X114.226 Y119.197
G0 X106.404 Y119.29
G0 X106.404 Y118.849
G1 F1200 X106.149 Y118.594 E20.54048
G0 F6000 X106.149 Y118.028
G1 F1200 X106.969 Y118.849 E20.57907
G0 F6000 X107.535 Y118.849
G1 F1200 X106.149 Y117.463 E20.64426
G0 F6000 X106.149 Y116.897
G1 F1200 X108.101 Y118.849 E20.73608
G0 F6000 X108.666 Y118.849
G1 F1200 X107.967 Y118.149 E20.76898
G0 F6000 X107.85 Y118.032
G1 F1200 X106.149 Y116.331 E20.84899
G0 F6000 X106.149 Y115.766
G1 F1200 X107.85 Y117.466 E20.92898
G0 F6000 X107.85 Y116.901
G1 F1200 X106.149 Y115.2 E21.00899
G0 F6000 X106.149 Y114.634
G1 F1200 X107.85 Y116.335 E21.089
G0 F6000 X107.85 Y115.769
G1 F1200 X106.149 Y114.069 E21.16898
G0 F6000 X106.149 Y113.503
G1 F1200 X107.85 Y115.203 E21.24897
G0 F6000 X107.85 Y114.638
G1 F1200 X106.149 Y112.937 E21.32898
G0 F6000 X106.149 Y112.371
G1 F1200 X107.85 Y114.072 E21.40899
G0 F6000 X107.85 Y113.506
G1 F1200 X106.149 Y111.806 E21.48898
G0 F6000 X106.149 Y111.24
G1 F1200 X107.85 Y112.941 E21.56899
G0 F6000 X108.323 Y112.849
G1 F1200 X106.149 Y110.674 E21.67127
G0 F6000 X106.149 Y110.109
G1 F1200 X107.85 Y111.809 E21.75125
G0 F6000 X108.19 Y112.149
G1 F1200 X108.889 Y112.849 E21.78416
G0 F6000 X109.455 Y112.849
G1 F1200 X108.755 Y112.149 E21.81708
G0 F6000 X109.321 Y112.149
G1 F1200 X110.02 Y112.849 E21.84998
G0 F6000 X110.586 Y112.849
G1 F1200 X109.887 Y112.149 E21.88289
G0 F6000 X110.452 Y112.149
G1 F1200 X111.152 Y112.849 E21.91581
G0 F6000 X111.717 Y112.849
G1 F1200 X111.018 Y112.149 E21.94871
G0 F6000 X111.584 Y112.149
G1 F1200 X112.283 Y112.849 E21.98162
G0 F6000 X112.849 Y112.849
G1 F1200 X112.149 Y112.149 E22.01454
G0 F6000 X112.715 Y112.149
G1 F1200 X113.414 Y112.849 E22.04744
G0 F6000 X113.849 Y112.718
G1 F1200 X113.281 Y112.149 E22.07419
G0 F6000 X113.281 Y111.71
G0 X108.572 Y111.428
G0 X108.29 Y111.244
G0 X107.85 Y111.244
G1 F1200 X106.149 Y109.543 E22.1542
G0 F6000 X106.149 Y108.977
G1 F1200 X107.85 Y110.678 E22.23421
G0 F6000 X107.85 Y110.112
G1 F1200 X106.149 Y108.412 E22.31419
G0 F6000 X106.149 Y107.846
G1 F1200 X107.85 Y109.547 E22.3942
G0 F6000 X107.85 Y108.981
G1 F1200 X106.149 Y107.28 E22.47421
G0 F6000 X106.149 Y106.715
G1 F1200 X107.85 Y108.415 E22.5542
G0 F6000 X107.85 Y107.85
G1 F1200 X106.149 Y106.149 E22.63421
G0 F6000 X106.149 Y105.583
G1 F1200 X107.85 Y107.284 E22.71422
G0 F6000 X107.85 Y106.718
G1 F1200 X106.149 Y105.018 E22.7942
G0 F6000 X106.149 Y104.452
G1 F1200 X107.85 Y106.152 E22.87419
G0 F6000 X107.85 Y105.587
G1 F1200 X106.149 Y103.886 E22.9542
G0 F6000 X106.149 Y103.321
G1 F1200 X107.85 Y105.021 E23.03419
G0 F6000 X107.85 Y104.455
G1 F1200 X106.149 Y102.755 E23.11417
G0 F6000 X106.149 Y102.189
G1 F1200 X107.85 Y103.89 E23.19418
G0 F6000 X107.85 Y103.324
G1 F1200 X106.149 Y101.623 E23.27419
G0 F6000 X106.241 Y101.15
G1 F1200 X107.85 Y102.758 E23.34985
G0 F6000 X107.85 Y102.193
G1 F1200 X106.807 Y101.15 E23.39891
G0 F6000 X107.372 Y101.15
G1 F1200 X108.072 Y101.849 E23.43181
G0 F6000 X108.637 Y101.849
G1 F1200 X107.938 Y101.15 E23.46469
G0 F6000 X108.504 Y101.15
G1 F1200 X109.203 Y101.849 E23.49757
G0 F6000 X109.769 Y101.849
G1 F1200 X109.069 Y101.15 E23.53047
G0 F6000 X109.635 Y101.15
G1 F1200 X110.334 Y101.849 E23.56335
G0 F6000 X110.9 Y101.849
G1 F1200 X110.201 Y101.15 E23.59623
G0 F6000 X110.766 Y101.15
G1 F1200 X111.466 Y101.849 E23.62913
G0 F6000 X112.031 Y101.849
G1 F1200 X111.332 Y101.15 E23.66201
G0 F6000 X111.898 Y101.15
G1 F1200 X112.597 Y101.849 E23.69489
G0 F6000 X113.163 Y101.849
G1 F1200 X112.463 Y101.15 E23.72779
G0 F6000 X113.029 Y101.15
G1 F1200 X113.728 Y101.849 E23.76067
G0 F6000 X113.849 Y101.404
G1 F1200 X113.595 Y101.15 E23.77262
G1 F2700 E18.77262
G0 F6000 X113.595 Y100.71
G0 X114.218 Y100.782
G0 X114.218 Y102.218
G0 X108.572 Y102.572
G0 X108.572 Y111.428
G0 X114.218 Y111.782
G0 X114.218 Y113.218
G0 X108.572 Y113.572
G0 X108.572 Y117.428
G0 X113.624 Y117.71
G0 X113.624 Y118.149
G1 F2700 E23.77262
G1 F1200 X113.849 Y118.375 E23.78323
G0 F6000 X113.757 Y118.849
G1 F1200 X113.058 Y118.149 E23.81613
G0 F6000 X112.492 Y118.149
G1 F1200 X113.192 Y118.849 E23.84905
G0 F6000 X112.626 Y118.849
G1 F1200 X111.927 Y118.149 E23.88196
G0 F6000 X111.361 Y118.149
G1 F1200 X112.06 Y118.849 E23.91486
G0 F6000 X111.495 Y118.849
G1 F1200 X110.795 Y118.149 E23.94778
G0 F6000 X110.23 Y118.149
G1 F1200 X110.929 Y118.849 E23.98069
G0 F6000 X110.363 Y118.849
G1 F1200 X109.664 Y118.149 E24.01359
G0 F6000 X109.098 Y118.149
G1 F1200 X109.798 Y118.849 E24.04651
G0 F6000 X109.232 Y118.849
G1 F1200 X108.533 Y118.149 E24.07942
G0 F6000 X108.318 Y117.682
;MESH:NONMESH
G0 F300 X108.318 Y117.682 Z0.4
G0 F6000 X114.218 Y117.782
G0 X114.4 Y119.4
;TIME_ELAPSED:50.649239
;LAYER:1
M140 S55
M106 S85
;TYPE:WALL-INNER
;MESH:E-1.stl
G1 F1800 X105.6 Y119.4 E24.37211
G1 X105.6 Y100.6 E24.9974
G1 X114.4 Y100.6 E25.29009
G1 X114.4 Y102.4 E25.34995
G1 X108.4 Y102.4 E25.54952
G1 X108.4 Y111.6 E25.85551
G1 X114.4 Y111.6 E26.05507
G1 X114.4 Y113.4 E26.11494
G1 X108.4 Y113.4 E26.3145
G1 X108.4 Y117.6 E26.45419
G1 X114.4 Y117.6 E26.65375
G1 X114.4 Y119.4 E26.71362
G0 F9000 X114.8 Y119.8
;TYPE:WALL-OUTER
G1 F1800 X105.2 Y119.8 E27.03292
G1 X105.2 Y100.2 E27.68482
G1 X114.8 Y100.2 E28.00411
G1 X114.8 Y102.8 E28.09059
G1 X108.8 Y102.8 E28.29015
G1 X108.8 Y111.2 E28.56954
G1 X114.8 Y111.2 E28.7691
G1 X114.8 Y113.8 E28.85557
G1 X108.8 Y113.8 E29.05513
G1 X108.8 Y117.2 E29.16822
G1 X114.8 Y117.2 E29.36778
G1 X114.8 Y119.8 E29.45425
G0 F9000 X114.53 Y119.53
G0 X114.29 Y119.01
G0 X114.01 Y119.01
;TYPE:SKIN
G1 F1800 X105.99 Y119.01 E29.721
G1 X105.99 Y100.99 E30.32035
G1 X114.01 Y100.99 E30.5871
G1 X114.01 Y102.01 E30.62102
