;FLAVOR:Marlin
;TIME:2150
;Filament used: 1.77636m
;Layer height: 0.2
;MINX:85.158
;MINY:87
;MINZ:0.2
;MAXX:134.835
;MAXY:133
;MAXZ:20
;Generated with Cura_SteamEngine 4.6.1
M140 S55
M105
M190 S55
M104 S205
M105
M109 S205
M82 ;absolute extrusion mode
M201 X500.00 Y500.00 Z100.00 E5000.00 ;Setup machine max acceleration
M203 X500.00 Y500.00 Z10.00 E50.00 ;Setup machine max feedrate
M204 P500.00 R1000.00 T500.00 ;Setup Print/Retract/Travel acceleration
M205 X8.00 Y8.00 Z0.40 E5.00 ;Setup Jerk
M220 S100 ;Reset Feedrate
M221 S100 ;Reset Flowrate

G28 ;Home

G92 E0 ;Reset Extruder
G1 Z2.0 F3000 ;Move Z Axis up
G1 X10.1 Y20 Z0.28 F5000.0 ;Move to start position
G1 X10.1 Y200.0 Z0.28 F1500.0 E15 ;Draw the first line
G1 X10.4 Y200.0 Z0.28 F5000.0 ;Move to side a little
G1 X10.4 Y20 Z0.28 F1500.0 E30 ;Draw the second line
G92 E0 ;Reset Extruder
G1 Z2.0 F3000 ;Move Z Axis up

G92 E0
G92 E0
G1 F2700 E-5
;LAYER_COUNT:100
;LAYER:0
M107
G0 F6000 X117.067 Y87.811 Z0.2
;TYPE:SKIRT
G1 F2700 E0
G1 F1200 X117.969 Y87.864 E0.03005
G1 X118.862 Y87.996 E0.06008
G1 X119.741 Y88.207 E0.09014
G1 X120.597 Y88.495 E0.12018
G1 X121.424 Y88.857 E0.15021
G1 X122.216 Y89.291 E0.18025
G1 X122.966 Y89.794 E0.21028
G1 X123.669 Y90.361 E0.24032
G1 X124.319 Y90.987 E0.27033
G1 X124.912 Y91.669 E0.30039
G1 X125.441 Y92.401 E0.33043
G1 X125.683 Y92.786 E0.34556
G1 X126.111 Y93.507 E0.37344
G1 X132.429 Y104.451 E0.79375
G1 X132.743 Y105.014 E0.81519
G1 X133.148 Y105.821 E0.84522
G1 X133.479 Y106.661 E0.87525
G1 X133.735 Y107.527 E0.90528
G1 X133.914 Y108.413 E0.93535
G1 X134.013 Y109.31 E0.96536
G1 X134.032 Y110.213 E0.9954
G1 X133.972 Y111.114 E1.02544
G1 X133.832 Y112.006 E1.05547
G1 X133.614 Y112.883 E1.08552
G1 X133.319 Y113.736 E1.11554
G1 X132.849 Y114.756 E1.1529
G1 X132.501 Y115.413 E1.17763
G1 X132.321 Y115.739 E1.19001
G1 X126.073 Y126.56 E1.60561
G1 X125.69 Y127.204 E1.63053
G1 X125.194 Y127.959 E1.66057
G1 X124.634 Y128.667 E1.6906
G1 X124.013 Y129.323 E1.72064
G1 X123.337 Y129.921 E1.75066
G1 X122.61 Y130.458 E1.78072
G1 X121.839 Y130.927 E1.81074
G1 X121.029 Y131.327 E1.84078
G1 X120.187 Y131.654 E1.87083
G1 X119.319 Y131.905 E1.90088
G1 X118.433 Y132.078 E1.9309
G1 X117.535 Y132.172 E1.96093
G1 X117.071 Y132.189 E1.97638
G1 X116.236 Y132.2 E2.00415
G1 X103.957 Y132.199 E2.41255
G1 X103.256 Y132.189 E2.43587
G1 X102.354 Y132.136 E2.46592
G1 X101.461 Y132.004 E2.49595
G1 X100.582 Y131.793 E2.52601
G1 X99.726 Y131.505 E2.55605
G1 X98.899 Y131.143 E2.58608
G1 X98.107 Y130.709 E2.61612
G1 X97.357 Y130.206 E2.64615
G1 X96.654 Y129.639 E2.67619
G1 X96.004 Y129.013 E2.70621
G1 X95.411 Y128.331 E2.73626
G1 X94.724 Y127.352 E2.77604
G1 X93.368 Y125.157 E2.86186
G1 X91.947 Y122.995 E2.94791
G1 X91.716 Y122.653 E2.96163
G1 X91.408 Y122.167 E2.98077
G1 X90.833 Y121.201 E3.01816
G1 X87.605 Y115.607 E3.23297
G1 X87.256 Y114.983 E3.25675
G1 X86.85 Y114.176 E3.2868
G1 X86.518 Y113.336 E3.31684
G1 X86.261 Y112.471 E3.34685
G1 X86.081 Y111.585 E3.37692
G1 X85.981 Y110.688 E3.40694
G1 X85.96 Y109.785 E3.43699
G1 X86.02 Y108.884 E3.46702
G1 X86.158 Y107.992 E3.49704
G1 X86.376 Y107.115 E3.5271
G1 X86.67 Y106.261 E3.55714
G1 X87.038 Y105.436 E3.58718
G1 X87.261 Y105.016 E3.603
G1 X87.865 Y103.94 E3.64404
G1 X91.019 Y98.477 E3.85385
G1 X91.372 Y97.885 E3.87677
G1 X91.687 Y97.39 E3.89629
G1 X91.978 Y96.961 E3.91353
G1 X93.394 Y94.801 E3.99943
G1 X94.721 Y92.652 E4.08344
G1 X95.229 Y91.905 E4.11348
G1 X95.801 Y91.207 E4.1435
G1 X96.433 Y90.561 E4.17356
G1 X97.119 Y89.974 E4.20359
G1 X97.855 Y89.45 E4.23364
G1 X98.634 Y88.993 E4.26368
G1 X99.45 Y88.607 E4.2937
G1 X100.297 Y88.294 E4.32373
G1 X101.169 Y88.058 E4.35378
G1 X102.058 Y87.9 E4.38381
G1 X103.25 Y87.812 E4.42356
G1 X104.146 Y87.8 E4.45337
G1 X116.366 Y87.801 E4.85981
G1 X117.067 Y87.811 E4.88312
G0 F6000 X117.073 Y87.411
G1 F1200 X117.992 Y87.464 E4.91374
G1 X118.903 Y87.597 E4.94436
G1 X119.799 Y87.808 E4.97498
G1 X120.674 Y88.096 E5.00562
G1 X121.52 Y88.459 E5.03624
G1 X122.331 Y88.894 E5.06685
G1 X123.102 Y89.398 E5.09748
G1 X123.826 Y89.967 E5.12811
G1 X124.498 Y90.596 E5.15872
G1 X125.113 Y91.281 E5.18934
G1 X125.666 Y92.017 E5.21996
G1 X126.026 Y92.581 E5.24221
G1 X126.458 Y93.307 E5.27031
G1 X132.779 Y104.256 E5.69081
G1 X133.093 Y104.819 E5.71225
G1 X133.506 Y105.642 E5.74288
G1 X133.846 Y106.497 E5.77348
G1 X134.11 Y107.379 E5.8041
G1 X134.298 Y108.28 E5.83471
G1 X134.406 Y109.195 E5.86536
G1 X134.434 Y110.115 E5.89597
G1 X134.383 Y111.034 E5.92658
G1 X134.252 Y111.945 E5.9572
G1 X134.042 Y112.842 E5.98784
G1 X133.755 Y113.717 E6.01846
G1 X133.202 Y114.944 E6.06323
G1 X132.854 Y115.601 E6.08796
G1 X132.667 Y115.939 E6.1008
G1 X126.417 Y126.764 E6.51655
G1 X126.034 Y127.408 E6.54147
G1 X125.529 Y128.178 E6.57209
G1 X124.96 Y128.902 E6.60272
G1 X124.33 Y129.573 E6.63333
G1 X123.644 Y130.187 E6.66396
G1 X122.907 Y130.739 E6.69458
G1 X122.125 Y131.226 E6.72522
G1 X121.304 Y131.642 E6.75583
G1 X120.45 Y131.986 E6.78646
G1 X119.569 Y132.254 E6.81708
G1 X118.669 Y132.445 E6.84768
G1 X117.755 Y132.557 E6.87831
G1 X117.077 Y132.589 E6.90089
G1 X116.236 Y132.6 E6.92886
G1 X103.951 Y132.599 E7.33746
G1 X103.25 Y132.589 E7.36078
G1 X102.331 Y132.536 E7.3914
G1 X101.42 Y132.403 E7.42202
G1 X100.524 Y132.192 E7.45263
G1 X99.649 Y131.904 E7.48327
G1 X98.803 Y131.541 E7.51389
G1 X97.992 Y131.106 E7.5445
G1 X97.221 Y130.602 E7.57514
G1 X96.497 Y130.033 E7.60576
G1 X95.825 Y129.404 E7.63638
G1 X95.21 Y128.719 E7.667
G1 X94.657 Y127.983 E7.69762
G1 X94.384 Y127.562 E7.71431
G1 X93.053 Y125.407 E7.79855
G1 X91.385 Y122.877 E7.89934
G1 X91.064 Y122.372 E7.91924
G1 X90.487 Y121.401 E7.95681
G1 X87.256 Y115.802 E8.17182
G1 X86.907 Y115.178 E8.1956
G1 X86.493 Y114.356 E8.22621
G1 X86.151 Y113.501 E8.25684
G1 X85.886 Y112.619 E8.28747
G1 X85.698 Y111.718 E8.31808
G1 X85.588 Y110.804 E8.3487
G1 X85.559 Y109.884 E8.37931
G1 X85.609 Y108.965 E8.40992
G1 X85.739 Y108.053 E8.44056
G1 X85.948 Y107.156 E8.4712
G1 X86.233 Y106.281 E8.5018
G1 X86.594 Y105.434 E8.53243
G1 X86.912 Y104.82 E8.55543
G1 X87.518 Y103.74 E8.59662
G1 X90.676 Y98.272 E8.80663
G1 X91.029 Y97.68 E8.82956
G1 X91.356 Y97.166 E8.84982
G1 X91.624 Y96.771 E8.8657
G1 X93.069 Y94.567 E8.95335
G1 X94.381 Y92.442 E9.03642
G1 X94.898 Y91.68 E9.06704
G1 X95.479 Y90.967 E9.09763
G1 X96.121 Y90.306 E9.12828
G1 X96.817 Y89.703 E9.15891
G1 X97.562 Y89.163 E9.18951
G1 X98.352 Y88.69 E9.22014
G1 X99.18 Y88.287 E9.25077
G1 X100.04 Y87.958 E9.28139
G1 X100.925 Y87.704 E9.31202
G1 X101.828 Y87.528 E9.34262
G1 X102.744 Y87.431 E9.37325
G1 X103.244 Y87.412 E9.38989
G1 X104.146 Y87.4 E9.4199
G1 X116.372 Y87.401 E9.82654
G1 X117.073 Y87.411 E9.84985
G0 F6000 X117.079 Y87.011
G1 F1200 X118.015 Y87.064 E9.88104
G1 X118.944 Y87.197 E9.91225
G1 X119.857 Y87.409 E9.94342
G1 X120.75 Y87.697 E9.97463
G1 X121.614 Y88.061 E10.00581
G1 X122.445 Y88.497 E10.03703
G1 X123.235 Y89.002 E10.06821
G1 X123.979 Y89.572 E10.09938
G1 X124.672 Y90.204 E10.13058
G1 X125.309 Y90.893 E10.16179
G1 X125.885 Y91.633 E10.19298
G1 X126.37 Y92.376 E10.22249
G1 X126.804 Y93.107 E10.25077
G1 X133.128 Y104.061 E10.67145
G1 X133.442 Y104.624 E10.6929
G1 X133.863 Y105.462 E10.72409
G1 X134.212 Y106.332 E10.75526
G1 X134.485 Y107.23 E10.78648
G1 X134.681 Y108.147 E10.81767
G1 X134.798 Y109.077 E10.84885
G1 X134.835 Y110.015 E10.88007
G1 X134.792 Y110.952 E10.91127
G1 X134.67 Y111.881 E10.94243
G1 X134.469 Y112.797 E10.97362
G1 X134.19 Y113.693 E11.00483
G1 X133.836 Y114.562 E11.03604
G1 X133.556 Y115.131 E11.05714
G1 X133.208 Y115.788 E11.08186
G1 X133.014 Y116.139 E11.0952
G1 X126.76 Y126.969 E11.51115
G1 X126.377 Y127.613 E11.53608
G1 X125.864 Y128.398 E11.56727
G1 X125.286 Y129.136 E11.59844
G1 X124.647 Y129.822 E11.62963
G1 X123.951 Y130.452 E11.66085
G1 X123.205 Y131.02 E11.69204
G1 X122.413 Y131.522 E11.72322
G1 X121.581 Y131.955 E11.75442
G1 X120.715 Y132.316 E11.78562
G1 X119.822 Y132.601 E11.8168
G1 X118.907 Y132.81 E11.84802
G1 X117.979 Y132.939 E11.87918
G1 X117.083 Y132.989 E11.90903
G1 X116.236 Y133 E11.9372
G1 X103.945 Y132.999 E12.346
G1 X103.244 Y132.989 E12.36932
G1 X102.308 Y132.936 E12.4005
G1 X101.379 Y132.803 E12.43172
G1 X100.466 Y132.591 E12.46289
G1 X99.573 Y132.303 E12.4941
G1 X98.709 Y131.939 E12.52528
G1 X97.878 Y131.503 E12.55649
G1 X97.088 Y130.998 E12.58768
G1 X96.344 Y130.428 E12.61885
G1 X95.651 Y129.796 E12.65005
G1 X95.014 Y129.107 E12.68126
G1 X94.438 Y128.367 E12.71245
G1 X94.043 Y127.772 E12.7362
G1 X92.705 Y125.606 E12.82088
G1 X91.054 Y123.101 E12.92066
G1 X90.721 Y122.577 E12.94131
G1 X90.14 Y121.601 E12.97909
G1 X86.907 Y115.997 E13.19427
G1 X86.558 Y115.373 E13.21805
G1 X86.135 Y114.536 E13.24925
G1 X85.785 Y113.666 E13.28044
G1 X85.511 Y112.769 E13.31163
G1 X85.314 Y111.852 E13.34283
G1 X85.196 Y110.922 E13.37401
G1 X85.158 Y109.985 E13.4052
G1 X85.2 Y109.048 E13.43639
G1 X85.321 Y108.118 E13.46758
G1 X85.521 Y107.201 E13.4988
G1 X85.798 Y106.305 E13.52999
G1 X86.151 Y105.436 E13.56119
G1 X86.563 Y104.625 E13.59145
G1 X87.172 Y103.54 E13.63283
G1 X90.332 Y98.067 E13.84303
G1 X90.685 Y97.475 E13.86595
G1 X91.025 Y96.941 E13.88701
G1 X91.322 Y96.502 E13.90463
G1 X92.71 Y94.386 E13.9888
G1 X94.04 Y92.232 E14.073
G1 X94.567 Y91.456 E14.1042
G1 X95.157 Y90.727 E14.13539
G1 X95.808 Y90.051 E14.16661
G1 X96.513 Y89.433 E14.19779
G1 X97.269 Y88.878 E14.22898
G1 X98.069 Y88.389 E14.26017
G1 X98.908 Y87.97 E14.29136
G1 X99.78 Y87.624 E14.32256
G1 X100.678 Y87.353 E14.35376
G1 X101.596 Y87.16 E14.38496
G1 X102.527 Y87.046 E14.41616
G1 X103.238 Y87.012 E14.43983
G1 X104.146 Y87 E14.47003
G1 X116.378 Y87.001 E14.87687
G1 X117.079 Y87.011 E14.90019
G1 F2700 E9.90019
;MESH:mid-2.stl
G0 F6000 X116.688 Y97.335
G0 X116.688 Y98.417
G0 X105.456 Y99.19
G0 X110.824 Y110
G0 X105.125 Y121
;TYPE:WALL-INNER
G1 F2700 E14.90019
G1 F1200 X105.297 Y120.702 E14.91163
G1 X111.477 Y110 E15.32267
G1 X111.128 Y109.397 E15.34584
G1 X105.298 Y99.298 E15.73369
G1 X105.126 Y99 E15.74513
G1 X105.47 Y99 E15.75163
G1 X105.471 Y99 E15.75166
G1 X116.351 Y99 E16.11353
G1 X122.703 Y110 E16.53601
G1 X116.351 Y121 E16.95849
G1 X105.47 Y121 E17.32039
G1 X105.469 Y121 E17.32043
G1 X105.125 Y121 E17.32692
G0 F6000 X104.778 Y121.4
G1 F1200 X104.777 Y121.4 E17.32695
G1 X104.433 Y121.4 E17.3384
G1 X104.605 Y121.102 E17.34489
G1 X111.015 Y110 E17.77127
G1 X110.782 Y109.598 E17.78673
G1 X104.605 Y98.898 E18.19765
G1 X104.433 Y98.6 E18.2091
G1 X104.777 Y98.6 E18.21559
G1 X104.778 Y98.6 E18.21563
G1 X116.582 Y98.6 E18.60823
G1 X123.048 Y109.8 E19.03837
G1 X123.164 Y110 E19.04605
G1 X116.582 Y121.4 E19.48388
G1 X104.778 Y121.4 E19.87648
G0 F6000 X104.173 Y121.55
G0 X103.741 Y121.8
;TYPE:WALL-OUTER
G1 F1200 X110.553 Y110 E20.32966
G1 X110.436 Y109.798 E20.33742
G1 X103.741 Y98.2 E20.78283
G1 X116.813 Y98.2 E21.21761
G1 X123.625 Y110 E21.67078
G1 X116.813 Y121.8 E22.12395
G1 X103.741 Y121.8 E22.55873
G0 F6000 X104.173 Y121.55
G0 X105.801 Y120.89
G0 X105.801 Y120.61
;TYPE:SKIN
G1 F1200 X111.927 Y110 E22.96621
G1 X111.465 Y109.202 E22.99688
G1 X105.801 Y99.39 E23.3737
G1 X116.126 Y99.39 E23.71711
G1 X122.252 Y110 E24.1246
G1 X116.126 Y120.61 E24.53209
G1 X105.801 Y120.61 E24.8755
G0 F6000 X106.161 Y120.303
G1 F1200 X106.307 Y120.449 E24.88237
G0 F6000 X106.368 Y119.945
G1 F1200 X106.872 Y120.449 E24.90607
G0 F6000 X107.438 Y120.449
G1 F1200 X106.575 Y119.586 E24.94667
G0 F6000 X106.783 Y119.228
G1 F1200 X108.004 Y120.449 E25.0041
G0 F6000 X108.569 Y120.449
G1 F1200 X106.989 Y118.868 E25.07844
G0 F6000 X107.196 Y118.51
G1 F1200 X109.135 Y120.449 E25.16964
G0 F6000 X109.701 Y120.449
G1 F1200 X107.403 Y118.151 E25.27774
G0 F6000 X107.611 Y117.793
G1 F1200 X110.266 Y120.449 E25.40264
G0 F6000 X110.832 Y120.449
G1 F1200 X107.818 Y117.434 E25.54444
G0 F6000 X108.024 Y117.075
G1 F1200 X111.398 Y120.449 E25.70314
G0 F6000 X111.963 Y120.449
G1 F1200 X108.231 Y116.717 E25.87868
G0 F6000 X108.439 Y116.358
G1 F1200 X112.529 Y120.449 E26.07108
G0 F6000 X113.095 Y120.449
G1 F1200 X108.646 Y116 E26.28035
G0 F6000 X108.853 Y115.641
G1 F1200 X113.661 Y120.449 E26.5065
G0 F6000 X114.226 Y120.449
G1 F1200 X109.059 Y115.282 E26.74954
G0 F6000 X109.267 Y114.923
G1 F1200 X114.792 Y120.449 E27.00945
G0 F6000 X115.358 Y120.449
G1 F1200 X109.474 Y114.565 E27.28621
G0 F6000 X109.681 Y114.206
G1 F1200 X115.923 Y120.449 E27.57984
G0 F6000 X116.2 Y120.16
G1 F1200 X109.888 Y113.848 E27.87674
G0 F6000 X110.095 Y113.489
G1 F1200 X116.408 Y119.802 E28.17368
G0 F6000 X116.615 Y119.443
G1 F1200 X110.302 Y113.13 E28.47063
G0 F6000 X110.509 Y112.772
G1 F1200 X116.822 Y119.085 E28.76757
G0 F6000 X117.029 Y118.726
G1 F1200 X110.716 Y112.413 E29.06451
G0 F6000 X110.923 Y112.055
G1 F1200 X117.236 Y118.367 E29.36144
G0 F6000 X117.443 Y118.009
G1 F1200 X111.131 Y111.696 E29.65836
G0 F6000 X111.337 Y111.337
G1 F1200 X117.65 Y117.65 E29.9553
G0 F6000 X117.857 Y117.292
G1 F1200 X111.544 Y110.978 E30.25227
G0 F6000 X111.751 Y110.62
G1 F1200 X118.064 Y116.932 E30.54919
G0 F6000 X118.271 Y116.574
G1 F1200 X111.959 Y110.261 E30.84611
G0 F6000 X111.901 Y109.638
G1 F1200 X118.478 Y116.215 E31.15547
G0 F6000 X118.685 Y115.857
G1 F1200 X111.127 Y108.299 E31.51098
G0 F6000 X110.748 Y108.516
G0 X109.975 Y107.177
G0 X110.354 Y106.96
G1 F1200 X118.892 Y115.498 E31.91258
G0 F6000 X119.1 Y115.14
G1 F1200 X109.581 Y105.621 E32.36032
G0 F6000 X109.202 Y105.838
G0 X108.43 Y104.501
G0 X108.809 Y104.284
G1 F1200 X119.306 Y114.781 E32.85407
G0 F6000 X119.513 Y114.422
G1 F1200 X108.036 Y102.945 E33.39391
G0 F6000 X107.657 Y103.162
G0 X106.885 Y101.824
G0 X107.264 Y101.607
G1 F1200 X119.72 Y114.064 E33.97983
G0 F6000 X119.928 Y113.705
G1 F1200 X106.491 Y100.269 E34.61184
G0 F6000 X106.338 Y99.55
G1 F1200 X120.135 Y113.347 E35.26081
G0 F6000 X120.341 Y112.987
G1 F1200 X106.903 Y99.55 E35.89287
G0 F6000 X107.469 Y99.55
G1 F1200 X120.548 Y112.629 E36.50806
G0 F6000 X120.756 Y112.27
G1 F1200 X108.035 Y99.55 E37.1064
G0 F6000 X108.6 Y99.55
G1 F1200 X120.963 Y111.912 E37.68789
G0 F6000 X121.17 Y111.553
G1 F1200 X109.166 Y99.55 E38.2525
G0 F6000 X109.732 Y99.55
G1 F1200 X121.377 Y111.194 E38.80022
G0 F6000 X121.584 Y110.836
G1 F1200 X110.298 Y99.55 E39.33108
G0 F6000 X110.863 Y99.55
G1 F1200 X121.791 Y110.477 E39.84507
G0 F6000 X121.998 Y110.119
G1 F1200 X111.429 Y99.55 E40.34221
G0 F6000 X111.995 Y99.55
G1 F1200 X121.548 Y109.103 E40.79155
G0 F6000 X121.93 Y108.883
G0 X121.157 Y107.545
G0 X120.775 Y107.765
G1 F1200 X112.56 Y99.55 E41.17796
G0 F6000 X113.126 Y99.55
G1 F1200 X120.003 Y106.426 E41.50141
G0 F6000 X120.385 Y106.206
G0 X119.612 Y104.868
G0 X119.23 Y105.088
G1 F1200 X113.692 Y99.55 E41.7619
G0 F6000 X114.257 Y99.55
G1 F1200 X118.458 Y103.75 E41.95948
G0 F6000 X118.839 Y103.53
G0 X118.066 Y102.191
G0 X117.685 Y102.411
G1 F1200 X114.823 Y99.55 E42.09407
G0 F6000 X115.389 Y99.55
G1 F1200 X116.912 Y101.073 E42.16571
G0 F6000 X117.294 Y100.853
G0 X116.521 Y99.514
G0 X116.139 Y99.734
G1 F1200 X115.954 Y99.55 E42.17439
G0 F6000 X115.954 Y99.11
G0 X105.707 Y99.11
G0 X105.707 Y99.202
;TYPE:SKIN
G1 F1200 X105.665 Y99.159 E42.17539
G0 F6000 X105.603 Y99.381
G1 F1200 X105.428 Y99.205 E42.17952
G0 F6000 X105.404 Y99.16
G0 X110.824 Y110
G0 X105.421 Y120.71
G0 X105.461 Y120.734
G1 F1200 X105.565 Y120.838 E42.18196
G0 F6000 X104.947 Y121.069
G1 F1200 X104.792 Y121.197 E42.1841
G1 X104.073 Y121.61 E42.19291
G0 F6000 X104.173 Y121.55
G0 X110.824 Y110
G0 X104.94 Y99
G0 X104.852 Y98.912
G1 F1200 X105.02 Y98.798 E42.19475
G1 X104.334 Y98.394 E42.20194
G1 X104.153 Y98.497 E42.20382
G0 F6000 X104.606 Y98.501
G1 F2700 E37.20382
G0 F6000 X110.246 Y109.068
G0 X109.325 Y109.6
G0 X104.572 Y109.458
G0 X103.636 Y110
G0 X100.13 Y114.907
;TYPE:WALL-INNER
G1 F2700 E42.20382
G1 F1200 X99.958 Y114.609 E42.21526
G1 X97.297 Y110.001 E42.39224
G1 X99.958 Y105.392 E42.56925
G1 X100.13 Y105.094 E42.5807
G1 X100.302 Y105.392 E42.58718
G1 X102.963 Y110 E42.76417
G1 X100.302 Y114.609 E42.94118
G1 X100.13 Y114.907 E42.94766
G0 F6000 X99.785 Y115.107
G1 F1200 X96.952 Y110.201 E43.13609
G1 X96.836 Y110.001 E43.14378
G1 X99.958 Y104.593 E43.35147
G1 X100.13 Y104.295 E43.36292
G1 X100.302 Y104.593 E43.3694
