;FLAVOR:Marlin
;TIME:4772
;Filament used: 3.76806m
;Layer height: 0.2
;MINX:59.012
;MINY:22.746
;MINZ:0.2
;MAXX:160.982
;MAXY:197.255
;MAXZ:4
;Generated with Cura_SteamEngine 4.6.1
M140 S70
M105
M190 S70
M104 S215
M105
M109 S215
M82 ;absolute extrusion mode
M201 X500.00 Y500.00 Z100.00 E5000.00 ;Setup machine max acceleration
M203 X500.00 Y500.00 Z10.00 E50.00 ;Setup machine max feedrate
M204 P500.00 R1000.00 T500.00 ;Setup Print/Retract/Travel acceleration
M205 X8.00 Y8.00 Z0.40 E5.00 ;Setup Jerk
M220 S100 ;Reset Feedrate
M221 S100 ;Reset Flowrate

G28 ;Home

G92 E0 ;Reset Extruder
G1 Z2.0 F3000 ;Move Z Axis up
G1 X10.1 Y20 Z0.28 F5000.0 ;Move to start position
G1 X10.1 Y200.0 Z0.28 F1500.0 E15 ;Draw the first line
G1 X10.4 Y200.0 Z0.28 F5000.0 ;Move to side a little
G1 X10.4 Y20 Z0.28 F1500.0 E30 ;Draw the second line
G92 E0 ;Reset Extruder
G1 Z2.0 F3000 ;Move Z Axis up

G92 E0
G92 E0
G1 F2700 E-5
;LAYER_COUNT:20
;LAYER:0
M107
G0 F6000 X150.132 Y23.557 Z0.2
;TYPE:SKIRT
G1 F2700 E0
G1 F1200 X151.033 Y23.61 E0.03002
G1 X151.926 Y23.743 E0.06005
G1 X152.805 Y23.954 E0.09011
G1 X153.661 Y24.242 E0.12015
G1 X154.488 Y24.604 E0.15018
G1 X155.28 Y25.038 E0.18022
G1 X156.03 Y25.541 E0.21025
G1 X156.733 Y26.108 E0.24029
G1 X157.383 Y26.735 E0.27033
G1 X157.975 Y27.417 E0.30037
G1 X158.504 Y28.149 E0.33041
G1 X158.967 Y28.924 E0.36043
G1 X159.359 Y29.738 E0.39048
G1 X159.678 Y30.583 E0.42052
G1 X159.921 Y31.453 E0.45057
G1 X160.085 Y32.34 E0.48057
G1 X160.171 Y33.24 E0.51064
G1 X160.177 Y34.143 E0.54067
G1 X160.036 Y35.485 E0.58555
G1 X159.874 Y36.418 E0.61705
G1 X150.83 Y83.975 E2.22715
G1 X142.536 Y127.599 E3.70408
G1 X131.122 Y187.622 E5.73623
G1 X130.992 Y188.259 E5.75785
G1 X130.772 Y189.135 E5.78789
G1 X130.476 Y189.988 E5.81792
G1 X130.106 Y190.811 E5.84794
G1 X129.664 Y191.599 E5.87799
G1 X129.154 Y192.344 E5.90802
G1 X128.58 Y193.042 E5.93807
G1 X127.947 Y193.686 E5.96811
G1 X127.259 Y194.271 E5.99814
G1 X126.523 Y194.793 E6.02815
G1 X125.742 Y195.248 E6.05822
G1 X124.691 Y195.727 E6.09663
G1 X123.838 Y196.023 E6.12666
G1 X122.961 Y196.243 E6.15674
G1 X122.069 Y196.384 E6.18677
G1 X121.052 Y196.447 E6.22066
G1 X120.363 Y196.455 E6.24358
G1 X99.561 Y196.454 E6.93546
G1 X98.863 Y196.444 E6.95868
G1 X97.961 Y196.391 E6.98873
G1 X97.068 Y196.259 E7.01875
G1 X96.19 Y196.048 E7.04879
G1 X95.334 Y195.76 E7.07883
G1 X94.507 Y195.398 E7.10885
G1 X93.715 Y194.963 E7.13891
G1 X92.964 Y194.461 E7.16895
G1 X92.261 Y193.894 E7.19899
G1 X91.611 Y193.267 E7.22903
G1 X91.019 Y192.585 E7.25906
G1 X90.489 Y191.854 E7.2891
G1 X90.027 Y191.078 E7.31913
G1 X89.634 Y190.265 E7.34917
G1 X89.316 Y189.42 E7.3792
G1 X89.019 Y188.303 E7.41764
G1 X88.859 Y187.519 E7.44425
G1 X71.147 Y94.365 E10.59808
G1 X70.781 Y92.449 E10.66295
G1 X60.07 Y36.12 E12.57003
G1 X59.965 Y35.521 E12.59026
G1 X59.849 Y34.626 E12.62028
G1 X59.812 Y33.723 E12.65034
G1 X59.855 Y32.821 E12.68037
G1 X59.978 Y31.926 E12.71042
G1 X60.18 Y31.046 E12.74045
G1 X60.458 Y30.187 E12.77048
G1 X60.812 Y29.356 E12.80052
G1 X61.237 Y28.559 E12.83056
G1 X61.732 Y27.804 E12.86059
G1 X62.291 Y27.095 E12.89062
G1 X62.911 Y26.438 E12.92066
G1 X63.586 Y25.838 E12.9507
G1 X64.312 Y25.301 E12.98074
G1 X65.083 Y24.83 E13.01079
G1 X65.892 Y24.429 E13.04082
G1 X66.734 Y24.101 E13.07087
G1 X67.601 Y23.849 E13.1009
G1 X68.487 Y23.675 E13.13093
G1 X69.385 Y23.579 E13.16097
G1 X69.841 Y23.561 E13.17615
G1 X70.845 Y23.546 E13.20955
G1 X149.293 Y23.546 E15.81874
G1 X149.441 Y23.547 E15.82366
G1 X150.132 Y23.557 E15.84665
G0 F6000 X150.137 Y23.157
G1 F1200 X151.056 Y23.21 E15.87726
G1 X151.968 Y23.343 E15.90792
G1 X152.864 Y23.555 E15.93854
G1 X153.738 Y23.843 E15.96915
G1 X154.584 Y24.206 E15.99977
G1 X155.395 Y24.641 E16.03038
G1 X156.166 Y25.145 E16.06101
G1 X156.89 Y25.714 E16.09164
G1 X157.561 Y26.344 E16.12225
G1 X158.176 Y27.029 E16.15287
G1 X158.729 Y27.765 E16.18349
G1 X159.216 Y28.547 E16.21413
G1 X159.633 Y29.367 E16.24473
G1 X159.977 Y30.221 E16.27535
G1 X160.246 Y31.102 E16.30599
G1 X160.438 Y32.002 E16.3366
G1 X160.551 Y32.916 E16.36723
G1 X160.584 Y33.836 E16.39785
G1 X160.537 Y34.755 E16.42845
G1 X160.431 Y35.552 E16.45519
G1 X160.267 Y36.492 E16.48693
G1 X151.223 Y84.049 E18.09703
G1 X142.929 Y127.673 E19.57396
G1 X131.514 Y187.702 E21.60631
G1 X131.384 Y188.339 E21.62794
G1 X131.161 Y189.232 E21.65855
G1 X130.861 Y190.102 E21.68916
G1 X130.487 Y190.943 E21.71977
G1 X130.041 Y191.749 E21.75041
G1 X129.527 Y192.513 E21.78104
G1 X128.949 Y193.229 E21.81164
G1 X128.311 Y193.893 E21.84227
G1 X127.617 Y194.498 E21.87289
G1 X126.874 Y195.041 E21.9035
G1 X126.086 Y195.518 E21.93414
G1 X124.838 Y196.099 E21.97992
G1 X123.969 Y196.402 E22.01053
G1 X123.076 Y196.627 E22.04116
G1 X122.168 Y196.775 E22.07176
G1 X121.057 Y196.847 E22.10879
G1 X120.363 Y196.855 E22.13187
G1 X99.555 Y196.854 E22.82395
G1 X98.857 Y196.844 E22.84717
G1 X97.938 Y196.791 E22.87778
G1 X97.027 Y196.658 E22.90841
G1 X96.131 Y196.447 E22.93902
G1 X95.257 Y196.159 E22.96963
G1 X94.41 Y195.796 E23.00028
G1 X93.599 Y195.361 E23.03089
G1 X92.829 Y194.857 E23.0615
G1 X92.105 Y194.288 E23.09212
G1 X91.433 Y193.658 E23.12276
G1 X90.818 Y192.973 E23.15338
G1 X90.265 Y192.237 E23.184
G1 X89.778 Y191.456 E23.21461
G1 X89.361 Y190.635 E23.24524
G1 X89.016 Y189.781 E23.27587
G1 X88.747 Y188.901 E23.30648
G1 X88.627 Y188.384 E23.32413
G1 X88.466 Y187.594 E23.35095
G1 X70.754 Y94.44 E26.50477
G1 X70.388 Y92.524 E26.56965
G1 X59.676 Y36.189 E28.47693
G1 X59.571 Y35.59 E28.49716
G1 X59.452 Y34.677 E28.52778
G1 X59.412 Y33.758 E28.55837
G1 X59.452 Y32.838 E28.589
G1 X59.572 Y31.925 E28.61963
G1 X59.771 Y31.026 E28.65026
G1 X60.047 Y30.148 E28.68087
G1 X60.398 Y29.297 E28.71148
G1 X60.821 Y28.479 E28.74211
G1 X61.314 Y27.701 E28.77275
G1 X61.873 Y26.97 E28.80335
G1 X62.492 Y26.289 E28.83396
G1 X63.169 Y25.665 E28.86459
G1 X63.897 Y25.101 E28.89522
G1 X64.672 Y24.603 E28.92586
G1 X65.486 Y24.175 E28.95644
G1 X66.335 Y23.818 E28.98708
G1 X67.212 Y23.537 E29.01771
G1 X68.109 Y23.332 E29.04831
G1 X69.021 Y23.206 E29.07893
G1 X69.834 Y23.161 E29.10601
G1 X70.845 Y23.146 E29.13964
G1 X149.293 Y23.146 E31.74883
G1 X149.446 Y23.147 E31.75392
G1 X150.137 Y23.157 E31.77691
G0 F6000 X150.143 Y22.757
G1 F1200 X151.08 Y22.811 E31.80812
G1 X152.008 Y22.944 E31.83931
G1 X152.922 Y23.155 E31.8705
G1 X153.814 Y23.444 E31.90169
G1 X154.678 Y23.808 E31.93287
G1 X155.509 Y24.244 E31.96409
G1 X156.299 Y24.749 E31.99527
G1 X157.043 Y25.32 E32.02646
G1 X157.736 Y25.952 E32.05766
G1 X158.373 Y26.641 E32.08887
G1 X158.948 Y27.381 E32.12004
G1 X159.459 Y28.168 E32.15125
G1 X159.9 Y28.995 E32.18242
G1 X160.27 Y29.857 E32.21362
G1 X160.565 Y30.748 E32.24484
G1 X160.782 Y31.66 E32.27602
G1 X160.922 Y32.587 E32.3072
G1 X160.982 Y33.523 E32.33839
G1 X160.961 Y34.461 E32.3696
G1 X160.825 Y35.62 E32.40841
G1 X160.66 Y36.567 E32.44038
G1 X151.616 Y84.124 E34.05049
G1 X143.322 Y127.748 E35.52742
G1 X131.906 Y187.782 E37.55994
G1 X131.776 Y188.419 E37.58156
G1 X131.549 Y189.329 E37.61275
G1 X131.246 Y190.216 E37.64393
G1 X130.868 Y191.075 E37.67514
G1 X130.419 Y191.898 E37.70633
G1 X129.901 Y192.68 E37.73752
G1 X129.318 Y193.414 E37.7687
G1 X128.675 Y194.097 E37.7999
G1 X127.976 Y194.722 E37.83109
G1 X127.226 Y195.286 E37.8623
G1 X126.431 Y195.783 E37.89348
G1 X125.597 Y196.212 E37.92468
G1 X124.986 Y196.471 E37.94675
G1 X124.101 Y196.78 E37.97793
G1 X123.192 Y197.012 E38.00913
G1 X122.267 Y197.166 E38.04032
G1 X121.062 Y197.247 E38.08049
G1 X120.363 Y197.255 E38.10374
G1 X99.549 Y197.254 E38.79601
G1 X98.851 Y197.244 E38.81923
G1 X97.915 Y197.19 E38.85041
G1 X96.987 Y197.058 E38.88159
G1 X96.073 Y196.846 E38.9128
G1 X95.181 Y196.557 E38.94398
G1 X94.316 Y196.194 E38.97518
G1 X93.486 Y195.758 E39.00637
G1 X92.695 Y195.253 E39.03758
G1 X91.951 Y194.682 E39.06877
G1 X91.258 Y194.05 E39.09997
G1 X90.621 Y193.362 E39.13115
G1 X90.046 Y192.621 E39.16235
G1 X89.535 Y191.835 E39.19353
G1 X89.093 Y191.007 E39.22475
G1 X88.724 Y190.145 E39.25594
G1 X88.429 Y189.255 E39.28712
G1 X88.235 Y188.465 E39.31418
G1 X88.073 Y187.669 E39.34119
G1 X70.361 Y94.514 E42.49505
G1 X69.995 Y92.598 E42.55993
G1 X59.282 Y36.258 E44.46738
G1 X59.177 Y35.659 E44.48761
G1 X59.055 Y34.729 E44.5188
G1 X59.012 Y33.793 E44.54997
G1 X59.049 Y32.855 E44.58119
G1 X59.166 Y31.925 E44.61237
G1 X59.362 Y31.008 E44.64355
G1 X59.635 Y30.11 E44.67477
G1 X59.984 Y29.24 E44.70595
G1 X60.405 Y28.402 E44.73714
G1 X60.897 Y27.603 E44.76835
G1 X61.454 Y26.849 E44.79953
G1 X62.074 Y26.145 E44.83073
G1 X62.751 Y25.497 E44.8619
G1 X63.482 Y24.908 E44.89312
G1 X64.26 Y24.384 E44.92432
G1 X65.079 Y23.928 E44.9555
G1 X65.935 Y23.544 E44.9867
G1 X66.82 Y23.233 E45.0179
G1 X67.728 Y23 E45.04908
G1 X68.653 Y22.844 E45.08028
G1 X69.827 Y22.762 E45.11942
G1 X70.845 Y22.746 E45.15329
G1 X149.293 Y22.746 E47.76248
G1 X149.452 Y22.747 E47.76777
G1 X150.143 Y22.757 E47.79075
G1 F2700 E42.79075
;MESH:SideTop.stl
G0 F6000 X131.431 Y72.793
G0 X132.886 Y72.779
G0 X132.062 Y84.637
G0 X131.397 Y90.418
G0 X130.232 Y97.76
G0 X128.528 Y106.421
G0 X126.231 Y116.453
G0 X123.536 Y127.048
G0 X122.13 Y132.252
G0 X113.943 Y132.392
;TYPE:WALL-INNER
G1 F2700 E47.79075
G1 F1200 X113.944 Y132.393 E47.7908
G1 X114.82 Y132.421 E47.81995
G1 X122.263 Y132.421 E48.0675
G1 X122.386 Y131.92 E48.08466
G1 X123.118 Y129.235 E48.17723
G1 X123.692 Y127.089 E48.25111
G1 X124.608 Y123.585 E48.37157
G1 X125.151 Y121.473 E48.4441
G1 X125.695 Y119.309 E48.51832
G1 X126.388 Y116.491 E48.61483
G1 X127.091 Y113.557 E48.71518
G1 X127.417 Y112.16 E48.7629
G1 X127.745 Y110.727 E48.81179
G1 X128.375 Y107.892 E48.90838
G1 X128.685 Y106.454 E48.95731
G1 X128.989 Y105.015 E49.00623
G1 X129.285 Y103.572 E49.05522
G1 X129.582 Y102.083 E49.10572
G1 X129.854 Y100.683 E49.15316
G1 X130.127 Y99.237 E49.2021
G1 X130.39 Y97.788 E49.25108
G1 X130.644 Y96.338 E49.30004
G1 X130.887 Y94.884 E49.34907
G1 X131.119 Y93.429 E49.39808
G1 X131.34 Y91.972 E49.44709
G1 X131.556 Y90.44 E49.49855
G1 X131.744 Y89.013 E49.54642
G1 X131.922 Y87.549 E49.59547
G1 X132.079 Y86.12 E49.64329
G1 X132.222 Y84.653 E49.69231
G1 X132.35 Y83.183 E49.74139
G1 X132.465 Y81.605 E49.79401
G1 X132.548 Y80.198 E49.84089
G1 X132.617 Y78.723 E49.89
G1 X132.664 Y77.286 E49.93782
G1 X132.693 Y75.81 E49.98693
G1 X132.704 Y74.334 E50.03602
G1 X132.695 Y72.782 E50.08764
G1 X132.668 Y71.343 E50.13551
G1 X132.623 Y69.87 E50.18452
G1 X132.563 Y68.433 E50.23236
G1 X132.483 Y66.958 E50.28149
G1 X132.386 Y65.486 E50.33056
G1 X132.265 Y63.908 E50.3832
G1 X132.134 Y62.503 E50.43013
G1 X131.968 Y61.031 E50.4794
G1 X131.774 Y59.597 E50.52753
G1 X131.529 Y58.129 E50.57703
G1 X131.233 Y56.668 E50.62661
G1 X130.873 Y55.214 E50.67643
G1 X130.406 Y53.705 E50.72897
G1 X129.877 Y52.325 E50.77812
G1 X129.209 Y50.952 E50.82891
G1 X128.401 Y49.671 E50.87928
G1 X127.385 Y48.471 E50.93158
G1 X127.297 Y48.382 E50.93574
G1 X126.189 Y47.444 E50.98403
G1 X124.866 Y46.632 E51.03566
G1 X123.487 Y46.027 E51.08574
G1 X121.958 Y45.549 E51.13902
G1 X120.51 Y45.238 E51.18828
G1 X118.974 Y45.022 E51.23987
G1 X117.563 Y44.902 E51.28697
G1 X116.002 Y44.83 E51.33895
G1 X114.561 Y44.808 E51.38688
G1 X113.08 Y44.812 E51.43614
G1 X111.642 Y44.832 E51.48397
G1 X110.165 Y44.873 E51.53311
G1 X108.683 Y44.943 E51.58246
G1 X107.205 Y45.049 E51.63175
G1 X105.726 Y45.199 E51.68119
G1 X104.207 Y45.405 E51.73217
G1 X102.777 Y45.654 E51.78045
G1 X101.366 Y45.955 E51.82844
G1 X99.874 Y46.339 E51.87968
G1 X98.443 Y46.773 E51.92942
G1 X97.034 Y47.267 E51.97908
G1 X95.646 Y47.817 E52.02873
G1 X94.211 Y48.459 E52.08102
G1 X92.907 Y49.111 E52.12951
G1 X91.6 Y49.846 E52.17938
G1 X90.322 Y50.666 E52.22989
G1 X89.142 Y51.548 E52.27889
G1 X88.004 Y52.601 E52.33045
G1 X87.058 Y53.821 E52.3818
G1 X86.454 Y55.556 E52.4429
G1 X86.892 Y57.221 E52.50017
G1 X88.035 Y58.466 E52.55638
G1 X89.35 Y59.397 E52.60997
G1 X90.639 Y60.126 E52.65922
G1 X91.939 Y60.772 E52.70751
G1 X93.291 Y61.394 E52.757
G1 X94.657 Y61.998 E52.80668
G1 X96.004 Y62.587 E52.85558
G1 X97.403 Y63.209 E52.9065
G1 X98.68 Y63.798 E52.95327
G1 X100.01 Y64.451 E53.00255
G1 X101.233 Y65.108 E53.04873
G1 X102.533 Y65.886 E53.09912
G1 X103.707 Y66.67 E53.14607
G1 X104.816 Y67.492 E53.19199
G1 X105.993 Y68.459 E53.24265
G1 X107.051 Y69.412 E53.29001
G1 X108.063 Y70.407 E53.33721
G1 X109.035 Y71.439 E53.38437
G1 X110.003 Y72.534 E53.43298
G1 X110.978 Y73.695 E53.4834
G1 X111.876 Y74.811 E53.53104
G1 X112.778 Y75.956 E53.57952
G1 X113.667 Y77.11 E53.62798
G1 X114.507 Y78.237 E53.67473
G1 X115.38 Y79.466 E53.72487
G1 X116.204 Y80.693 E53.77402
G1 X116.961 Y81.901 E53.82144
G1 X117.678 Y83.141 E53.86908
G1 X118.333 Y84.384 E53.91581
G1 X118.956 Y85.692 E53.964
G1 X119.526 Y87.031 E54.0124
G1 X120.023 Y88.374 E54.06003
G1 X120.49 Y89.824 E54.1107
G1 X120.859 Y91.181 E54.15747
G1 X121.181 Y92.607 E54.20609
G1 X121.438 Y94.017 E54.25376
G1 X121.639 Y95.484 E54.30301
G1 X121.757 Y96.829 E54.34792
G1 X121.806 Y98.285 E54.39637
G1 X121.753 Y99.761 E54.4455
G1 X121.591 Y101.073 E54.48946
G1 X121.246 Y102.43 E54.53603
G1 X120.684 Y103.543 E54.5775
G1 X119.755 Y104.337 E54.61815
G1 X118.543 Y104.66 E54.65987
G1 X117.161 Y104.668 E54.70584
G1 X115.829 Y104.501 E54.75048
G1 X114.408 Y104.242 E54.79853
G1 X112.974 Y103.958 E54.84715
G1 X111.503 Y103.693 E54.89686
G1 X109.994 Y103.496 E54.94748
G1 X108.449 Y103.426 E54.99892
G1 X106.917 Y103.521 E55.04997
G1 X105.385 Y103.801 E55.10177
G1 X103.965 Y104.247 E55.15127
G1 X102.563 Y104.893 E55.20261
G1 X101.256 Y105.71 E55.25388
G1 X100.034 Y106.695 E55.30608
G1 X98.978 Y107.754 E55.35582
G1 X98.008 Y108.925 E55.4064
G1 X97.168 Y110.133 E55.45534
G1 X96.382 Y111.477 E55.50712
G1 X95.704 Y112.86 E55.55835
G1 X95.146 Y114.233 E55.60764
G1 X94.67 Y115.66 E55.65768
G1 X94.293 Y117.062 E55.70596
G1 X93.977 Y118.583 E55.75763
G1 X93.743 Y120.142 E55.81007
G1 X93.603 Y121.597 E55.85868
G1 X93.532 Y123.091 E55.90843
G1 X93.526 Y124.545 E55.95679
G1 X93.568 Y126.031 E56.00623
G1 X93.655 Y127.514 E56.05564
G1 X93.779 Y128.99 E56.10491
G1 X93.943 Y130.569 E56.15771
G1 X94.164 Y132.421 E56.21974
G1 X103.255 Y132.421 E56.52211
G1 X103.817 Y131.886 E56.54792
G1 X104.2 Y131.607 E56.56368
G1 X104.651 Y131.339 E56.58113
G1 X105.124 Y131.105 E56.59868
G1 X105.597 Y130.9 E56.61583
G1 X106.072 Y130.72 E56.63272
G1 X106.591 Y130.545 E56.65094
G1 X107.101 Y130.393 E56.66864
G1 X107.622 Y130.257 E56.68655
G1 X108.139 Y130.138 E56.70419
G1 X108.675 Y130.025 E56.72241
G1 X109.217 Y129.925 E56.74074
G1 X109.74 Y129.846 E56.75834
G1 X110.278 Y129.779 E56.77637
G1 X110.776 Y129.734 E56.793
G1 X111.33 Y129.7 E56.81146
G1 X111.88 Y129.679 E56.82977
G1 X112.391 Y129.678 E56.84676
G1 X112.891 Y129.71 E56.86343
G1 X113.365 Y129.796 E56.87945
G1 X113.721 Y129.937 E56.89218
G1 X113.951 Y130.142 E56.90243
G1 X114.06 Y130.41 E56.91205
G1 X114.063 Y130.828 E56.92596
G1 X113.99 Y131.259 E56.9405
G1 X113.757 Y132.145 E56.97097
G1 X113.694 Y132.386 E56.97925
G1 X113.943 Y132.392 E56.98429
G0 F6000 X114.209 Y132.002
;TYPE:WALL-OUTER
G1 F1200 X114.826 Y132.021 E57.00482
G1 X121.949 Y132.021 E57.24174
G1 X121.997 Y131.825 E57.24845
G1 X122.732 Y129.131 E57.34132
G1 X123.305 Y126.987 E57.41514
G1 X124.221 Y123.485 E57.53553
G1 X124.763 Y121.374 E57.60802
G1 X125.307 Y119.212 E57.68217
G1 X125.999 Y116.397 E57.77859
G1 X126.702 Y113.465 E57.87887
G1 X127.027 Y112.07 E57.92651
G1 X127.355 Y110.639 E57.97534
G1 X127.668 Y109.242 E58.02296
G1 X127.984 Y107.807 E58.07183
G1 X128.294 Y106.371 E58.12069
G1 X128.597 Y104.933 E58.16957
G1 X128.893 Y103.493 E58.21846
G1 X129.19 Y102.006 E58.2689
G1 X129.461 Y100.608 E58.31626
G1 X129.734 Y99.164 E58.36514
G1 X129.996 Y97.718 E58.41402
G1 X130.25 Y96.271 E58.46288
G1 X130.492 Y94.82 E58.51181
G1 X130.724 Y93.368 E58.56071
G1 X130.944 Y91.914 E58.60962
G1 X131.16 Y90.386 E58.66095
G1 X131.347 Y88.963 E58.70869
G1 X131.525 Y87.503 E58.75761
G1 X131.681 Y86.079 E58.80525
G1 X131.824 Y84.616 E58.85414
G1 X131.951 Y83.151 E58.90305
G1 X132.066 Y81.579 E58.95548
G1 X132.149 Y80.177 E59.00219
G1 X132.217 Y78.707 E59.05113
G1 X132.264 Y77.275 E59.09879
G1 X132.293 Y75.805 E59.14769
