;FLAVOR:Marlin
;TIME:2718
;Filament used: 2.06481m
;Layer height: 0.2
;MINX:59.031
;MINY:61.387
;MINZ:0.2
;MAXX:160.986
;MAXY:158.613
;MAXZ:4
;Generated with Cura_SteamEngine 4.6.1
M140 S70
M105
M190 S70
M104 S215
M105
M109 S215
M82 ;absolute extrusion mode
M201 X500.00 Y500.00 Z100.00 E5000.00 ;Setup machine max acceleration
M203 X500.00 Y500.00 Z10.00 E50.00 ;Setup machine max feedrate
M204 P500.00 R1000.00 T500.00 ;Setup Print/Retract/Travel acceleration
M205 X8.00 Y8.00 Z0.40 E5.00 ;Setup Jerk
M220 S100 ;Reset Feedrate
M221 S100 ;Reset Flowrate

G28 ;Home

G92 E0 ;Reset Extruder
G1 Z2.0 F3000 ;Move Z Axis up
G1 X10.1 Y20 Z0.28 F5000.0 ;Move to start position
G1 X10.1 Y200.0 Z0.28 F1500.0 E15 ;Draw the first line
G1 X10.4 Y200.0 Z0.28 F5000.0 ;Move to side a little
G1 X10.4 Y20 Z0.28 F1500.0 E30 ;Draw the second line
G92 E0 ;Reset Extruder
G1 Z2.0 F3000 ;Move Z Axis up

G92 E0
G92 E0
G1 F2700 E-5
;LAYER_COUNT:20
;LAYER:0
M107
G0 F6000 X121.139 Y62.198 Z0.2
;TYPE:SKIRT
G1 F2700 E0
G1 F1200 X122.041 Y62.251 E0.03005
G1 X122.934 Y62.383 E0.06008
G1 X123.813 Y62.594 E0.09014
G1 X124.669 Y62.882 E0.12018
G1 X125.496 Y63.244 E0.15021
G1 X126.288 Y63.678 E0.18025
G1 X127.038 Y64.181 E0.21028
G1 X127.741 Y64.748 E0.24032
G1 X128.391 Y65.374 E0.27033
G1 X128.984 Y66.056 E0.30039
G1 X129.513 Y66.788 E0.33043
G1 X129.976 Y67.563 E0.36046
G1 X130.411 Y68.478 E0.39416
G1 X130.635 Y69.026 E0.41385
G1 X152.217 Y125.009 E2.40942
G1 X159.299 Y143.382 E3.06433
G1 X159.545 Y144.042 E3.08776
G1 X159.822 Y144.901 E3.11778
G1 X160.023 Y145.782 E3.14784
G1 X160.145 Y146.676 E3.17785
G1 X160.187 Y147.578 E3.20788
G1 X160.149 Y148.481 E3.23794
G1 X160.032 Y149.376 E3.26796
G1 X159.836 Y150.258 E3.29801
G1 X159.562 Y151.119 E3.32806
G1 X159.214 Y151.952 E3.35809
G1 X158.793 Y152.751 E3.38813
G1 X158.303 Y153.51 E3.41818
G1 X157.749 Y154.222 E3.44818
G1 X157.133 Y154.883 E3.47823
G1 X156.461 Y155.486 E3.50826
G1 X155.738 Y156.028 E3.53832
G1 X154.971 Y156.504 E3.56834
G1 X154.164 Y156.91 E3.59839
G1 X153.324 Y157.243 E3.62844
G1 X152.459 Y157.5 E3.65845
G1 X151.574 Y157.68 E3.68849
G1 X150.254 Y157.8 E3.73258
G1 X149.682 Y157.812 E3.75161
G1 X70.707 Y157.813 E6.37832
G1 X70.557 Y157.812 E6.38331
G1 X69.879 Y157.802 E6.40587
G1 X68.977 Y157.749 E6.43592
G1 X68.084 Y157.616 E6.46595
G1 X67.206 Y157.404 E6.49599
G1 X66.35 Y157.116 E6.52603
G1 X65.523 Y156.754 E6.55605
G1 X64.731 Y156.319 E6.58611
G1 X63.981 Y155.816 E6.61614
G1 X63.278 Y155.249 E6.64618
G1 X62.628 Y154.622 E6.67622
G1 X62.036 Y153.94 E6.70626
G1 X61.507 Y153.208 E6.7363
G1 X61.045 Y152.432 E6.76633
G1 X60.653 Y151.619 E6.79635
G1 X60.334 Y150.774 E6.8264
G1 X60.092 Y149.904 E6.85643
G1 X59.927 Y149.016 E6.88647
G1 X59.842 Y148.117 E6.91651
G1 X59.836 Y147.214 E6.94654
G1 X59.911 Y146.314 E6.97658
G1 X60.065 Y145.424 E7.00662
G1 X60.244 Y144.723 E7.03068
G1 X60.322 Y144.458 E7.03987
G1 X60.59 Y143.669 E7.06758
G1 X82.233 Y87.524 E9.06892
G1 X89.285 Y69.235 E9.72086
G1 X89.544 Y68.591 E9.74395
G1 X89.917 Y67.769 E9.77397
G1 X90.362 Y66.983 E9.80402
G1 X90.875 Y66.24 E9.83405
G1 X91.452 Y65.545 E9.86409
G1 X92.087 Y64.903 E9.89412
G1 X92.777 Y64.32 E9.92417
G1 X93.516 Y63.801 E9.9542
G1 X94.298 Y63.349 E9.98425
G1 X95.117 Y62.968 E10.01429
G1 X95.966 Y62.661 E10.04432
G1 X96.839 Y62.43 E10.07435
G1 X97.729 Y62.277 E10.10439
G1 X98.702 Y62.202 E10.13685
G1 X99.341 Y62.187 E10.1581
G1 X120.438 Y62.188 E10.85979
G1 X121.139 Y62.198 E10.88311
G0 F6000 X121.145 Y61.798
G1 F1200 X122.064 Y61.851 E10.91373
G1 X122.975 Y61.984 E10.94435
G1 X123.871 Y62.195 E10.97497
G1 X124.746 Y62.483 E11.0056
G1 X125.592 Y62.846 E11.03622
G1 X126.403 Y63.281 E11.06683
G1 X127.174 Y63.785 E11.09747
G1 X127.898 Y64.354 E11.1281
G1 X128.57 Y64.983 E11.15871
G1 X129.185 Y65.668 E11.18933
G1 X129.738 Y66.404 E11.21995
G1 X130.225 Y67.186 E11.25059
G1 X130.781 Y68.325 E11.29274
G1 X131.008 Y68.882 E11.31275
G1 X152.59 Y124.865 E13.30832
G1 X159.673 Y143.242 E13.96337
G1 X159.919 Y143.902 E13.9868
G1 X160.203 Y144.778 E14.01743
G1 X160.41 Y145.675 E14.04805
G1 X160.538 Y146.587 E14.07868
G1 X160.587 Y147.506 E14.10929
G1 X160.555 Y148.426 E14.13991
G1 X160.444 Y149.34 E14.17053
G1 X160.254 Y150.241 E14.20116
G1 X159.986 Y151.122 E14.23178
G1 X159.643 Y151.976 E14.26239
G1 X159.228 Y152.798 E14.29302
G1 X158.742 Y153.58 E14.32364
G1 X158.19 Y154.317 E14.35427
G1 X157.577 Y155.003 E14.38487
G1 X156.906 Y155.634 E14.4155
G1 X156.183 Y156.204 E14.44612
G1 X155.414 Y156.709 E14.47672
G1 X154.603 Y157.146 E14.50736
G1 X153.758 Y157.511 E14.53798
G1 X152.884 Y157.8 E14.5686
G1 X151.988 Y158.013 E14.59923
G1 X151.078 Y158.148 E14.62983
G1 X150.265 Y158.2 E14.65692
G1 X149.682 Y158.212 E14.67632
G1 X70.707 Y158.213 E17.30304
G1 X70.551 Y158.212 E17.30822
G1 X69.873 Y158.202 E17.33078
G1 X68.954 Y158.148 E17.3614
G1 X68.043 Y158.015 E17.39202
G1 X67.147 Y157.804 E17.42263
G1 X66.272 Y157.515 E17.45328
G1 X65.426 Y157.152 E17.4839
G1 X64.615 Y156.716 E17.51453
G1 X63.845 Y156.212 E17.54513
G1 X63.121 Y155.643 E17.57576
G1 X62.45 Y155.013 E17.60637
G1 X61.835 Y154.328 E17.63699
G1 X61.283 Y153.591 E17.66762
G1 X60.796 Y152.81 E17.69823
G1 X60.379 Y151.989 E17.72886
G1 X60.035 Y151.135 E17.75948
G1 X59.766 Y150.255 E17.79009
G1 X59.575 Y149.354 E17.82072
G1 X59.462 Y148.44 E17.85135
G1 X59.429 Y147.52 E17.88197
G1 X59.476 Y146.601 E17.91258
G1 X59.603 Y145.689 E17.9432
G1 X59.86 Y144.61 E17.98009
G1 X59.938 Y144.345 E17.98928
G1 X60.216 Y143.525 E18.01808
G1 X81.859 Y87.38 E20.01941
G1 X88.914 Y69.086 E20.67155
G1 X89.173 Y68.442 E20.69464
G1 X89.553 Y67.603 E20.72527
G1 X90.004 Y66.801 E20.75587
G1 X90.524 Y66.041 E20.7865
G1 X91.107 Y65.329 E20.81711
G1 X91.751 Y64.67 E20.84776
G1 X92.448 Y64.07 E20.87834
G1 X93.196 Y63.532 E20.90899
G1 X93.987 Y63.061 E20.93961
G1 X94.816 Y62.661 E20.97022
G1 X95.677 Y62.334 E21.00086
G1 X96.562 Y62.083 E21.03145
G1 X97.467 Y61.91 E21.0621
G1 X98.69 Y61.802 E21.10293
G1 X99.341 Y61.787 E21.12459
G1 X120.444 Y61.788 E21.82648
G1 X121.145 Y61.798 E21.8498
G0 F6000 X121.151 Y61.398
G1 F1200 X122.087 Y61.451 E21.88098
G1 X123.016 Y61.584 E21.91219
G1 X123.929 Y61.796 E21.94337
G1 X124.822 Y62.084 E21.97458
G1 X125.686 Y62.448 E22.00576
G1 X126.517 Y62.884 E22.03697
G1 X127.307 Y63.389 E22.06816
G1 X128.051 Y63.959 E22.09933
G1 X128.744 Y64.591 E22.13052
G1 X129.381 Y65.28 E22.16173
G1 X129.957 Y66.02 E22.19292
G1 X130.468 Y66.807 E22.22413
G1 X130.909 Y67.634 E22.25531
G1 X131.15 Y68.171 E22.27488
G1 X131.382 Y68.738 E22.29526
G1 X152.964 Y124.721 E24.29083
G1 X160.048 Y143.102 E24.94602
G1 X160.294 Y143.762 E24.96945
G1 X160.584 Y144.654 E25.00064
G1 X160.797 Y145.568 E25.03186
G1 X160.931 Y146.496 E25.06304
G1 X160.986 Y147.432 E25.09423
G1 X160.96 Y148.37 E25.12544
G1 X160.855 Y149.302 E25.15663
G1 X160.671 Y150.221 E25.1878
G1 X160.409 Y151.122 E25.21901
G1 X160.072 Y151.997 E25.2502
G1 X159.661 Y152.84 E25.28139
G1 X159.18 Y153.645 E25.31258
G1 X158.632 Y154.406 E25.34377
G1 X158.021 Y155.118 E25.37498
G1 X157.352 Y155.775 E25.40617
G1 X156.629 Y156.372 E25.43735
G1 X155.858 Y156.906 E25.46854
G1 X155.044 Y157.373 E25.49976
G1 X154.194 Y157.768 E25.53093
G1 X153.313 Y158.089 E25.56212
G1 X152.407 Y158.334 E25.59333
G1 X151.484 Y158.502 E25.62454
G1 X150.275 Y158.6 E25.66488
G1 X149.682 Y158.612 E25.68461
G1 X70.707 Y158.613 E28.31133
G1 X70.545 Y158.612 E28.31672
G1 X69.867 Y158.602 E28.33927
G1 X68.93 Y158.548 E28.37049
G1 X68.002 Y158.415 E28.40167
G1 X67.089 Y158.203 E28.43284
G1 X66.196 Y157.914 E28.46406
G1 X65.332 Y157.55 E28.49524
G1 X64.502 Y157.113 E28.52644
G1 X63.712 Y156.608 E28.55763
G1 X62.968 Y156.037 E28.58882
G1 X62.275 Y155.405 E28.62001
G1 X61.638 Y154.716 E28.65122
G1 X61.063 Y153.976 E28.68239
G1 X60.553 Y153.189 E28.71358
G1 X60.111 Y152.361 E28.7448
G1 X59.742 Y151.499 E28.77599
G1 X59.448 Y150.609 E28.80716
G1 X59.23 Y149.696 E28.83838
G1 X59.091 Y148.769 E28.86956
G1 X59.031 Y147.833 E28.90076
G1 X59.052 Y146.895 E28.93196
G1 X59.152 Y145.963 E28.96314
G1 X59.331 Y145.042 E28.99434
G1 X59.477 Y144.497 E29.01311
G1 X59.555 Y144.232 E29.0223
G1 X59.843 Y143.381 E29.05218
G1 X81.486 Y87.236 E31.05351
G1 X88.542 Y68.937 E31.70582
G1 X88.801 Y68.293 E31.7289
G1 X89.188 Y67.438 E31.76012
G1 X89.646 Y66.62 E31.7913
G1 X90.172 Y65.843 E31.82251
G1 X90.763 Y65.115 E31.85369
G1 X91.413 Y64.439 E31.88489
G1 X92.119 Y63.821 E31.91609
G1 X92.874 Y63.265 E31.94728
G1 X93.674 Y62.776 E31.97846
G1 X94.513 Y62.357 E32.00966
G1 X95.385 Y62.01 E32.04087
G1 X96.283 Y61.74 E32.07206
G1 X97.2 Y61.546 E32.10323
G1 X98.131 Y61.432 E32.13443
G1 X98.678 Y61.402 E32.15265
G1 X99.341 Y61.387 E32.17471
G1 X120.45 Y61.388 E32.8768
G1 X121.151 Y61.398 E32.90011
G1 F2700 E27.90011
;MESH:SideBottom.stl
G0 F6000 X120.335 Y99.115
G0 X118.943 Y99.457
G0 X119.379 Y101.776
G0 X119.636 Y104.419
G0 X119.678 Y106.929
G0 X119.54 Y109.262
G0 X118.754 Y115.206
G0 X118.76 Y131.327
G0 X119.257 Y131.76
;TYPE:WALL-INNER
G1 F2700 E32.90011
G1 F1200 X120.741 Y130.645 E32.96185
G1 X121.515 Y130.002 E32.99532
G1 X122.264 Y129.33 E33.02879
G1 X122.956 Y128.657 E33.06089
G1 X123.675 Y127.901 E33.09559
G1 X124.337 Y127.141 E33.12912
G1 X124.959 Y126.367 E33.16214
G1 X125.536 Y125.584 E33.19449
G1 X126.127 Y124.716 E33.22942
G1 X126.656 Y123.86 E33.26289
G1 X127.153 Y122.986 E33.29633
G1 X127.613 Y122.094 E33.32971
G1 X128.04 Y121.184 E33.36314
G1 X128.431 Y120.26 E33.39651
G1 X128.802 Y119.279 E33.4314
G1 X129.107 Y118.365 E33.46344
G1 X129.386 Y117.399 E33.49689
G1 X129.624 Y116.422 E33.53033
G1 X129.821 Y115.437 E33.56374
G1 X129.978 Y114.443 E33.59721
G1 X130.096 Y113.446 E33.6306
G1 X130.177 Y112.445 E33.66401
G1 X130.223 Y111.445 E33.6973
G1 X130.236 Y110.447 E33.7305
G1 X130.222 Y109.481 E33.76263
G1 X130.177 Y108.451 E33.79692
G1 X130.108 Y107.456 E33.8301
G1 X130.014 Y106.465 E33.8632
G1 X129.897 Y105.476 E33.89633
G1 X129.759 Y104.492 E33.92938
G1 X129.6 Y103.511 E33.96243
G1 X129.419 Y102.533 E33.99551
G1 X129.219 Y101.56 E34.02855
G1 X128.998 Y100.591 E34.06161
G1 X128.758 Y99.626 E34.09468
G1 X128.495 Y98.666 E34.12779
G1 X128.223 Y97.748 E34.15963
G1 X127.91 Y96.766 E34.19391
G1 X127.582 Y95.824 E34.22709
G1 X127.233 Y94.891 E34.26022
G1 X126.84 Y93.928 E34.29481
G1 X126.453 Y93.051 E34.3267
G1 X126.024 Y92.151 E34.35986
G1 X125.567 Y91.262 E34.3931
G1 X125.084 Y90.388 E34.42632
G1 X124.575 Y89.526 E34.45961
G1 X124.038 Y88.682 E34.49288
G1 X123.475 Y87.854 E34.52619
G1 X122.907 Y87.078 E34.55817
G1 X122.255 Y86.258 E34.59302
G1 X121.586 Y85.494 E34.62679
G1 X120.864 Y84.764 E34.66094
G1 X120.035 Y84.064 E34.69703
G1 X119.236 Y83.512 E34.72933
G1 X118.593 Y83.848 E34.75346
G1 X118.593 Y97.559 E35.20949
G1 X118.768 Y98.127 E35.22926
G1 X119.001 Y98.979 E35.25863
G1 X119.11 Y99.42 E35.27374
G1 X119.222 Y99.918 E35.29072
G1 X119.404 Y100.846 E35.32217
G1 X119.548 Y101.755 E35.35278
G1 X119.666 Y102.684 E35.38393
G1 X119.753 Y103.608 E35.4148
G1 X119.807 Y104.412 E35.4416
G1 X119.845 Y105.334 E35.47229
G1 X119.856 Y106.087 E35.49734
G1 X119.849 Y106.936 E35.52558
G1 X119.82 Y107.752 E35.55274
G1 X119.78 Y108.467 E35.57655
G1 X119.71 Y109.282 E35.60376
G1 X119.593 Y110.336 E35.63903
G1 X119.549 Y110.677 E35.65047
G1 X119.434 Y111.445 E35.6763
G1 X119.309 Y112.174 E35.7009
G1 X119.172 Y112.87 E35.72449
G1 X118.993 Y113.665 E35.75159
G1 X118.807 Y114.407 E35.77704
G1 X118.593 Y115.184 E35.80384
G1 X118.593 Y131.43 E36.34419
G1 X119.257 Y131.76 E36.36885
G0 F6000 X119.214 Y131.292
;TYPE:WALL-OUTER
G1 F1200 X120.493 Y130.331 E36.42206
G1 X121.254 Y129.699 E36.45496
G1 X121.991 Y129.038 E36.48789
G1 X122.672 Y128.376 E36.51948
G1 X123.379 Y127.632 E36.55361
G1 X124.03 Y126.884 E36.58659
G1 X124.642 Y126.123 E36.61907
G1 X125.21 Y125.353 E36.6509
G1 X125.791 Y124.498 E36.68528
G1 X126.312 Y123.656 E36.71821
G1 X126.801 Y122.795 E36.75115
G1 X127.254 Y121.917 E36.78401
G1 X127.675 Y121.021 E36.81693
G1 X128.06 Y120.111 E36.8498
G1 X128.425 Y119.145 E36.88414
G1 X128.725 Y118.246 E36.91566
G1 X128.999 Y117.296 E36.94855
G1 X129.233 Y116.335 E36.98145
G1 X129.427 Y115.366 E37.01432
G1 X129.582 Y114.388 E37.04725
G1 X129.698 Y113.406 E37.08014
G1 X129.778 Y112.42 E37.11304
G1 X129.823 Y111.433 E37.1459
G1 X129.836 Y110.447 E37.1787
G1 X129.822 Y109.493 E37.21043
G1 X129.778 Y108.474 E37.24436
G1 X129.709 Y107.489 E37.2772
G1 X129.616 Y106.507 E37.31001
G1 X129.5 Y105.527 E37.34283
G1 X129.363 Y104.552 E37.37558
G1 X129.206 Y103.579 E37.40836
G1 X129.026 Y102.61 E37.44114
G1 X128.828 Y101.645 E37.4739
G1 X128.609 Y100.684 E37.50668
G1 X128.371 Y99.727 E37.53948
G1 X128.11 Y98.776 E37.57228
G1 X127.841 Y97.865 E37.60388
G1 X127.531 Y96.893 E37.63781
G1 X127.206 Y95.96 E37.67067
G1 X126.86 Y95.037 E37.70346
G1 X126.472 Y94.084 E37.73768
G1 X126.089 Y93.218 E37.76917
G1 X125.665 Y92.328 E37.80196
G1 X125.214 Y91.45 E37.83479
G1 X124.737 Y90.586 E37.86762
G1 X124.234 Y89.735 E37.9005
G1 X123.704 Y88.902 E37.93333
G1 X123.148 Y88.085 E37.9662
G1 X122.589 Y87.321 E37.99769
G1 X121.948 Y86.514 E38.03197
G1 X121.293 Y85.767 E38.06501
G1 X120.592 Y85.058 E38.09817
G1 X119.792 Y84.382 E38.13301
G1 X119.207 Y83.978 E38.15666
G1 X118.993 Y84.09 E38.16469
G1 X118.993 Y97.499 E38.61067
G1 X119.153 Y98.021 E38.62883
G1 X119.387 Y98.873 E38.65822
G1 X119.5 Y99.332 E38.67394
G1 X119.615 Y99.841 E38.6913
G1 X119.797 Y100.769 E38.72275
G1 X119.945 Y101.705 E38.75427
G1 X120.063 Y102.634 E38.78542
G1 X120.152 Y103.581 E38.81705
G1 X120.207 Y104.396 E38.84422
G1 X120.245 Y105.328 E38.87525
G1 X120.256 Y106.09 E38.90059
G1 X120.249 Y106.95 E38.9292
G1 X120.22 Y107.766 E38.95635
G1 X120.178 Y108.501 E38.98084
G1 X120.108 Y109.326 E39.00838
G1 X119.99 Y110.387 E39.04389
G1 X119.945 Y110.736 E39.05559
G1 X119.829 Y111.508 E39.08155
G1 X119.701 Y112.251 E39.10663
G1 X119.562 Y112.958 E39.1306
G1 X119.381 Y113.762 E39.15801
G1 X119.193 Y114.513 E39.18376
G1 X118.993 Y115.238 E39.20877
G1 X118.993 Y131.182 E39.73907
G1 X119.214 Y131.292 E39.74728
G1 F2700 E34.74728
G0 F6000 X119.393 Y131.531
G0 X118.399 Y131.55
G0 X117.593 Y132.586
G0 X115.61 Y133.723
G0 X112.893 Y134.956
G0 X110.115 Y135.933
G0 X107.783 Y136.54
G0 X103.279 Y137.453
;TYPE:WALL-INNER
G1 F2700 E39.74728
G1 F1200 X104.313 Y137.343 E39.78187
G1 X105.267 Y137.21 E39.8139
G1 X106.25 Y137.043 E39.84707
G1 X107.268 Y136.84 E39.88159
G1 X108.176 Y136.632 E39.91257
G1 X109.169 Y136.376 E39.94668
G1 X110.163 Y136.087 E39.98111
G1 X111.08 Y135.793 E40.01314
G1 X112.02 Y135.462 E40.04628
G1 X112.953 Y135.104 E40.07952
G1 X113.874 Y134.717 E40.11275
G1 X114.783 Y134.306 E40.14593
G1 X115.683 Y133.866 E40.17925
G1 X116.888 Y133.22 E40.22472
G1 X117.793 Y132.702 E40.25941
G1 X117.793 Y116.98 E40.78232
G1 X117.712 Y116.581 E40.79586
G1 X117.628 Y116.102 E40.81204
G1 X117.562 Y115.652 E40.82717
G1 X117.494 Y115.131 E40.84464
G1 X117.43 Y114.589 E40.86279
G1 X117.373 Y114.043 E40.88105
G1 X117.177 Y111.912 E40.95223
G1 X117.094 Y110.901 E40.98597
G1 X116.956 Y109.059 E41.0474
G1 X116.842 Y107.272 E41.10696
G1 X116.735 Y105.428 E41.1684
G1 X116.64 Y103.539 E41.2313
G1 X116.601 Y102.616 E41.26203
G1 X116.539 Y100.773 E41.32336
G1 X116.52 Y99.905 E41.35224
G1 X116.512 Y98.993 E41.38257
G1 X116.524 Y98.128 E41.41135
G1 X116.536 Y97.76 E41.42359
G1 X116.583 Y97.019 E41.44829
G1 X116.627 Y96.62 E41.46164
G1 X116.666 Y96.328 E41.47144
G1 X116.726 Y96.003 E41.48243
G1 X116.774 Y95.791 E41.48966
G1 X116.847 Y95.544 E41.49823
G1 X116.932 Y95.325 E41.50604
G1 X117.01 Y95.169 E41.51184
G1 X117.086 Y95.053 E41.51645
G1 X117.145 Y94.981 E41.51955
G1 X117.184 Y94.945 E41.52132
G1 X117.214 Y94.927 E41.52248
G1 X117.297 Y94.907 E41.52532
G1 X117.793 Y94.817 E41.54208
G1 X117.793 Y82.933 E41.93735
G1 X115.157 Y82.468 E42.02638
G1 X113.999 Y82.471 E42.06489
G1 X112.884 Y82.965 E42.10545
G1 X112.093 Y83.828 E42.14439
G1 X111.581 Y84.741 E42.1792
G1 X111.167 Y85.726 E42.21474
G1 X110.831 Y86.68 E42.24838
G1 X110.534 Y87.635 E42.28165
G1 X110.265 Y88.593 E42.31474
G1 X110.014 Y89.553 E42.34775
G1 X109.779 Y90.515 E42.38068
G1 X109.558 Y91.479 E42.41358
G1 X109.348 Y92.445 E42.44646
