;FLAVOR:Marlin
;TIME:6418
;Filament used: 5.51475m
;Layer height: 0.2
;MINX:64.026
;MINY:68.684
;MINZ:0.2
;MAXX:155.965
;MAXY:151.316
;MAXZ:15.2
;Generated with Cura_SteamEngine 4.6.1
M140 S55
M105
M190 S55
M104 S205
M105
M109 S205
M82 ;absolute extrusion mode
M201 X500.00 Y500.00 Z100.00 E5000.00 ;Setup machine max acceleration
M203 X500.00 Y500.00 Z10.00 E50.00 ;Setup machine max feedrate
M204 P500.00 R1000.00 T500.00 ;Setup Print/Retract/Travel acceleration
M205 X8.00 Y8.00 Z0.40 E5.00 ;Setup Jerk
M220 S100 ;Reset Feedrate
M221 S100 ;Reset Flowrate

G28 ;Home

G92 E0 ;Reset Extruder
G1 Z2.0 F3000 ;Move Z Axis up
G1 X10.1 Y20 Z0.28 F5000.0 ;Move to start position
G1 X10.1 Y200.0 Z0.28 F1500.0 E15 ;Draw the first line
G1 X10.4 Y200.0 Z0.28 F5000.0 ;Move to side a little
G1 X10.4 Y20 Z0.28 F1500.0 E30 ;Draw the second line
G92 E0 ;Reset Extruder
G1 Z2.0 F3000 ;Move Z Axis up

G92 E0
G92 E0
G1 F2700 E-5
;LAYER_COUNT:76
;LAYER:0
M107
G0 F6000 X108.588 Y69.516 Z0.2
;TYPE:SKIRT
G1 F2700 E0
G1 F1200 X111.203 Y69.519 E0.08698
G1 X111.81 Y69.507 E0.10717
G1 X112.435 Y69.503 E0.12796
G1 X127.003 Y69.519 E0.61249
G1 X127.67 Y69.529 E0.63468
G1 X128.571 Y69.583 E0.6647
G1 X129.465 Y69.716 E0.69476
G1 X130.343 Y69.927 E0.72479
G1 X131.198 Y70.216 E0.75481
G1 X132.025 Y70.578 E0.78484
G1 X132.817 Y71.013 E0.81489
G1 X133.567 Y71.516 E0.84493
G1 X134.27 Y72.083 E0.87497
G1 X134.92 Y72.711 E0.90503
G1 X135.511 Y73.393 E0.93504
G1 X136.04 Y74.125 E0.96508
G1 X136.285 Y74.517 E0.98046
G1 X136.708 Y75.231 E1.00806
G1 X143.746 Y87.45 E1.47706
G1 X144.503 Y88.807 E1.52874
G1 X146.474 Y92.185 E1.65882
G1 X153.542 Y104.455 E2.12979
G1 X153.868 Y105.038 E2.152
G1 X154.273 Y105.845 E2.18204
G1 X154.606 Y106.684 E2.21206
G1 X154.862 Y107.55 E2.24209
G1 X155.042 Y108.435 E2.27213
G1 X155.142 Y109.333 E2.30218
G1 X155.163 Y110.236 E2.33223
G1 X155.103 Y111.137 E2.36226
G1 X154.964 Y112.029 E2.39229
G1 X154.747 Y112.906 E2.42234
G1 X154.453 Y113.76 E2.45238
G1 X153.981 Y114.787 E2.48997
G1 X153.636 Y115.439 E2.5145
G1 X153.448 Y115.777 E2.52737
G1 X146.293 Y128.14 E3.00246
G1 X145.687 Y129.153 E3.04172
G1 X144.388 Y131.399 E3.12802
G1 X144.103 Y131.915 E3.14762
G1 X143.777 Y132.488 E3.16955
G1 X136.614 Y144.866 E3.64521
G1 X136.221 Y145.526 E3.67076
G1 X135.725 Y146.28 E3.70078
G1 X135.164 Y146.988 E3.73082
G1 X134.543 Y147.644 E3.76087
G1 X133.866 Y148.242 E3.79091
G1 X133.139 Y148.778 E3.82095
G1 X132.368 Y149.247 E3.85097
G1 X131.558 Y149.646 E3.881
G1 X130.716 Y149.972 E3.91103
G1 X129.848 Y150.223 E3.94108
G1 X128.961 Y150.395 E3.97113
G1 X128.063 Y150.489 E4.00116
G1 X127.599 Y150.506 E4.01661
G1 X126.8 Y150.516 E4.04318
G1 X112.516 Y150.501 E4.51827
G1 X111.412 Y150.484 E4.55499
G1 X108.797 Y150.481 E4.64197
G1 X108.19 Y150.493 E4.66216
G1 X107.565 Y150.497 E4.68295
G1 X92.995 Y150.481 E5.16755
G1 X92.336 Y150.471 E5.18947
G1 X91.435 Y150.417 E5.21949
G1 X90.541 Y150.284 E5.24956
G1 X89.664 Y150.072 E5.27956
G1 X88.808 Y149.784 E5.3096
G1 X87.981 Y149.421 E5.33964
G1 X87.189 Y148.986 E5.3697
G1 X86.439 Y148.483 E5.39973
G1 X85.737 Y147.915 E5.42977
G1 X85.087 Y147.288 E5.4598
G1 X84.496 Y146.606 E5.48982
G1 X83.771 Y145.564 E5.53204
G1 X83.266 Y144.727 E5.56455
G1 X76.279 Y132.594 E6.03023
G1 X75.711 Y131.575 E6.06903
G1 X74.388 Y129.277 E6.15722
G1 X74.061 Y128.737 E6.17822
G1 X73.789 Y128.271 E6.19617
G1 X66.469 Y115.564 E6.68391
G1 X66.12 Y114.939 E6.70772
G1 X65.715 Y114.132 E6.73775
G1 X65.383 Y113.292 E6.76779
G1 X65.127 Y112.426 E6.79783
G1 X64.948 Y111.541 E6.82786
G1 X64.848 Y110.643 E6.85791
G1 X64.829 Y109.74 E6.88795
G1 X64.888 Y108.839 E6.91799
G1 X65.028 Y107.947 E6.94802
G1 X65.246 Y107.07 E6.97807
G1 X65.54 Y106.217 E7.00808
G1 X66.114 Y105.004 E7.05272
G1 X66.511 Y104.294 E7.07977
G1 X73.714 Y91.848 E7.55805
G1 X74.295 Y90.876 E7.59572
G1 X75.618 Y88.591 E7.68354
G1 X75.92 Y88.045 E7.70429
G1 X76.223 Y87.512 E7.72468
G1 X83.39 Y75.127 E8.20061
G1 X83.773 Y74.485 E8.22547
G1 X84.27 Y73.731 E8.25551
G1 X84.831 Y73.023 E8.28555
G1 X85.453 Y72.368 E8.3156
G1 X86.13 Y71.771 E8.34562
G1 X86.858 Y71.236 E8.37567
G1 X87.63 Y70.767 E8.40571
G1 X88.44 Y70.368 E8.43574
G1 X89.282 Y70.043 E8.46576
G1 X90.15 Y69.793 E8.49581
G1 X91.037 Y69.621 E8.52586
G1 X92.114 Y69.52 E8.56184
G1 X92.771 Y69.493 E8.58371
G1 X93.2 Y69.484 E8.59798
G1 X107.336 Y69.498 E9.06814
G1 X108.588 Y69.516 E9.10979
G0 F6000 X108.595 Y69.116
G1 F1200 X111.195 Y69.119 E9.19626
G1 X111.807 Y69.107 E9.21662
G1 X112.435 Y69.103 E9.23751
G1 X127.009 Y69.119 E9.72225
G1 X127.676 Y69.129 E9.74443
G1 X128.595 Y69.183 E9.77505
G1 X129.506 Y69.316 E9.80567
G1 X130.402 Y69.528 E9.8363
G1 X131.276 Y69.817 E9.86691
G1 X132.122 Y70.18 E9.89753
G1 X132.933 Y70.616 E9.92816
G1 X133.703 Y71.12 E9.95877
G1 X134.427 Y71.69 E9.98941
G1 X135.098 Y72.32 E10.02003
G1 X135.712 Y73.005 E10.05062
G1 X136.265 Y73.742 E10.08127
G1 X136.629 Y74.313 E10.10379
G1 X137.055 Y75.031 E10.13156
G1 X144.096 Y87.255 E10.60075
G1 X144.872 Y88.647 E10.65376
G1 X146.821 Y91.985 E10.78232
G1 X153.891 Y104.26 E11.25347
G1 X154.217 Y104.843 E11.27568
G1 X154.631 Y105.665 E11.30629
G1 X154.972 Y106.52 E11.33691
G1 X155.238 Y107.402 E11.36755
G1 X155.426 Y108.303 E11.39816
G1 X155.535 Y109.217 E11.42878
G1 X155.564 Y110.137 E11.45939
G1 X155.514 Y111.056 E11.49
G1 X155.384 Y111.968 E11.52064
G1 X155.175 Y112.864 E11.55124
G1 X154.889 Y113.74 E11.58189
G1 X154.334 Y114.974 E11.6269
G1 X153.989 Y115.626 E11.65143
G1 X153.795 Y115.977 E11.66477
G1 X146.636 Y128.345 E12.14007
G1 X146.064 Y129.302 E12.17716
G1 X144.717 Y131.63 E12.26661
G1 X144.451 Y132.112 E12.28492
G1 X144.124 Y132.688 E12.30695
G1 X136.958 Y145.07 E12.78278
G1 X136.565 Y145.73 E12.80833
G1 X136.06 Y146.5 E12.83895
G1 X135.49 Y147.223 E12.86958
G1 X134.859 Y147.894 E12.90021
G1 X134.173 Y148.508 E12.93083
G1 X133.436 Y149.06 E12.96146
G1 X132.654 Y149.545 E12.99206
G1 X131.833 Y149.962 E13.02269
G1 X130.979 Y150.305 E13.0533
G1 X130.098 Y150.573 E13.08393
G1 X129.197 Y150.763 E13.11455
G1 X128.283 Y150.875 E13.14518
G1 X127.604 Y150.906 E13.16779
G1 X126.8 Y150.916 E13.19453
G1 X112.51 Y150.901 E13.66982
G1 X111.405 Y150.884 E13.70658
G1 X108.805 Y150.881 E13.79305
G1 X108.193 Y150.893 E13.81341
G1 X107.565 Y150.897 E13.8343
G1 X92.989 Y150.881 E14.3191
G1 X92.33 Y150.871 E14.34102
G1 X91.411 Y150.817 E14.37164
G1 X90.5 Y150.683 E14.40226
G1 X89.604 Y150.471 E14.43289
G1 X88.73 Y150.182 E14.46351
G1 X87.884 Y149.819 E14.49413
G1 X87.073 Y149.383 E14.52475
G1 X86.303 Y148.878 E14.55538
G1 X85.58 Y148.309 E14.58598
G1 X84.908 Y147.679 E14.61661
G1 X84.294 Y146.993 E14.64724
G1 X83.742 Y146.257 E14.67783
G1 X83.429 Y145.772 E14.69703
G1 X82.92 Y144.927 E14.72984
G1 X75.93 Y132.789 E15.19571
G1 X75.371 Y131.786 E15.2339
G1 X74.038 Y129.472 E15.32272
G1 X73.715 Y128.939 E15.34345
G1 X73.442 Y128.471 E15.36147
G1 X66.12 Y115.759 E15.8494
G1 X65.771 Y115.134 E15.87321
G1 X65.358 Y114.311 E15.90383
G1 X65.017 Y113.456 E15.93445
G1 X64.752 Y112.574 E15.96508
G1 X64.564 Y111.673 E15.99569
G1 X64.456 Y110.759 E16.0263
G1 X64.427 Y109.839 E16.05692
G1 X64.478 Y108.919 E16.08756
G1 X64.608 Y108.008 E16.11817
G1 X64.818 Y107.111 E16.14881
G1 X65.104 Y106.236 E16.17943
G1 X65.465 Y105.39 E16.21002
G1 X65.765 Y104.81 E16.23174
G1 X66.165 Y104.093 E16.25905
G1 X73.371 Y91.643 E16.7375
G1 X73.949 Y90.677 E16.77494
G1 X75.28 Y88.377 E16.86332
G1 X75.572 Y87.848 E16.88342
G1 X75.876 Y87.312 E16.90391
G1 X83.047 Y74.922 E17.38005
G1 X83.43 Y74.28 E17.40492
G1 X83.935 Y73.511 E17.43552
G1 X84.506 Y72.788 E17.46616
G1 X85.137 Y72.118 E17.49677
G1 X85.824 Y71.505 E17.52739
G1 X86.561 Y70.953 E17.55802
G1 X87.343 Y70.468 E17.58862
G1 X88.165 Y70.053 E17.61925
G1 X89.02 Y69.71 E17.64989
G1 X89.901 Y69.443 E17.68051
G1 X90.801 Y69.253 E17.7111
G1 X92.098 Y69.12 E17.75447
G1 X92.755 Y69.093 E17.77634
G1 X93.2 Y69.084 E17.79114
G1 X107.336 Y69.098 E18.26131
G1 X108.595 Y69.116 E18.30319
G0 F6000 X108.601 Y68.716
G1 F1200 X111.187 Y68.719 E18.3892
G1 X111.804 Y68.707 E18.40972
G1 X112.435 Y68.703 E18.43071
G1 X127.015 Y68.719 E18.91564
G1 X127.682 Y68.729 E18.93783
G1 X128.618 Y68.783 E18.96901
G1 X129.547 Y68.917 E19.00023
G1 X130.46 Y69.129 E19.03141
G1 X131.352 Y69.418 E19.06259
G1 X132.217 Y69.782 E19.09381
G1 X133.047 Y70.219 E19.125
G1 X133.837 Y70.724 E19.15619
G1 X134.581 Y71.296 E19.1874
G1 X135.273 Y71.928 E19.21857
G1 X135.909 Y72.617 E19.24976
G1 X136.485 Y73.358 E19.28098
G1 X136.973 Y74.108 E19.31074
G1 X137.402 Y74.831 E19.3387
G1 X144.445 Y87.06 E19.80807
G1 X145.198 Y88.411 E19.85951
G1 X147.168 Y91.785 E19.98946
G1 X154.24 Y104.064 E20.46075
G1 X154.566 Y104.647 E20.48297
G1 X154.988 Y105.485 E20.51418
G1 X155.338 Y106.355 E20.54537
G1 X155.612 Y107.252 E20.57656
G1 X155.809 Y108.169 E20.60776
G1 X155.927 Y109.099 E20.63894
G1 X155.965 Y110.036 E20.67013
G1 X155.923 Y110.973 E20.70132
G1 X155.802 Y111.903 E20.73252
G1 X155.602 Y112.82 E20.76373
G1 X155.324 Y113.716 E20.79494
G1 X154.971 Y114.585 E20.82613
G1 X154.688 Y115.161 E20.84748
G1 X154.343 Y115.813 E20.87201
G1 X154.141 Y116.177 E20.88586
G1 X146.98 Y128.551 E21.36137
G1 X146.381 Y129.553 E21.4002
G1 X145.075 Y131.81 E21.48693
G1 X144.799 Y132.309 E21.50589
G1 X144.47 Y132.888 E21.52804
G1 X137.301 Y145.275 E22.00406
G1 X136.908 Y145.935 E22.02961
G1 X136.395 Y146.719 E22.06077
G1 X135.816 Y147.457 E22.09197
G1 X135.176 Y148.144 E22.1232
G1 X134.481 Y148.773 E22.15438
G1 X133.734 Y149.34 E22.18557
G1 X132.942 Y149.842 E22.21675
G1 X132.11 Y150.275 E22.24795
G1 X131.244 Y150.635 E22.27914
G1 X130.35 Y150.92 E22.31035
G1 X129.436 Y151.128 E22.34153
G1 X128.507 Y151.257 E22.37272
G1 X127.61 Y151.306 E22.4026
G1 X126.799 Y151.316 E22.42958
G1 X112.504 Y151.301 E22.90503
G1 X111.399 Y151.284 E22.94179
G1 X108.813 Y151.281 E23.0278
G1 X108.196 Y151.293 E23.04833
G1 X107.565 Y151.297 E23.06931
G1 X92.983 Y151.281 E23.55431
G1 X92.324 Y151.271 E23.57623
G1 X91.388 Y151.217 E23.60742
G1 X90.46 Y151.083 E23.6386
G1 X89.546 Y150.87 E23.66982
G1 X88.654 Y150.581 E23.701
G1 X87.79 Y150.217 E23.73219
G1 X86.96 Y149.78 E23.76338
G1 X86.17 Y149.274 E23.79459
G1 X85.426 Y148.703 E23.82578
G1 X84.733 Y148.071 E23.85698
G1 X84.097 Y147.382 E23.88816
G1 X83.522 Y146.641 E23.91936
G1 X83.087 Y145.979 E23.94571
G1 X82.573 Y145.126 E23.97883
G1 X75.58 Y132.984 E24.44486
G1 X74.983 Y131.912 E24.48567
G1 X73.708 Y129.699 E24.57062
G1 X73.37 Y129.141 E24.59232
G1 X73.095 Y128.671 E24.61043
G1 X65.771 Y115.954 E25.09853
G1 X65.422 Y115.329 E25.12234
G1 X65 Y114.491 E25.15355
G1 X64.651 Y113.621 E25.18472
G1 X64.377 Y112.724 E25.21592
G1 X64.181 Y111.807 E25.24711
G1 X64.064 Y110.876 E25.27832
G1 X64.026 Y109.939 E25.30951
G1 X64.068 Y109.002 E25.3407
G1 X64.19 Y108.072 E25.3719
G1 X64.391 Y107.156 E25.40309
G1 X64.669 Y106.26 E25.43429
G1 X65.022 Y105.392 E25.46546
G1 X65.415 Y104.615 E25.49442
G1 X65.819 Y103.893 E25.52194
G1 X73.027 Y91.437 E26.00059
G1 X73.632 Y90.425 E26.03981
G1 X74.922 Y88.197 E26.12544
G1 X75.224 Y87.65 E26.14622
G1 X75.53 Y87.112 E26.1668
G1 X82.703 Y74.717 E26.64312
G1 X83.086 Y74.075 E26.66798
G1 X83.601 Y73.291 E26.69918
G1 X84.18 Y72.554 E26.73035
G1 X84.82 Y71.868 E26.76156
G1 X85.516 Y71.24 E26.79274
G1 X86.263 Y70.673 E26.82393
G1 X87.056 Y70.171 E26.85515
G1 X87.889 Y69.74 E26.88634
G1 X88.755 Y69.38 E26.91753
G1 X89.649 Y69.096 E26.94873
G1 X90.563 Y68.889 E26.9799
G1 X91.492 Y68.76 E27.0111
G1 X92.081 Y68.72 E27.03073
G1 X92.738 Y68.693 E27.0526
G1 X93.201 Y68.684 E27.068
G1 X107.337 Y68.698 E27.53817
G1 X108.601 Y68.716 E27.58022
G1 F2700 E22.58022
;MESH:TopHat-2.stl
G0 F6000 X109.437 Y92.648
G0 X109.384 Y91.175
G0 X104.629 Y92.331
G0 X102.912 Y92.946
G0 X101.212 Y93.758
G0 X99.637 Y94.714
G0 X98.143 Y95.842
G0 X96.724 Y97.164
G0 X95.518 Y98.541
G0 X94.428 Y100.072
G0 X93.506 Y101.695
G0 X92.76 Y103.378
G0 X92.197 Y105.097
G0 X91.809 Y106.823
G0 X91.588 Y108.594
G0 X91.559 Y111.012
G0 X91.748 Y112.814
G0 X92.092 Y114.51
G0 X92.616 Y116.232
G0 X93.349 Y117.984
G0 X94.214 Y119.584
G0 X95.257 Y121.122
G0 X96.463 Y122.562
G0 X97.83 Y123.89
G0 X99.293 Y125.046
G0 X100.875 Y126.054
G0 X102.531 Y126.889
G0 X104.237 Y127.543
G0 X105.959 Y128.019
G0 X106.962 Y128.193
G0 X110.342 Y128.625
;TYPE:WALL-INNER
G1 F2700 E27.58022
G1 F1200 X111.009 Y128.601 E27.60241
G1 X111.973 Y128.523 E27.63458
G1 X112.839 Y128.41 E27.66363
G1 X113.684 Y128.26 E27.69217
G1 X114.55 Y128.064 E27.72171
G1 X115.418 Y127.823 E27.75167
G1 X116.287 Y127.536 E27.78211
G1 X117.15 Y127.202 E27.81288
G1 X118.054 Y126.796 E27.84584
G1 X118.864 Y126.384 E27.87607
G1 X119.668 Y125.923 E27.90689
G1 X120.453 Y125.418 E27.93794
G1 X121.219 Y124.871 E27.96925
G1 X121.96 Y124.282 E28.00073
G1 X122.671 Y123.654 E28.03228
G1 X123.391 Y122.949 E28.0658
G1 X124.011 Y122.276 E28.09623
G1 X124.608 Y121.559 E28.12726
G1 X125.177 Y120.8 E28.15881
G1 X125.707 Y120.014 E28.19034
G1 X126.194 Y119.205 E28.22175
G1 X126.637 Y118.378 E28.25296
G1 X127.036 Y117.534 E28.28401
G1 X127.39 Y116.679 E28.31478
G1 X127.695 Y115.814 E28.34529
G1 X127.968 Y114.912 E28.37663
G1 X128.175 Y114.076 E28.40528
G1 X128.349 Y113.206 E28.43479
G1 X128.486 Y112.29 E28.46559
G1 X128.573 Y111.418 E28.49474
G1 X128.619 Y110.537 E28.52408
G1 X128.625 Y109.658 E28.55332
G1 X128.601 Y108.979 E28.57592
G1 X128.523 Y108.027 E28.60769
G1 X128.41 Y107.161 E28.63673
G1 X128.26 Y106.316 E28.66528
G1 X128.064 Y105.45 E28.69481
G1 X127.823 Y104.582 E28.72477
G1 X127.536 Y103.713 E28.75521
G1 X127.202 Y102.85 E28.78599
G1 X126.796 Y101.946 E28.81895
G1 X126.383 Y101.136 E28.84919
G1 X125.923 Y100.332 E28.88
G1 X125.418 Y99.547 E28.91104
G1 X124.871 Y98.781 E28.94235
G1 X124.282 Y98.04 E28.97383
G1 X123.653 Y97.328 E29.00543
G1 X122.949 Y96.61 E29.03888
G1 X122.276 Y95.99 E29.06931
G1 X121.559 Y95.392 E29.10037
G1 X120.8 Y94.823 E29.13192
G1 X120.014 Y94.293 E29.16345
G1 X119.205 Y93.806 E29.19485
G1 X118.378 Y93.363 E29.22606
G1 X117.534 Y92.964 E29.25711
G1 X116.679 Y92.61 E29.28789
G1 X115.814 Y92.305 E29.31839
G1 X114.947 Y92.042 E29.34853
G1 X114.077 Y91.825 E29.37835
G1 X113.206 Y91.651 E29.40789
G1 X112.29 Y91.514 E29.4387
G1 X111.418 Y91.427 E29.46784
G1 X110.537 Y91.381 E29.49718
G1 X109.658 Y91.375 E29.52642
G1 X108.979 Y91.399 E29.54902
G1 X108.027 Y91.477 E29.58079
G1 X107.161 Y91.59 E29.60984
G1 X106.316 Y91.74 E29.63838
G1 X105.45 Y91.936 E29.66791
G1 X104.582 Y92.177 E29.69787
G1 X103.713 Y92.464 E29.72831
G1 X102.85 Y92.798 E29.75909
G1 X101.946 Y93.204 E29.79205
G1 X101.136 Y93.617 E29.82229
G1 X100.332 Y94.077 E29.8531
G1 X99.547 Y94.582 E29.88415
G1 X98.781 Y95.129 E29.91545
G1 X98.04 Y95.718 E29.94693
G1 X97.329 Y96.346 E29.97849
G1 X96.609 Y97.051 E30.012
G1 X95.989 Y97.724 E30.04244
G1 X95.392 Y98.441 E30.07347
G1 X94.823 Y99.2 E30.10502
G1 X94.293 Y99.986 E30.13655
G1 X93.806 Y100.795 E30.16796
G1 X93.363 Y101.622 E30.19916
G1 X92.964 Y102.466 E30.23021
G1 X92.61 Y103.321 E30.26099
G1 X92.305 Y104.186 E30.2915
G1 X92.042 Y105.053 E30.32163
G1 X91.825 Y105.923 E30.35145
G1 X91.651 Y106.794 E30.38099
G1 X91.514 Y107.71 E30.4118
G1 X91.427 Y108.582 E30.44095
G1 X91.381 Y109.463 E30.47029
G1 X91.375 Y110.342 E30.49952
G1 X91.399 Y111.021 E30.52212
G1 X91.477 Y111.973 E30.55389
G1 X91.59 Y112.839 E30.58294
G1 X91.74 Y113.684 E30.61148
G1 X91.936 Y114.55 E30.64102
G1 X92.177 Y115.418 E30.67098
G1 X92.464 Y116.287 E30.70142
G1 X92.798 Y117.15 E30.73219
G1 X93.204 Y118.054 E30.76515
G1 X93.617 Y118.864 E30.7954
G1 X94.077 Y119.668 E30.8262
G1 X94.582 Y120.453 E30.85725
G1 X95.129 Y121.219 E30.88856
G1 X95.718 Y121.96 E30.92004
G1 X96.346 Y122.671 E30.95159
G1 X97.051 Y123.391 E30.98511
G1 X97.724 Y124.011 E31.01554
G1 X98.441 Y124.608 E31.04657
G1 X99.2 Y125.177 E31.07812
G1 X99.986 Y125.707 E31.10965
G1 X100.795 Y126.194 E31.14106
G1 X101.622 Y126.637 E31.17226
G1 X102.466 Y127.036 E31.20331
G1 X103.321 Y127.39 E31.23409
G1 X104.186 Y127.695 E31.2646
G1 X105.053 Y127.958 E31.29473
G1 X105.923 Y128.175 E31.32456
G1 X106.794 Y128.349 E31.3541
G1 X107.71 Y128.486 E31.3849
G1 X108.582 Y128.573 E31.41405
G1 X109.463 Y128.619 E31.44339
