;FLAVOR:Marlin
;TIME:1845
;Filament used: 1.56725m
;Layer height: 0.2
;MINX:89
;MINY:89
;MINZ:0.2
;MAXX:131
;MAXY:131
;MAXZ:20
;Generated with Cura_SteamEngine 4.5.0
M140 S50
M105
M190 S50
M104 S200
M105
M109 S200
M82 ;absolute extrusion mode
M201 X500.00 Y500.00 Z100.00 E5000.00 ;Setup machine max acceleration
M203 X500.00 Y500.00 Z10.00 E50.00 ;Setup machine max feedrate
M204 P500.00 R1000.00 T500.00 ;Setup Print/Retract/Travel acceleration
M205 X8.00 Y8.00 Z0.40 E5.00 ;Setup Jerk
M220 S100 ;Reset Feedrate
M221 S100 ;Reset Flowrate

G28 ;Home

G92 E0 ;Reset Extruder
G1 Z2.0 F3000 ;Move Z Axis up
G1 X10.1 Y20 Z0.28 F5000.0 ;Move to start position
G1 X10.1 Y200.0 Z0.28 F1500.0 E15 ;Draw the first line
G1 X10.4 Y200.0 Z0.28 F5000.0 ;Move to side a little
G1 X10.4 Y20 Z0.28 F1500.0 E30 ;Draw the second line
G92 E0 ;Reset Extruder
G1 Z2.0 F3000 ;Move Z Axis up

G92 E0
G92 E0
G1 F2700 E-5
;LAYER_COUNT:100
;LAYER:0
M107
G0 F6000 X92.198 Y92.264 Z0.2
;TYPE:SKIRT
G1 F2700 E0
G1 F1200 X92.886 Y91.627 E0.03119
G1 X93.626 Y91.051 E0.06237
G1 X94.412 Y90.539 E0.09357
G1 X95.239 Y90.097 E0.12476
G1 X96.101 Y89.727 E0.15596
G1 X96.991 Y89.431 E0.18716
G1 X97.903 Y89.213 E0.21835
G1 X98.83 Y89.072 E0.24953
G1 X99.701 Y89.013 E0.27857
G1 X100.33 Y89 E0.29949
G1 X119.451 Y89.001 E0.93546
G1 X120.149 Y89.011 E0.95868
G1 X121.085 Y89.065 E0.98986
G1 X122.013 Y89.197 E1.02104
G1 X122.927 Y89.409 E1.05224
G1 X123.819 Y89.698 E1.08343
G1 X124.684 Y90.061 E1.11463
G1 X125.514 Y90.497 E1.14581
G1 X126.305 Y91.002 E1.17703
G1 X127.049 Y91.573 E1.20822
G1 X127.742 Y92.205 E1.23942
G1 X128.379 Y92.893 E1.2706
G1 X128.954 Y93.634 E1.3018
G1 X129.465 Y94.42 E1.33298
G1 X129.907 Y95.248 E1.3642
G1 X130.276 Y96.11 E1.39538
G1 X130.571 Y97 E1.42657
G1 X130.789 Y97.912 E1.45776
G1 X130.929 Y98.84 E1.48897
G1 X130.987 Y99.701 E1.51767
G1 X131 Y100.33 E1.5386
G1 X130.999 Y119.4 E2.17287
G1 X130.99 Y120.127 E2.19705
G1 X130.939 Y121.064 E2.22826
G1 X130.807 Y121.992 E2.25944
G1 X130.598 Y122.906 E2.29062
G1 X130.311 Y123.799 E2.32182
G1 X129.949 Y124.665 E2.35304
G1 X129.515 Y125.496 E2.38422
G1 X129.011 Y126.287 E2.41541
G1 X128.442 Y127.032 E2.44659
G1 X127.811 Y127.727 E2.47782
G1 X127.124 Y128.365 E2.509
G1 X126.385 Y128.942 E2.54018
G1 X125.599 Y129.454 E2.57138
G1 X124.773 Y129.897 E2.60256
G1 X123.911 Y130.269 E2.63378
G1 X123.022 Y130.565 E2.66495
G1 X122.11 Y130.785 E2.69615
G1 X121.183 Y130.926 E2.72734
G1 X120.299 Y130.987 E2.75681
G1 X119.67 Y131 E2.77773
G1 X100.565 Y130.999 E3.41317
G1 X99.867 Y130.99 E3.43639
G1 X98.931 Y130.938 E3.46757
G1 X98.002 Y130.806 E3.49878
G1 X97.088 Y130.596 E3.52997
G1 X96.195 Y130.309 E3.56116
G1 X95.33 Y129.946 E3.59237
G1 X94.499 Y129.512 E3.62355
G1 X93.708 Y129.008 E3.65474
G1 X92.963 Y128.438 E3.68594
G1 X92.269 Y127.807 E3.71714
G1 X91.632 Y127.12 E3.7483
G1 X91.055 Y126.38 E3.77951
G1 X90.543 Y125.594 E3.81071
G1 X90.1 Y124.767 E3.84191
G1 X89.729 Y123.906 E3.8731
G1 X89.433 Y123.016 E3.90429
G1 X89.214 Y122.104 E3.93549
G1 X89.073 Y121.177 E3.96667
G1 X89.013 Y120.288 E3.99631
G1 X89 Y119.658 E4.01727
G1 X89.001 Y100.525 E4.65363
G1 X89.01 Y99.86 E4.67575
G1 X89.063 Y98.924 E4.70694
G1 X89.195 Y97.995 E4.73814
G1 X89.406 Y97.081 E4.76934
G1 X89.694 Y96.189 E4.80052
G1 X90.057 Y95.324 E4.83172
G1 X90.492 Y94.493 E4.86292
G1 X90.996 Y93.703 E4.89408
G1 X91.566 Y92.958 E4.92528
G1 X92.198 Y92.264 E4.9565
G0 F6000 X92.589 Y92.439
G1 F1200 X93.274 Y91.823 E4.98714
G1 X94.01 Y91.27 E5.01776
G1 X94.791 Y90.782 E5.04839
G1 X95.611 Y90.364 E5.07901
G1 X96.465 Y90.019 E5.10964
G1 X97.345 Y89.749 E5.14026
G1 X98.245 Y89.557 E5.17086
G1 X99.159 Y89.443 E5.2015
G1 X99.712 Y89.413 E5.21992
G1 X100.33 Y89.4 E5.24048
G1 X119.445 Y89.401 E5.87625
G1 X120.143 Y89.411 E5.89946
G1 X121.062 Y89.464 E5.93008
G1 X121.973 Y89.597 E5.9607
G1 X122.869 Y89.808 E5.99132
G1 X123.743 Y90.096 E6.02192
G1 X124.59 Y90.459 E6.05257
G1 X125.401 Y90.894 E6.08318
G1 X126.171 Y91.398 E6.11379
G1 X126.895 Y91.967 E6.14442
G1 X127.567 Y92.597 E6.17506
G1 X128.182 Y93.282 E6.20567
G1 X128.735 Y94.018 E6.23629
G1 X129.222 Y94.799 E6.26691
G1 X129.639 Y95.62 E6.29753
G1 X129.984 Y96.474 E6.32817
G1 X130.253 Y97.354 E6.35877
G1 X130.445 Y98.255 E6.38941
G1 X130.558 Y99.168 E6.42001
G1 X130.587 Y99.712 E6.43813
G1 X130.6 Y100.33 E6.45869
G1 X130.599 Y119.395 E7.0928
G1 X130.59 Y120.122 E7.11698
G1 X130.539 Y121.041 E7.14759
G1 X130.408 Y121.953 E7.17823
G1 X130.198 Y122.849 E7.20884
G1 X129.912 Y123.724 E7.23946
G1 X129.551 Y124.571 E7.27008
G1 X129.117 Y125.383 E7.30071
G1 X128.615 Y126.155 E7.33134
G1 X128.047 Y126.88 E7.36197
G1 X127.419 Y127.553 E7.39258
G1 X126.735 Y128.169 E7.4232
G1 X126 Y128.723 E7.45381
G1 X125.22 Y129.212 E7.48443
G1 X124.4 Y129.631 E7.51506
G1 X123.547 Y129.977 E7.54568
G1 X122.667 Y130.248 E7.5763
G1 X121.767 Y130.441 E7.60692
G1 X120.853 Y130.556 E7.63756
G1 X120.288 Y130.587 E7.65638
G1 X119.67 Y130.6 E7.67693
G1 X100.57 Y130.599 E8.3122
G1 X99.872 Y130.59 E8.33542
G1 X98.953 Y130.538 E8.36604
G1 X98.042 Y130.407 E8.39665
G1 X97.146 Y130.197 E8.42726
G1 X96.271 Y129.91 E8.45788
G1 X95.424 Y129.548 E8.48852
G1 X94.612 Y129.114 E8.51914
G1 X93.841 Y128.612 E8.54974
G1 X93.116 Y128.044 E8.58038
G1 X92.443 Y127.415 E8.61101
G1 X91.828 Y126.731 E8.64161
G1 X91.274 Y125.996 E8.67222
G1 X90.786 Y125.215 E8.70285
G1 X90.367 Y124.395 E8.73348
G1 X90.021 Y123.542 E8.76409
G1 X89.751 Y122.662 E8.79471
G1 X89.558 Y121.761 E8.82536
G1 X89.444 Y120.848 E8.85596
G1 X89.413 Y120.277 E8.87498
G1 X89.4 Y119.658 E8.89557
G1 X89.401 Y100.531 E9.53174
G1 X89.41 Y99.866 E9.55386
G1 X89.462 Y98.946 E9.58451
G1 X89.594 Y98.035 E9.61512
G1 X89.805 Y97.139 E9.64574
G1 X90.092 Y96.264 E9.67637
G1 X90.455 Y95.418 E9.70699
G1 X90.889 Y94.606 E9.73761
G1 X91.392 Y93.835 E9.76823
G1 X91.961 Y93.111 E9.79885
G1 X92.589 Y92.439 E9.82945
G0 F6000 X92.981 Y92.617
G1 F1200 X93.662 Y92.024 E9.85948
G1 X94.394 Y91.494 E9.88954
G1 X95.169 Y91.031 E9.91956
G1 X95.982 Y90.638 E9.9496
G1 X96.827 Y90.318 E9.97965
G1 X97.696 Y90.075 E10.00966
G1 X98.584 Y89.909 E10.03971
G1 X99.723 Y89.813 E10.07773
G1 X100.33 Y89.8 E10.09792
G1 X119.439 Y89.801 E10.73349
G1 X120.137 Y89.811 E10.75671
G1 X121.039 Y89.864 E10.78676
G1 X121.932 Y89.996 E10.81678
G1 X122.81 Y90.207 E10.84682
G1 X123.666 Y90.495 E10.87686
G1 X124.493 Y90.857 E10.90688
G1 X125.285 Y91.292 E10.93694
G1 X126.036 Y91.794 E10.96698
G1 X126.739 Y92.361 E10.99702
G1 X127.389 Y92.988 E11.02706
G1 X127.981 Y93.67 E11.05709
G1 X128.511 Y94.401 E11.08713
G1 X128.973 Y95.177 E11.11716
G1 X129.366 Y95.99 E11.1472
G1 X129.684 Y96.835 E11.17723
G1 X129.927 Y97.705 E11.20727
G1 X130.092 Y98.593 E11.23731
G1 X130.187 Y99.723 E11.27503
G1 X130.2 Y100.33 E11.29522
G1 X130.199 Y119.39 E11.92916
G1 X130.19 Y120.117 E11.95334
G1 X130.139 Y121.019 E11.98339
G1 X130.008 Y121.913 E12.01344
G1 X129.799 Y122.791 E12.04346
G1 X129.513 Y123.648 E12.07351
G1 X129.152 Y124.476 E12.10355
G1 X128.72 Y125.268 E12.13356
G1 X128.219 Y126.02 E12.16361
G1 X127.653 Y126.724 E12.19366
G1 X127.028 Y127.375 E12.22367
G1 X126.347 Y127.969 E12.25373
G1 X125.616 Y128.5 E12.28378
G1 X124.842 Y128.964 E12.31379
G1 X124.029 Y129.358 E12.34384
G1 X123.185 Y129.678 E12.37386
G1 X122.315 Y129.923 E12.40393
G1 X121.428 Y130.089 E12.43394
G1 X120.277 Y130.187 E12.47236
G1 X119.67 Y130.2 E12.49255
G1 X100.575 Y130.199 E13.12766
G1 X99.877 Y130.19 E13.15087
G1 X98.976 Y130.139 E13.18089
G1 X98.082 Y130.007 E13.21095
G1 X97.204 Y129.798 E13.24096
G1 X96.347 Y129.511 E13.27102
G1 X95.52 Y129.15 E13.30104
G1 X94.727 Y128.717 E13.33109
G1 X93.976 Y128.216 E13.36111
G1 X93.272 Y127.65 E13.39116
G1 X92.621 Y127.024 E13.4212
G1 X92.028 Y126.343 E13.45123
G1 X91.498 Y125.612 E13.48126
G1 X91.034 Y124.837 E13.51131
G1 X90.64 Y124.024 E13.54135
G1 X90.32 Y123.18 E13.57138
G1 X90.076 Y122.31 E13.60143
G1 X89.91 Y121.422 E13.63148
G1 X89.813 Y120.267 E13.67003
G1 X89.8 Y119.658 E13.69029
G1 X89.801 Y100.536 E14.32629
G1 X89.81 Y99.871 E14.34841
G1 X89.862 Y98.969 E14.37846
G1 X89.994 Y98.076 E14.40848
G1 X90.204 Y97.198 E14.43851
G1 X90.491 Y96.341 E14.46857
G1 X90.853 Y95.514 E14.49859
G1 X91.286 Y94.722 E14.52861
G1 X91.788 Y93.971 E14.55866
G1 X92.355 Y93.267 E14.58872
G1 X92.981 Y92.617 E14.61874
G1 F2700 E9.61874
;MESH:CubewHole.stl
G0 F6000 X106.97 Y106.97
G0 X105.552 Y105.552
G0 X104.528 Y110
G0 X106.13 Y113.87
G0 X110 Y116.082
;TYPE:WALL-INNER
G1 F2700 E14.61874
G1 F1200 X114.301 Y114.301 E14.77357
G1 X116.082 Y110 E14.9284
G1 X114.301 Y105.699 E15.08323
G1 X110 Y103.918 E15.23807
G1 X105.699 Y105.699 E15.3929
G1 X103.918 Y110 E15.54773
G1 X105.699 Y114.301 E15.70256
G1 X110 Y116.082 E15.85739
G0 F6000 X110 Y115.649
G1 F1200 X113.995 Y113.995 E16.0012
G1 X115.649 Y110 E16.14501
G1 X113.995 Y106.005 E16.28883
G1 X110 Y104.351 E16.43264
G1 X106.005 Y106.005 E16.57645
G1 X104.351 Y110 E16.72026
G1 X106.005 Y113.995 E16.86408
G1 X110 Y115.649 E17.00789
G0 F6000 X110 Y115.216
;TYPE:WALL-OUTER
G1 F1200 X113.689 Y113.689 E17.14068
G1 X115.216 Y110 E17.27347
G1 X113.689 Y106.311 E17.40627
G1 X110 Y104.784 E17.53906
G1 X106.311 Y106.311 E17.67185
G1 X104.784 Y110 E17.80464
G1 X106.311 Y113.689 E17.93744
G1 X110 Y115.216 E18.07023
G0 F6000 X110 Y115.656
G1 F2700 E13.07023
G0 F6000 X105.552 Y114.448
G0 X106.97 Y113.03
G0 X99.335 Y114.448
G0 X101.21 Y114.448
G0 X101 Y119
;TYPE:WALL-INNER
G1 F2700 E18.07023
G1 F1200 X101 Y101 E18.66891
G1 X119 Y101 E19.26759
G1 X119 Y119 E19.86628
G1 X101 Y119 E20.46496
G0 F6000 X100.6 Y119.4
G1 F1200 X100.6 Y100.6 E21.09025
G1 X119.4 Y100.6 E21.71554
G1 X119.4 Y119.4 E22.34083
G1 X100.6 Y119.4 E22.96612
G0 F6000 X100.2 Y119.8
;TYPE:WALL-OUTER
G1 F1200 X100.2 Y100.2 E23.61802
G1 X119.8 Y100.2 E24.26992
G1 X119.8 Y119.8 E24.92182
G1 X100.2 Y119.8 E25.57372
G0 F6000 X100.47 Y119.53
G0 X101.11 Y118.61
G0 X101.39 Y118.61
;TYPE:SKIN
G1 F1200 X101.39 Y101.39 E26.14646
G1 X118.61 Y101.39 E26.71919
G1 X118.61 Y118.61 E27.29193
G1 X101.39 Y118.61 E27.86467
G1 F2700 E22.86467
G0 F6000 X101.11 Y118.61
G0 X101.21 Y114.389
G0 X99.335 Y114.389
G0 X106.61 Y112.154
G0 X104.88 Y112.871
G0 X105.616 Y114.389
G0 X105.401 Y114.599
G1 F2700 E27.86467
G1 F1200 X110 Y116.504 E28.03024
G1 X114.599 Y114.599 E28.19581
G1 X116.504 Y110 E28.36137
G1 X114.599 Y105.401 E28.52694
G1 X110 Y103.496 E28.69251
G1 X105.401 Y105.401 E28.85807
G1 X103.496 Y110 E29.02364
G1 X105.401 Y114.599 E29.18921
G1 F2700 E24.18921
G0 F6000 X105.616 Y114.389
G0 X105.552 Y114.448
G0 X106.97 Y113.03
G0 X105.552 Y120.665
G0 X105.552 Y118.79
G0 X102.044 Y118.89
G0 X102.044 Y118.449
G1 F2700 E29.18921
G1 F1200 X101.549 Y117.954 E29.21249
G0 F6000 X101.549 Y117.388
G1 F1200 X102.61 Y118.449 E29.2624
G0 F6000 X103.176 Y118.449
G1 F1200 X101.549 Y116.823 E29.3389
G0 F6000 X101.549 Y116.257
G1 F1200 X103.741 Y118.449 E29.44201
G0 F6000 X104.307 Y118.449
G1 F1200 X101.549 Y115.691 E29.57174
G0 F6000 X101.549 Y115.126
G1 F1200 X104.873 Y118.449 E29.72806
G0 F6000 X105.438 Y118.449
G1 F1200 X101.549 Y114.56 E29.91099
G0 F6000 X101.549 Y113.994
G1 F1200 X106.004 Y118.449 E30.12054
G0 F6000 X106.57 Y118.449
G1 F1200 X101.549 Y113.429 E30.35669
G0 F6000 X101.549 Y112.863
G1 F1200 X107.135 Y118.449 E30.61944
G0 F6000 X107.701 Y118.449
G1 F1200 X101.549 Y112.297 E30.90881
G0 F6000 X101.549 Y111.732
G1 F1200 X108.267 Y118.449 E31.22478
G0 F6000 X108.832 Y118.449
G1 F1200 X101.549 Y111.166 E31.56735
G0 F6000 X101.549 Y110.6
G1 F1200 X105.003 Y114.054 E31.72981
G0 F6000 X105.408 Y113.887
G0 X105.008 Y112.921
G0 X104.603 Y113.088
G1 F1200 X101.549 Y110.035 E31.87344
G0 F6000 X101.549 Y109.469
G1 F1200 X104.202 Y112.122 E31.99823
G0 F6000 X104.608 Y111.955
G0 X104.208 Y110.989
G0 X103.802 Y111.156
G1 F1200 X101.549 Y108.903 E32.1042
G0 F6000 X101.549 Y108.337
G1 F1200 X103.402 Y110.19 E32.19136
G0 F6000 X103.456 Y109.679
G1 F1200 X101.549 Y107.772 E32.28106
G0 F6000 X101.549 Y107.206
G1 F1200 X103.622 Y109.279 E32.37857
G0 F6000 X103.787 Y108.878
G1 F1200 X101.549 Y106.64 E32.48384
G0 F6000 X101.549 Y106.075
G1 F1200 X103.953 Y108.478 E32.59689
G0 F6000 X104.119 Y108.079
G1 F1200 X101.549 Y105.509 E32.71778
G0 F6000 X101.549 Y104.943
G1 F1200 X104.284 Y107.678 E32.84642
G0 F6000 X104.45 Y107.278
G1 F1200 X101.549 Y104.378 E32.98285
G0 F6000 X101.549 Y103.812
G1 F1200 X104.615 Y106.878 E33.12707
G0 F6000 X104.781 Y106.478
G1 F1200 X101.549 Y103.246 E33.27909
G0 F6000 X101.549 Y102.681
G1 F1200 X104.947 Y106.078 E33.4389
G0 F6000 X105.112 Y105.678
G1 F1200 X101.549 Y102.115 E33.60649
G0 F6000 X101.549 Y101.549
G1 F1200 X105.278 Y105.278 E33.78189
G0 F6000 X105.677 Y105.112
G1 F1200 X102.115 Y101.549 E33.94946
G0 F6000 X102.681 Y101.549
G1 F1200 X106.078 Y104.946 E34.10925
G0 F6000 X106.478 Y104.781
G1 F1200 X103.246 Y101.549 E34.26127
G0 F6000 X103.812 Y101.549
G1 F1200 X106.877 Y104.615 E34.40546
G0 F6000 X107.277 Y104.449
G1 F1200 X104.378 Y101.549 E34.54185
G0 F6000 X104.943 Y101.549
G1 F1200 X107.678 Y104.284 E34.67049
G0 F6000 X108.078 Y104.118
G1 F1200 X105.509 Y101.549 E34.79133
G0 F6000 X106.075 Y101.549
G1 F1200 X108.477 Y103.952 E34.90434
G0 F6000 X108.878 Y103.787
G1 F1200 X106.64 Y101.549 E35.00961
G0 F6000 X107.206 Y101.549
G1 F1200 X109.278 Y103.621 E35.10707
G0 F6000 X109.678 Y103.456
G1 F1200 X107.772 Y101.549 E35.19674
G0 F6000 X108.337 Y101.549
G1 F1200 X110.189 Y103.401 E35.28385
G0 F6000 X110.02 Y103.807
G0 X110.986 Y104.207
G0 X111.155 Y103.801
G1 F1200 X108.903 Y101.549 E35.38978
G0 F6000 X109.469 Y101.549
G1 F1200 X112.121 Y104.202 E35.51455
G0 F6000 X111.953 Y104.607
G0 X112.919 Y105.007
G0 X113.087 Y104.602
G1 F1200 X110.035 Y101.549 E35.65813
G0 F6000 X110.6 Y101.549
G1 F1200 X114.053 Y105.002 E35.82055
G0 F6000 X113.885 Y105.407
G0 X114.591 Y106.112
G0 X114.996 Y105.945
G1 F1200 X118.449 Y109.398 E35.98296
G0 F6000 X118.449 Y109.964
G1 F1200 X115.396 Y106.911 E36.12657
G0 F6000 X114.991 Y107.078
G0 X115.391 Y108.043
G0 X115.796 Y107.876
G1 F1200 X118.449 Y110.529 E36.25136
G0 F6000 X118.449 Y111.095
G1 F1200 X116.196 Y108.842 E36.35733
G0 F6000 X115.791 Y109.009
G0 X116.191 Y109.975
G0 X116.596 Y109.808
G1 F1200 X118.449 Y111.661 E36.44449
G0 F6000 X118.449 Y112.227
G1 F1200 X116.542 Y110.319 E36.53421
G0 F6000 X116.377 Y110.72
G1 F1200 X118.449 Y112.792 E36.63167
G0 F6000 X118.449 Y113.358
G1 F1200 X116.211 Y111.12 E36.73694
G0 F6000 X116.045 Y111.519
G1 F1200 X118.449 Y113.924 E36.85004
G0 F6000 X118.449 Y114.489
G1 F1200 X115.879 Y111.92 E36.9709
G0 F6000 X115.714 Y112.32
G1 F1200 X118.449 Y115.055 E37.09955
G0 F6000 X118.449 Y115.621
G1 F1200 X115.548 Y112.719 E37.23603
G0 F6000 X115.382 Y113.12
G1 F1200 X118.449 Y116.186 E37.38027
G0 F6000 X118.449 Y116.752
G1 F1200 X115.217 Y113.52 E37.53229
G0 F6000 X115.051 Y113.919
G1 F1200 X118.449 Y117.318 E37.69214
G0 F6000 X118.449 Y117.883
G1 F1200 X114.885 Y114.32 E37.85976
G0 F6000 X114.72 Y114.72
G1 F1200 X118.449 Y118.449 E38.03516
G0 F6000 X117.883 Y118.449
G1 F1200 X114.32 Y114.886 E38.20275
G0 F6000 X113.92 Y115.051
G1 F1200 X117.318 Y118.449 E38.36259
G0 F6000 X116.752 Y118.449
G1 F1200 X113.521 Y115.218 E38.51456
G0 F6000 X113.12 Y115.383
G1 F1200 X116.186 Y118.449 E38.65878
G0 F6000 X115.621 Y118.449
G1 F1200 X112.72 Y115.549 E38.79521
G0 F6000 X112.321 Y115.715
G1 F1200 X115.055 Y118.449 E38.92381
G0 F6000 X114.489 Y118.449
G1 F1200 X111.92 Y115.88 E39.04464
G0 F6000 X111.52 Y116.046
G1 F1200 X113.924 Y118.449 E39.1577
G0 F6000 X113.358 Y118.449
G1 F1200 X111.121 Y116.212 E39.26292
G0 F6000 X110.72 Y116.377
G1 F1200 X112.792 Y118.449 E39.36038
G0 F6000 X112.227 Y118.449
G1 F1200 X110.32 Y116.543 E39.45006
G0 F6000 X109.809 Y116.597
G1 F1200 X111.661 Y118.449 E39.53717
G0 F6000 X111.095 Y118.449
G1 F1200 X108.843 Y116.197 E39.6431
G0 F6000 X109.011 Y115.792
G0 X108.045 Y115.392
G0 X107.877 Y115.797
G1 F1200 X110.529 Y118.449 E39.76784
G0 F6000 X109.964 Y118.449
G1 F1200 X106.911 Y115.396 E39.91144
G0 F6000 X107.079 Y114.992
G0 X106.113 Y114.592
G0 X105.945 Y114.996
G1 F1200 X109.398 Y118.449 E40.07386
G0 F6000 X109.398 Y118.89
G0 X118.818 Y118.818
G0 X118.89 Y108.832
G0 X118.449 Y108.832
