;FLAVOR:Marlin
;TIME:1145
;Filament used: 0.436889m
;Layer height: 0.2
;MINX:96.5
;MINY:91.999
;MINZ:0.2
;MAXX:123.5
;MAXY:128.001
;MAXZ:20
;Generated with Cura_SteamEngine 4.5.0
M140 S50
M105
M190 S50
M104 S200
M105
M109 S200
M82 ;absolute extrusion mode
M201 X500.00 Y500.00 Z100.00 E5000.00 ;Setup machine max acceleration
M203 X500.00 Y500.00 Z10.00 E50.00 ;Setup machine max feedrate
M204 P500.00 R1000.00 T500.00 ;Setup Print/Retract/Travel acceleration
M205 X8.00 Y8.00 Z0.40 E5.00 ;Setup Jerk
M220 S100 ;Reset Feedrate
M221 S100 ;Reset Flowrate

G28 ;Home

G92 E0 ;Reset Extruder
G1 Z2.0 F3000 ;Move Z Axis up
G1 X10.1 Y20 Z0.28 F5000.0 ;Move to start position
G1 X10.1 Y200.0 Z0.28 F1500.0 E15 ;Draw the first line
G1 X10.4 Y200.0 Z0.28 F5000.0 ;Move to side a little
G1 X10.4 Y20 Z0.28 F1500.0 E30 ;Draw the second line
G92 E0 ;Reset Extruder
G1 Z2.0 F3000 ;Move Z Axis up

G92 E0
G92 E0
G1 F2700 E-5
;LAYER_COUNT:100
;LAYER:0
M107
G0 F6000 X99.597 Y95.484 Z0.2
;TYPE:SKIRT
G1 F2700 E0
G1 F1200 X99.709 Y95.368 E0.00536
G1 X100.388 Y94.722 E0.03653
G1 X101.12 Y94.136 E0.06772
G1 X101.9 Y93.614 E0.09894
G1 X102.721 Y93.161 E0.13013
G1 X103.578 Y92.779 E0.16133
G1 X104.464 Y92.472 E0.19252
G1 X105.373 Y92.241 E0.22371
G1 X106.298 Y92.089 E0.25489
G1 X107.425 Y92.011 E0.29247
G1 X108.179 Y91.999 E0.31755
G1 X111.834 Y92 E0.43911
G1 X112.532 Y92.01 E0.46233
G1 X113.468 Y92.064 E0.49352
G1 X114.396 Y92.196 E0.52469
G1 X115.31 Y92.408 E0.5559
G1 X116.202 Y92.697 E0.58708
G1 X117.067 Y93.06 E0.61828
G1 X117.897 Y93.496 E0.64947
G1 X118.688 Y94.001 E0.68068
G1 X119.432 Y94.572 E0.71187
G1 X120.05 Y95.13 E0.73957
G1 X120.166 Y95.243 E0.74495
G1 X120.809 Y95.925 E0.77613
G1 X121.392 Y96.66 E0.80733
G1 X121.91 Y97.442 E0.83853
G1 X122.359 Y98.265 E0.86971
G1 X122.737 Y99.123 E0.9009
G1 X123.041 Y100.011 E0.93211
G1 X123.267 Y100.921 E0.9633
G1 X123.416 Y101.847 E0.9945
G1 X123.488 Y102.908 E1.02987
G1 X123.5 Y103.635 E1.05405
G1 X123.499 Y116.302 E1.47536
G1 X123.489 Y117.027 E1.49947
G1 X123.436 Y117.963 E1.53065
G1 X123.304 Y118.892 E1.56186
G1 X123.092 Y119.805 E1.59304
G1 X122.804 Y120.698 E1.62424
G1 X122.441 Y121.563 E1.65544
G1 X122.006 Y122.393 E1.68661
G1 X121.501 Y123.184 E1.71782
G1 X120.931 Y123.928 E1.749
G1 X120.403 Y124.516 E1.77528
G1 X120.291 Y124.632 E1.78065
G1 X119.612 Y125.278 E1.81182
G1 X118.88 Y125.864 E1.843
G1 X118.1 Y126.386 E1.87422
G1 X117.279 Y126.839 E1.90541
G1 X116.422 Y127.221 E1.93662
G1 X115.536 Y127.528 E1.9678
G1 X114.627 Y127.759 E1.999
G1 X113.702 Y127.911 E2.03018
G1 X112.575 Y127.989 E2.06775
G1 X111.821 Y128.001 E2.09283
G1 X108.167 Y128 E2.21436
G1 X107.466 Y127.99 E2.23768
G1 X106.53 Y127.937 E2.26886
G1 X105.601 Y127.804 E2.30008
G1 X104.688 Y127.592 E2.33125
G1 X103.795 Y127.304 E2.36246
G1 X102.931 Y126.94 E2.39364
G1 X102.1 Y126.504 E2.42485
G1 X101.31 Y125.999 E2.45604
G1 X100.566 Y125.429 E2.48721
G1 X99.879 Y124.804 E2.5181
G1 X99.766 Y124.692 E2.52339
G1 X99.129 Y124.004 E2.55458
G1 X98.553 Y123.264 E2.58577
G1 X98.041 Y122.478 E2.61697
G1 X97.599 Y121.651 E2.64816
G1 X97.228 Y120.789 E2.67937
G1 X96.933 Y119.899 E2.71055
G1 X96.714 Y118.987 E2.74175
G1 X96.574 Y118.06 E2.77293
G1 X96.512 Y117.062 E2.80619
G1 X96.5 Y116.279 E2.83224
G1 X96.501 Y103.641 E3.25258
G1 X96.511 Y102.963 E3.27513
G1 X96.565 Y102.026 E3.30635
G1 X96.698 Y101.098 E3.33753
G1 X96.91 Y100.185 E3.3687
G1 X97.199 Y99.292 E3.39992
G1 X97.563 Y98.428 E3.4311
G1 X98 Y97.598 E3.4623
G1 X98.505 Y96.808 E3.49349
G1 X99.076 Y96.064 E3.52468
G1 X99.597 Y95.484 E3.55061
G0 F6000 X99.996 Y95.646
G1 F1200 X100.664 Y95.012 E3.58124
G1 X101.384 Y94.439 E3.61185
G1 X102.151 Y93.93 E3.64246
G1 X102.96 Y93.489 E3.67311
G1 X103.803 Y93.121 E3.7037
G1 X104.676 Y92.827 E3.73434
G1 X105.57 Y92.609 E3.76495
G1 X106.481 Y92.471 E3.79559
G1 X107.432 Y92.411 E3.82729
G1 X108.179 Y92.399 E3.85213
G1 X111.828 Y92.4 E3.9735
G1 X112.526 Y92.41 E3.99672
G1 X113.445 Y92.463 E4.02734
G1 X114.356 Y92.596 E4.05796
G1 X115.252 Y92.807 E4.08857
G1 X116.126 Y93.095 E4.11918
G1 X116.973 Y93.458 E4.14983
G1 X117.784 Y93.893 E4.18044
G1 X118.554 Y94.397 E4.21105
G1 X119.278 Y94.966 E4.24167
G1 X119.771 Y95.416 E4.26388
G1 X119.887 Y95.529 E4.26926
G1 X120.517 Y96.2 E4.29987
G1 X121.088 Y96.922 E4.33049
G1 X121.593 Y97.692 E4.36112
G1 X122.03 Y98.502 E4.39173
G1 X122.395 Y99.347 E4.42234
G1 X122.685 Y100.221 E4.45297
G1 X122.899 Y101.117 E4.48361
G1 X123.033 Y102.027 E4.5142
G1 X123.088 Y102.915 E4.5438
G1 X123.1 Y103.635 E4.56775
G1 X123.099 Y116.296 E4.98885
G1 X123.089 Y117.021 E5.01297
G1 X123.036 Y117.94 E5.04359
G1 X122.904 Y118.851 E5.0742
G1 X122.693 Y119.748 E5.10485
G1 X122.406 Y120.622 E5.13545
G1 X122.043 Y121.468 E5.16607
G1 X121.608 Y122.28 E5.1967
G1 X121.105 Y123.051 E5.22732
G1 X120.537 Y123.775 E5.25793
G1 X120.004 Y124.354 E5.2841
G1 X119.336 Y124.988 E5.31474
G1 X118.616 Y125.561 E5.34534
G1 X117.849 Y126.07 E5.37596
G1 X117.04 Y126.511 E5.4066
G1 X116.197 Y126.879 E5.4372
G1 X115.324 Y127.173 E5.46784
G1 X114.43 Y127.391 E5.49844
G1 X113.519 Y127.529 E5.52909
G1 X112.568 Y127.589 E5.56078
G1 X111.821 Y127.601 E5.58563
G1 X108.173 Y127.6 E5.70696
G1 X107.472 Y127.59 E5.73028
G1 X106.553 Y127.537 E5.7609
G1 X105.642 Y127.404 E5.79152
G1 X104.746 Y127.193 E5.82213
G1 X103.871 Y126.905 E5.85277
G1 X103.025 Y126.542 E5.88339
G1 X102.214 Y126.107 E5.914
G1 X101.443 Y125.603 E5.94464
G1 X100.719 Y125.034 E5.97526
G1 X100.161 Y124.52 E6.0005
G1 X100.048 Y124.408 E6.00579
G1 X99.423 Y123.732 E6.03641
G1 X98.859 Y123.004 E6.06704
G1 X98.36 Y122.23 E6.09767
G1 X97.93 Y121.416 E6.12829
G1 X97.573 Y120.568 E6.15889
G1 X97.29 Y119.692 E6.18951
G1 X97.084 Y118.794 E6.22015
G1 X96.958 Y117.882 E6.25077
G1 X96.911 Y117.056 E6.27829
G1 X96.9 Y116.279 E6.30414
G1 X96.901 Y103.647 E6.72428
G1 X96.911 Y102.969 E6.74683
G1 X96.965 Y102.05 E6.77745
G1 X97.098 Y101.139 E6.80807
G1 X97.309 Y100.243 E6.83869
G1 X97.598 Y99.368 E6.86934
G1 X97.961 Y98.522 E6.89996
G1 X98.397 Y97.711 E6.93058
G1 X98.901 Y96.941 E6.96119
G1 X99.47 Y96.217 E6.99182
G1 X99.996 Y95.646 E7.01764
G0 F6000 X100.284 Y95.924
G1 F1200 X100.94 Y95.303 E7.04768
G1 X101.647 Y94.742 E7.0777
G1 X102.402 Y94.246 E7.10775
G1 X103.198 Y93.819 E7.13779
G1 X104.028 Y93.463 E7.16783
G1 X104.886 Y93.183 E7.19785
G1 X105.766 Y92.979 E7.22789
G1 X106.661 Y92.854 E7.25795
G1 X107.439 Y92.811 E7.28386
G1 X108.179 Y92.799 E7.30848
G1 X111.822 Y92.8 E7.42965
G1 X112.52 Y92.81 E7.45286
G1 X113.422 Y92.863 E7.48292
G1 X114.315 Y92.995 E7.51294
G1 X115.193 Y93.206 E7.54297
G1 X116.049 Y93.494 E7.57301
G1 X116.876 Y93.856 E7.60304
G1 X117.668 Y94.291 E7.63309
G1 X118.419 Y94.793 E7.66314
G1 X119.122 Y95.36 E7.69318
G1 X119.607 Y95.816 E7.71532
G1 X120.226 Y96.474 E7.74537
G1 X120.783 Y97.184 E7.77538
G1 X121.276 Y97.941 E7.80543
G1 X121.7 Y98.738 E7.83545
G1 X122.052 Y99.57 E7.8655
G1 X122.328 Y100.43 E7.89554
G1 X122.528 Y101.311 E7.92559
G1 X122.649 Y102.206 E7.95563
G1 X122.688 Y102.923 E7.97951
G1 X122.7 Y103.635 E8.00319
G1 X122.699 Y116.291 E8.42413
G1 X122.689 Y117.016 E8.44825
G1 X122.637 Y117.917 E8.47827
G1 X122.505 Y118.811 E8.50832
G1 X122.294 Y119.689 E8.53836
G1 X122.007 Y120.545 E8.56839
G1 X121.645 Y121.372 E8.59841
G1 X121.211 Y122.165 E8.62848
G1 X120.709 Y122.915 E8.6585
G1 X120.143 Y123.619 E8.68854
G1 X119.716 Y124.076 E8.70934
G1 X119.06 Y124.697 E8.73939
G1 X118.353 Y125.258 E8.76941
G1 X117.598 Y125.754 E8.79945
G1 X116.802 Y126.181 E8.8295
G1 X115.972 Y126.537 E8.85953
G1 X115.114 Y126.817 E8.88955
G1 X114.234 Y127.021 E8.9196
G1 X113.339 Y127.146 E8.94965
G1 X112.561 Y127.189 E8.97557
G1 X111.821 Y127.201 E9.00018
G1 X108.179 Y127.2 E9.12132
G1 X107.478 Y127.19 E9.14464
G1 X106.576 Y127.137 E9.17469
G1 X105.683 Y127.005 E9.20471
G1 X104.804 Y126.794 E9.23478
G1 X103.948 Y126.506 E9.26482
G1 X103.121 Y126.144 E9.29484
G1 X102.329 Y125.71 E9.32488
G1 X101.579 Y125.207 E9.35492
G1 X100.876 Y124.64 E9.38496
G1 X100.33 Y124.123 E9.40997
G1 X99.717 Y123.46 E9.44
G1 X99.165 Y122.745 E9.47004
G1 X98.679 Y121.984 E9.50007
G1 X98.262 Y121.183 E9.53011
G1 X97.918 Y120.348 E9.56015
G1 X97.649 Y119.486 E9.59018
G1 X97.457 Y118.603 E9.62023
G1 X97.344 Y117.707 E9.65027
G1 X97.311 Y117.049 E9.67218
G1 X97.3 Y116.279 E9.6978
G1 X97.301 Y103.653 E10.11774
G1 X97.311 Y102.975 E10.14029
G1 X97.364 Y102.073 E10.17035
G1 X97.497 Y101.18 E10.20037
G1 X97.709 Y100.302 E10.23042
G1 X97.997 Y99.446 E10.26045
G1 X98.359 Y98.619 E10.29048
G1 X98.794 Y97.827 E10.32053
G1 X99.297 Y97.077 E10.35057
G1 X99.864 Y96.374 E10.38061
G1 X100.284 Y95.924 E10.40108
G0 F6000 X107.7 Y103.199
G1 F1200 X112.3 Y103.199 E10.55408
G1 X112.3 Y106.262 E10.65595
G1 X107.7 Y106.262 E10.80895
G1 X107.7 Y103.199 E10.91083
G0 F6000 X108.1 Y103.599
G1 F1200 X111.9 Y103.599 E11.03722
G1 X111.9 Y105.862 E11.11248
G1 X108.1 Y105.862 E11.23887
G1 X108.1 Y103.599 E11.31414
G0 F6000 X108.5 Y103.999
G1 F1200 X111.5 Y103.999 E11.41392
G1 X111.5 Y105.462 E11.46258
G1 X108.5 Y105.462 E11.56236
G1 X108.5 Y103.999 E11.61102
G0 F6000 X108.9 Y104.399
G1 F1200 X111.1 Y104.399 E11.68419
G1 X111.1 Y105.062 E11.70624
G1 X108.9 Y105.062 E11.77942
G1 X108.9 Y104.399 E11.80147
G1 F2700 E6.80147
G0 F6000 X106.847 Y105.809
G0 X106.847 Y114.191
G0 X107.7 Y114.203
G0 X107.7 Y113.738
G1 F2700 E11.80147
G1 F1200 X112.3 Y113.738 E11.95446
G1 X112.3 Y116.801 E12.05634
G1 X107.7 Y116.801 E12.20934
G1 X107.7 Y113.738 E12.31121
G0 F6000 X108.1 Y114.138
G1 F1200 X111.9 Y114.138 E12.4376
G1 X111.9 Y116.401 E12.51287
G1 X108.1 Y116.401 E12.63926
G1 X108.1 Y114.138 E12.71452
G0 F6000 X108.5 Y114.538
G1 F1200 X111.5 Y114.538 E12.8143
G1 X111.5 Y116.001 E12.86296
G1 X108.5 Y116.001 E12.96274
G1 X108.5 Y114.538 E13.0114
G0 F6000 X108.9 Y114.938
G1 F1200 X111.1 Y114.938 E13.08458
G1 X111.1 Y115.601 E13.10663
G1 X108.9 Y115.601 E13.1798
G1 X108.9 Y114.938 E13.20185
G1 F2700 E8.20185
G0 F6000 X107.7 Y113.338
;TYPE:SUPPORT-INTERFACE
G1 F2700 E13.20185
G1 F1200 X107.7 Y111.242 E13.27157
G1 X112.3 Y111.241 E13.42456
G1 X112.3 Y113.338 E13.49431
G1 X107.7 Y113.338 E13.6473
G1 F2700 E8.6473
G0 F6000 X106.835 Y113.338
G0 X106.835 Y108.759
G0 X107.7 Y108.759
G1 F2700 E13.6473
G1 F1200 X107.7 Y106.662 E13.71705
G1 X112.3 Y106.662 E13.87005
G1 X112.3 Y108.759 E13.93979
G1 X107.7 Y108.759 E14.09279
G0 F6000 X108.557 Y108.557
G1 F1200 X107.899 Y107.899 E14.12374
G0 F6000 X108.664 Y108.558
G1 F1200 X110.36 Y106.862 E14.20352
G0 F6000 X110.256 Y106.862
G1 F1200 X111.952 Y108.558 E14.28329
G0 F6000 X111.441 Y111.441
G1 F1200 X112.099 Y112.099 E14.31424
G0 F6000 X112.099 Y111.912
G1 F1200 X110.874 Y113.137 E14.37186
G0 F6000 X109.742 Y113.137
G1 F1200 X108.047 Y111.441 E14.45161
G0 F6000 X109.175 Y111.441
G1 F1200 X107.9 Y112.717 E14.51161
G1 F2700 E9.51161
;MESH:2CmCyl-1mm.stl
G0 F6000 X107.9 Y110.241
G0 X107.7 Y110.042
;TYPE:WALL-OUTER
G1 F2700 E14.51161
G1 F1200 X107.7 Y109.959 E14.51437
G1 X112.3 Y109.959 E14.66737
G1 X112.3 Y110.041 E14.67009
G1 X107.7 Y110.042 E14.82309
G0 F6000 X107.701 Y110.159
G1 F2700 E9.82309
;MESH:NONMESH
G0 F300 X107.701 Y110.159 Z0.4
G0 F6000 X107.702 Y110.141
G0 X107.7 Y109.779
G0 X106.871 Y109.598
G0 X106.847 Y105.809
G0 X107.7 Y103.199
;TIME_ELAPSED:31.765220
;LAYER:1
M140 S50
M106 S85
;TYPE:SUPPORT
G1 F2700 E14.82309
G1 F632 X112.3 Y103.199 E14.97609
G1 X112.3 Y105.779 E15.0619
G1 X107.7 Y105.779 E15.21489
G1 X107.7 Y103.199 E15.3007
G0 F9000 X108 Y103.479
G1 F632 X107.98 Y103.479 E15.30137
G1 X107.98 Y105.499 E15.36856
G1 X108 Y105.499 E15.36922
G1 X108 Y103.479 E15.43641
G1 X110 Y103.479 E15.50293
G1 X110 Y105.499 E15.57011
G1 X112 Y105.499 E15.63663
G1 X112.02 Y105.499 E15.6373
G1 X112.02 Y103.479 E15.70448
G1 X112 Y103.479 E15.70515
G1 X112 Y105.499 E15.77233
G1 F2700 E10.77233
G0 F9000 X113.165 Y105.499
G0 X113.165 Y114.221
G0 X112.3 Y114.221
G1 F2700 E15.77233
G1 F632 X112.3 Y116.801 E15.85814
G1 X107.7 Y116.801 E16.01114
G1 X107.7 Y114.221 E16.09695
G1 X112.3 Y114.221 E16.24995
G0 F9000 X112.02 Y114.501
G1 F632 X112 Y114.501 E16.25061
G1 X112 Y116.521 E16.3178
G1 X110 Y116.521 E16.38432
G1 X110 Y114.501 E16.45151
G1 X108 Y114.501 E16.51803
G1 X107.98 Y114.501 E16.51869
G1 X107.98 Y116.521 E16.58588
G1 X108 Y116.521 E16.58654
G1 X108 Y114.501 E16.65373
G1 F2700 E11.65373
G0 F9000 X106.835 Y114.501
G0 X106.839 Y117.158
G0 X107.343 Y117.662
G0 X112.657 Y117.662
G0 X113.161 Y117.158
G0 X113.165 Y114.501
G0 X112.02 Y114.501
G1 F2700 E16.65373
G1 F632 X112.02 Y116.521 E16.72091
G1 X112 Y116.521 E16.72158
G0 F9000 X110.626 Y114.02
;TYPE:SUPPORT-INTERFACE
G1 F632 X108.129 Y111.523 E16.83903
G0 F9000 X109.093 Y111.523
G1 F632 X107.5 Y113.117 E16.91398
G0 F9000 X109.99 Y114.02
G1 F632 X112.487 Y111.523 E17.03143
G0 F9000 X111.523 Y111.523
G1 F632 X112.499 Y112.499 E17.07734
G1 F2700 E12.07734
G0 F9000 X113.165 Y112.499
G0 X113.129 Y109.115
G0 X112.141 Y108.475
G1 F2700 E17.07734
G1 F632 X112.499 Y108.118 E17.09416
G0 F9000 X111.869 Y108.475
G1 F632 X109.373 Y105.979 E17.21156
G0 F9000 X107.85 Y105.978
G1 F632 X107.5 Y106.329 E17.22805
G0 F9000 X107.499 Y107.499
G1 F632 X108.475 Y108.475 E17.27396
G0 F9000 X108.747 Y108.475
G1 F632 X111.244 Y105.978 E17.39141
G1 F2700 E12.39141
;MESH:2CmCyl-1mm.stl
G0 F9000 X111.244 Y109.696
G0 X108.1 Y110.124
;TYPE:WALL-INNER
G1 F2700 E17.39141
G1 F632 X108.1 Y109.876 E17.39966
G1 X111.9 Y109.876 E17.52604
G1 X111.9 Y110.124 E17.53429
G1 X108.1 Y110.124 E17.61285
G0 F9000 X107.7 Y110.524
;TYPE:WALL-OUTER
G1 F632 X107.7 Y109.476 E17.64771
G1 X112.3 Y109.476 E17.8007
G1 X112.3 Y110.524 E17.83556
G1 X107.7 Y110.524 E17.98856
G0 F9000 X108.182 Y109.924
G1 F2700 E12.98856
;MESH:NONMESH
G0 F300 X108.182 Y109.924 Z0.6
G0 F9000 X107.914 Y109.69
G0 X106.871 Y109.115
G0 X106.835 Y103.199
G0 X107.7 Y103.199
;TIME_ELAPSED:45.781147
;LAYER:2
M106 S170
;TYPE:SUPPORT
G1 F2700 E17.98856
G1 F642.9 X112.3 Y103.199 E18.14155
G1 X112.3 Y105.296 E18.2113
G1 X107.7 Y105.296 E18.3643
G1 X107.7 Y103.199 E18.43404
G0 F12000 X108 Y103.479
G1 F642.9 X107.98 Y103.479 E18.43471
G1 X107.98 Y105.016 E18.48583
G1 X108 Y105.016 E18.48649
G1 X108 Y103.479 E18.53761
G1 X110 Y103.479 E18.60414
G1 X110 Y105.016 E18.65526
G1 X112 Y105.016 E18.72178
G1 X112.02 Y105.016 E18.72244
G1 X112.02 Y103.479 E18.77356
G1 X112 Y103.479 E18.77423
G1 X112 Y105.016 E18.82535
G1 F2700 E13.82535
G0 F12000 X113.165 Y105.016
G0 X113.165 Y114.704
G0 X112.3 Y114.704
G1 F2700 E18.82535
G1 F642.9 X112.3 Y116.801 E18.89509
G1 X107.7 Y116.801 E19.04809
G1 X107.7 Y114.704 E19.11784
G1 X112.3 Y114.704 E19.27083
G0 F12000 X112.02 Y114.984
G1 F642.9 X112 Y114.984 E19.2715
G1 X112 Y116.521 E19.32262
G1 X110 Y116.521 E19.38914
G1 X110 Y114.984 E19.44026
G1 X108 Y114.984 E19.50678
G1 X107.98 Y114.984 E19.50745
G1 X107.98 Y116.521 E19.55857
G1 X108 Y116.521 E19.55923
G1 X108 Y114.984 E19.61035
G1 F2700 E14.61035
G0 F12000 X106.835 Y114.984
G0 X106.839 Y117.158
G0 X107.343 Y117.662
G0 X112.657 Y117.662
G0 X113.161 Y117.158
G0 X113.165 Y114.984
G0 X112.02 Y114.984
G1 F2700 E19.61035
G1 F642.9 X112.02 Y116.521 E19.66147
G1 X112 Y116.521 E19.66214
G0 F12000 X111.109 Y114.503
;TYPE:SUPPORT-INTERFACE
G1 F642.9 X108.612 Y112.006 E19.77959
G0 F12000 X108.611 Y112.005
G1 F642.9 X107.5 Y113.117 E19.83187
G0 F12000 X107.5 Y114.288
G1 F642.9 X107.714 Y114.503 E19.84196
G0 F12000 X109.507 Y114.503
G1 F642.9 X112.005 Y112.006 E19.95944
G0 F12000 X112.007 Y112.007
G1 F642.9 X112.499 Y112.499 E19.98258
G1 F2700 E14.98258
G0 F12000 X113.165 Y112.499
G0 X113.129 Y108.632
G0 X111.386 Y107.992
G1 F2700 E19.98258
G1 F642.9 X108.89 Y105.496 E20.09998
G0 F12000 X108.333 Y105.495
G1 F642.9 X107.5 Y106.329 E20.13919
G0 F12000 X107.499 Y107.499
G1 F642.9 X107.992 Y107.992 E20.16238
G0 F12000 X109.23 Y107.992
G1 F642.9 X111.727 Y105.495 E20.27983
G0 F12000 X112.284 Y105.496
G1 F642.9 X112.499 Y105.711 E20.28994
G1 F2700 E15.28994
;MESH:2CmCyl-1mm.stl
G0 F12000 X113.165 Y105.711
G0 X113.129 Y108.632
G0 X112.086 Y109.207
G0 X108.5 Y110.207
;TYPE:WALL-INNER
G1 F2700 E20.28994
G1 F642.9 X108.5 Y109.793 E20.30371
G1 X111.5 Y109.793 E20.40349
G1 X111.5 Y110.207 E20.41726
G1 X108.5 Y110.207 E20.51704
