;FLAVOR:Marlin
;TIME:1212
;Filament used: 1.43393m
;Layer height: 0.28
;MINX:92.2
;MINY:92.2
;MINZ:0.28
;MAXX:127.8
;MAXY:127.8
;MAXZ:19.88
;Generated with Cura_SteamEngine 4.5.0
M140 S50
M105
M190 S50
M104 S200
M105
M109 S200
M82 ;absolute extrusion mode
M201 X500.00 Y500.00 Z100.00 E5000.00 ;Setup machine max acceleration
M203 X500.00 Y500.00 Z10.00 E50.00 ;Setup machine max feedrate
M204 P500.00 R1000.00 T500.00 ;Setup Print/Retract/Travel acceleration
M205 X8.00 Y8.00 Z0.40 E5.00 ;Setup Jerk
M220 S100 ;Reset Feedrate
M221 S100 ;Reset Flowrate

G28 ;Home

G92 E0 ;Reset Extruder
G1 Z2.0 F3000 ;Move Z Axis up
G1 X10.1 Y20 Z0.28 F5000.0 ;Move to start position
G1 X10.1 Y200.0 Z0.28 F1500.0 E15 ;Draw the first line
G1 X10.4 Y200.0 Z0.28 F5000.0 ;Move to side a little
G1 X10.4 Y20 Z0.28 F1500.0 E30 ;Draw the second line
G92 E0 ;Reset Extruder
G1 Z2.0 F3000 ;Move Z Axis up

G92 E0
G92 E0
G1 F2700 E-5
;LAYER_COUNT:71
;LAYER:0
M107
G0 F6000 X94.623 Y94.349 Z0.28
;TYPE:SKIRT
G1 F2700 E0
G1 F1200 X95.222 Y93.834 E0.03678
G1 X95.87 Y93.383 E0.07355
G1 X96.561 Y92.999 E0.11036
G1 X97.286 Y92.687 E0.14711
G1 X98.039 Y92.45 E0.18387
G1 X98.813 Y92.291 E0.22066
G1 X99.598 Y92.21 E0.25741
G1 X100 Y92.2 E0.27613
G1 X120 Y92.2 E1.20742
G1 X120.789 Y92.24 E1.2442
G1 X121.569 Y92.359 E1.28094
G1 X122.334 Y92.557 E1.31774
G1 X123.074 Y92.831 E1.35448
G1 X123.783 Y93.179 E1.39126
G1 X124.454 Y93.597 E1.42807
G1 X125.078 Y94.08 E1.46481
G1 X125.651 Y94.623 E1.50157
G1 X126.166 Y95.222 E1.53835
G1 X126.617 Y95.87 E1.57512
G1 X127.001 Y96.561 E1.61193
G1 X127.313 Y97.286 E1.64868
G1 X127.55 Y98.039 E1.68544
G1 X127.709 Y98.813 E1.72223
G1 X127.79 Y99.598 E1.75898
G1 X127.8 Y100 E1.7777
G1 X127.8 Y120 E2.70899
G1 X127.76 Y120.789 E2.74577
G1 X127.641 Y121.569 E2.78251
G1 X127.443 Y122.334 E2.81931
G1 X127.169 Y123.074 E2.85605
G1 X126.821 Y123.783 E2.89283
G1 X126.403 Y124.454 E2.92964
G1 X125.92 Y125.078 E2.96638
G1 X125.377 Y125.651 E3.00314
G1 X124.778 Y126.166 E3.03993
G1 X124.13 Y126.617 E3.07669
G1 X123.439 Y127.001 E3.1135
G1 X122.714 Y127.313 E3.15025
G1 X121.961 Y127.55 E3.18701
G1 X121.187 Y127.709 E3.2238
G1 X120.402 Y127.79 E3.26055
G1 X120 Y127.8 E3.27927
G1 X100 Y127.8 E4.21056
G1 X99.211 Y127.76 E4.24734
G1 X98.431 Y127.641 E4.28408
G1 X97.666 Y127.443 E4.32088
G1 X96.926 Y127.169 E4.35762
G1 X96.217 Y126.821 E4.3944
G1 X95.546 Y126.403 E4.43121
G1 X94.922 Y125.92 E4.46795
G1 X94.349 Y125.377 E4.50471
G1 X93.834 Y124.778 E4.5415
G1 X93.383 Y124.13 E4.57826
G1 X92.999 Y123.439 E4.61507
G1 X92.687 Y122.714 E4.65182
G1 X92.45 Y121.961 E4.68858
G1 X92.291 Y121.187 E4.72537
G1 X92.21 Y120.402 E4.76212
G1 X92.2 Y120 E4.78084
G1 X92.2 Y100 E5.71213
G1 X92.24 Y99.211 E5.74892
G1 X92.359 Y98.431 E5.78566
G1 X92.557 Y97.666 E5.82245
G1 X92.831 Y96.926 E5.85919
G1 X93.179 Y96.217 E5.89597
G1 X93.597 Y95.546 E5.93278
G1 X94.08 Y94.922 E5.96953
G1 X94.623 Y94.349 E6.00628
G0 F6000 X95.016 Y94.53
G1 F1200 X95.611 Y94.042 E6.04212
G1 X96.253 Y93.619 E6.07792
G1 X96.936 Y93.264 E6.11376
G1 X97.651 Y92.983 E6.14953
G1 X98.393 Y92.777 E6.18539
G1 X99.151 Y92.649 E6.22118
G1 X100 Y92.6 E6.26078
G1 X120 Y92.6 E7.19207
G1 X120.768 Y92.64 E7.22788
G1 X121.528 Y92.759 E7.2637
G1 X122.271 Y92.957 E7.2995
G1 X122.99 Y93.231 E7.33533
G1 X123.676 Y93.578 E7.37113
G1 X124.323 Y93.994 E7.40694
G1 X124.923 Y94.475 E7.44275
G1 X125.47 Y95.016 E7.47857
G1 X125.958 Y95.611 E7.51441
G1 X126.381 Y96.253 E7.55021
G1 X126.736 Y96.936 E7.58605
G1 X127.017 Y97.651 E7.62182
G1 X127.223 Y98.393 E7.65768
G1 X127.351 Y99.151 E7.69347
G1 X127.4 Y100 E7.73307
G1 X127.4 Y120 E8.66436
G1 X127.36 Y120.768 E8.70017
G1 X127.241 Y121.528 E8.73599
G1 X127.043 Y122.271 E8.77179
G1 X126.769 Y122.99 E8.80762
G1 X126.422 Y123.676 E8.84342
G1 X126.006 Y124.323 E8.87923
G1 X125.525 Y124.923 E8.91504
G1 X124.984 Y125.47 E8.95087
G1 X124.389 Y125.958 E8.9867
G1 X123.747 Y126.381 E9.0225
G1 X123.064 Y126.736 E9.05834
G1 X122.349 Y127.017 E9.09411
G1 X121.607 Y127.223 E9.12997
G1 X120.849 Y127.351 E9.16577
G1 X120 Y127.4 E9.20536
G1 X100 Y127.4 E10.13665
G1 X99.232 Y127.36 E10.17246
G1 X98.472 Y127.241 E10.20828
G1 X97.729 Y127.043 E10.24408
G1 X97.01 Y126.769 E10.27991
G1 X96.324 Y126.422 E10.31571
G1 X95.677 Y126.006 E10.35153
G1 X95.077 Y125.525 E10.38733
G1 X94.53 Y124.984 E10.42316
G1 X94.042 Y124.389 E10.45899
G1 X93.619 Y123.747 E10.49479
G1 X93.264 Y123.064 E10.53063
G1 X92.983 Y122.349 E10.5664
G1 X92.777 Y121.607 E10.60226
G1 X92.649 Y120.849 E10.63806
G1 X92.6 Y120 E10.67766
G1 X92.6 Y100 E11.60894
G1 X92.64 Y99.232 E11.64475
G1 X92.759 Y98.472 E11.68057
G1 X92.957 Y97.729 E11.71637
G1 X93.231 Y97.01 E11.7522
G1 X93.578 Y96.324 E11.788
G1 X93.994 Y95.677 E11.82382
G1 X94.475 Y95.077 E11.85962
G1 X95.016 Y94.53 E11.89545
G0 F6000 X95.408 Y94.716
G1 F1200 X95.998 Y94.257 E11.93026
G1 X96.634 Y93.862 E11.96512
G1 X97.308 Y93.538 E11.99994
G1 X98.013 Y93.288 E12.03477
G1 X98.741 Y93.114 E12.06962
G1 X99.483 Y93.019 E12.10446
G1 X100 Y93 E12.12855
G1 X120 Y93 E13.05983
G1 X120.747 Y93.04 E13.09466
G1 X121.485 Y93.159 E13.12947
G1 X122.207 Y93.357 E13.16433
G1 X122.903 Y93.63 E13.19914
G1 X123.566 Y93.977 E13.23399
G1 X124.189 Y94.392 E13.26885
G1 X124.763 Y94.871 E13.30366
G1 X125.284 Y95.408 E13.3385
G1 X125.743 Y95.998 E13.3733
G1 X126.138 Y96.634 E13.40817
G1 X126.462 Y97.308 E13.44299
G1 X126.712 Y98.013 E13.47782
G1 X126.886 Y98.741 E13.51267
G1 X126.981 Y99.483 E13.54751
G1 X127 Y100 E13.5716
G1 X127 Y120 E14.50288
G1 X126.96 Y120.747 E14.53771
G1 X126.841 Y121.485 E14.57252
G1 X126.643 Y122.207 E14.60738
G1 X126.37 Y122.903 E14.64219
G1 X126.023 Y123.566 E14.67704
G1 X125.608 Y124.189 E14.7119
G1 X125.129 Y124.763 E14.74671
G1 X124.592 Y125.284 E14.78155
G1 X124.002 Y125.743 E14.81635
G1 X123.366 Y126.138 E14.85122
G1 X122.692 Y126.462 E14.88604
G1 X121.987 Y126.712 E14.92087
G1 X121.259 Y126.886 E14.95572
G1 X120.517 Y126.981 E14.99055
G1 X120 Y127 E15.01464
G1 X100 Y127 E15.94593
G1 X99.253 Y126.96 E15.98076
G1 X98.515 Y126.841 E16.01557
G1 X97.793 Y126.643 E16.05043
G1 X97.097 Y126.37 E16.08524
G1 X96.434 Y126.023 E16.12009
G1 X95.811 Y125.608 E16.15494
G1 X95.237 Y125.129 E16.18976
G1 X94.716 Y124.592 E16.2246
G1 X94.257 Y124.002 E16.2594
G1 X93.862 Y123.366 E16.29426
G1 X93.538 Y122.692 E16.32909
G1 X93.288 Y121.987 E16.36392
G1 X93.114 Y121.259 E16.39877
G1 X93.019 Y120.517 E16.4336
G1 X93 Y120 E16.45769
G1 X93 Y100 E17.38898
G1 X93.04 Y99.253 E17.42381
G1 X93.159 Y98.515 E17.45862
G1 X93.357 Y97.793 E17.49348
G1 X93.63 Y97.097 E17.52829
G1 X93.977 Y96.434 E17.56314
G1 X94.392 Y95.811 E17.59799
G1 X94.871 Y95.237 E17.63281
G1 X95.408 Y94.716 E17.66764
G0 F6000 X95.265 Y95.402
G1 F1200 X95.799 Y94.909 E17.70149
G1 X96.384 Y94.479 E17.73529
G1 X97.013 Y94.115 E17.76913
G1 X97.678 Y93.822 E17.80297
G1 X98.371 Y93.604 E17.8368
G1 X99.083 Y93.464 E17.87059
G1 X100 Y93.4 E17.91339
G1 X120 Y93.4 E18.84467
G1 X120.725 Y93.44 E18.87848
G1 X121.442 Y93.559 E18.91233
G1 X122.141 Y93.757 E18.94616
G1 X122.814 Y94.03 E18.97997
G1 X123.453 Y94.375 E19.01379
G1 X124.05 Y94.789 E19.04762
G1 X124.598 Y95.265 E19.08142
G1 X125.091 Y95.799 E19.11526
G1 X125.521 Y96.384 E19.14907
G1 X125.885 Y97.013 E19.18291
G1 X126.178 Y97.678 E19.21674
G1 X126.396 Y98.371 E19.25057
G1 X126.536 Y99.083 E19.28436
G1 X126.6 Y100 E19.32716
G1 X126.6 Y120 E20.25845
G1 X126.56 Y120.725 E20.29226
G1 X126.441 Y121.442 E20.3261
G1 X126.243 Y122.141 E20.35993
G1 X125.97 Y122.814 E20.39375
G1 X125.625 Y123.453 E20.42756
G1 X125.211 Y124.05 E20.46139
G1 X124.735 Y124.598 E20.49519
G1 X124.201 Y125.091 E20.52903
G1 X123.616 Y125.521 E20.56284
G1 X122.987 Y125.885 E20.59668
G1 X122.322 Y126.178 E20.63052
G1 X121.629 Y126.396 E20.66434
G1 X120.917 Y126.536 E20.69813
G1 X120 Y126.6 E20.74094
G1 X100 Y126.6 E21.67222
G1 X99.275 Y126.56 E21.70603
G1 X98.558 Y126.441 E21.73987
G1 X97.859 Y126.243 E21.7737
G1 X97.186 Y125.97 E21.80752
G1 X96.547 Y125.625 E21.84133
G1 X95.95 Y125.211 E21.87516
G1 X95.402 Y124.735 E21.90896
G1 X94.909 Y124.201 E21.9428
G1 X94.479 Y123.616 E21.97661
G1 X94.115 Y122.987 E22.01045
G1 X93.822 Y122.322 E22.04429
G1 X93.604 Y121.629 E22.07812
G1 X93.464 Y120.917 E22.11191
G1 X93.4 Y120 E22.15471
G1 X93.4 Y100 E23.08599
G1 X93.44 Y99.275 E23.1198
G1 X93.559 Y98.558 E23.15365
G1 X93.757 Y97.859 E23.18747
G1 X94.03 Y97.186 E23.22129
G1 X94.375 Y96.547 E23.25511
G1 X94.789 Y95.95 E23.28894
G1 X95.265 Y95.402 E23.32274
G0 F6000 X95.659 Y95.573
G1 F1200 X96.189 Y95.109 E23.35554
G1 X96.768 Y94.709 E23.3883
G1 X97.389 Y94.377 E23.42109
G1 X98.043 Y94.117 E23.45386
G1 X98.723 Y93.933 E23.48667
G1 X99.419 Y93.827 E23.51945
G1 X100 Y93.8 E23.54653
G1 X120 Y93.8 E24.47782
G1 X120.703 Y93.84 E24.5106
G1 X121.397 Y93.959 E24.54339
G1 X122.072 Y94.157 E24.57615
G1 X122.721 Y94.429 E24.60891
G1 X123.335 Y94.774 E24.64171
G1 X123.906 Y95.185 E24.67447
G1 X124.427 Y95.659 E24.70727
G1 X124.891 Y96.189 E24.74007
G1 X125.291 Y96.768 E24.77283
G1 X125.623 Y97.389 E24.80562
G1 X125.883 Y98.043 E24.8384
G1 X126.067 Y98.723 E24.8712
G1 X126.173 Y99.419 E24.90398
G1 X126.2 Y100 E24.93106
G1 X126.2 Y120 E25.86235
G1 X126.16 Y120.703 E25.89513
G1 X126.041 Y121.397 E25.92792
G1 X125.843 Y122.072 E25.96068
G1 X125.571 Y122.721 E25.99344
G1 X125.226 Y123.335 E26.02624
G1 X124.815 Y123.906 E26.059
G1 X124.341 Y124.427 E26.0918
G1 X123.811 Y124.891 E26.1246
G1 X123.232 Y125.291 E26.15736
G1 X122.611 Y125.623 E26.19015
G1 X121.957 Y125.883 E26.22293
G1 X121.277 Y126.067 E26.25573
G1 X120.581 Y126.173 E26.28851
G1 X120 Y126.2 E26.31559
G1 X100 Y126.2 E27.24688
G1 X99.297 Y126.16 E27.27966
G1 X98.603 Y126.041 E27.31245
G1 X97.928 Y125.843 E27.34521
G1 X97.279 Y125.571 E27.37797
G1 X96.665 Y125.226 E27.41077
G1 X96.094 Y124.815 E27.44353
G1 X95.573 Y124.341 E27.47633
G1 X95.109 Y123.811 E27.50913
G1 X94.709 Y123.232 E27.54189
G1 X94.377 Y122.611 E27.57468
G1 X94.117 Y121.957 E27.60746
G1 X93.933 Y121.277 E27.64026
G1 X93.827 Y120.581 E27.67304
G1 X93.8 Y120 E27.70012
G1 X93.8 Y100 E28.63141
G1 X93.84 Y99.297 E28.66419
G1 X93.959 Y98.603 E28.69698
G1 X94.157 Y97.928 E28.72974
G1 X94.429 Y97.279 E28.7625
G1 X94.774 Y96.665 E28.7953
G1 X95.185 Y96.094 E28.82806
G1 X95.659 Y95.573 E28.86086
G0 F6000 X96.053 Y95.751
G1 F1200 X96.578 Y95.317 E28.89257
G1 X97.15 Y94.948 E28.92427
G1 X97.762 Y94.649 E28.95599
G1 X98.404 Y94.424 E28.98766
G1 X99.069 Y94.275 E29.0194
G1 X100 Y94.2 E29.06289
G1 X120 Y94.2 E29.99417
G1 X120.68 Y94.24 E30.02589
G1 X121.35 Y94.359 E30.05758
G1 X122.002 Y94.556 E30.08929
G1 X122.626 Y94.828 E30.12099
G1 X123.214 Y95.172 E30.15271
G1 X123.758 Y95.582 E30.18443
G1 X124.249 Y96.053 E30.21611
G1 X124.683 Y96.578 E30.24783
G1 X125.052 Y97.15 E30.27952
G1 X125.351 Y97.762 E30.31124
G1 X125.576 Y98.404 E30.34292
G1 X125.725 Y99.069 E30.37465
G1 X125.8 Y100 E30.41814
G1 X125.8 Y120 E31.34943
G1 X125.76 Y120.68 E31.38114
G1 X125.641 Y121.35 E31.41283
G1 X125.444 Y122.002 E31.44455
G1 X125.172 Y122.626 E31.47624
G1 X124.828 Y123.214 E31.50796
G1 X124.418 Y123.758 E31.53968
G1 X123.947 Y124.249 E31.57136
G1 X123.422 Y124.683 E31.60308
G1 X122.85 Y125.052 E31.63478
G1 X122.238 Y125.351 E31.66649
G1 X121.596 Y125.576 E31.69817
G1 X120.931 Y125.725 E31.7299
G1 X120 Y125.8 E31.7734
G1 X100 Y125.8 E32.70468
G1 X99.32 Y125.76 E32.7364
G1 X98.65 Y125.641 E32.76808
G1 X97.998 Y125.444 E32.7998
G1 X97.374 Y125.172 E32.8315
G1 X96.786 Y124.828 E32.86322
G1 X96.242 Y124.418 E32.89494
G1 X95.751 Y123.947 E32.92662
G1 X95.317 Y123.422 E32.95834
G1 X94.948 Y122.85 E32.99003
G1 X94.649 Y122.238 E33.02175
G1 X94.424 Y121.596 E33.05343
G1 X94.275 Y120.931 E33.08516
G1 X94.2 Y120 E33.12865
G1 X94.2 Y100 E34.05993
G1 X94.24 Y99.32 E34.09165
G1 X94.359 Y98.65 E34.12334
G1 X94.556 Y97.998 E34.15505
G1 X94.828 Y97.374 E34.18675
G1 X95.172 Y96.786 E34.21847
G1 X95.582 Y96.242 E34.25019
G1 X96.053 Y95.751 E34.28187
G0 F6000 X96.445 Y95.935
G1 F1200 X96.965 Y95.534 E34.31245
G1 X97.529 Y95.198 E34.34302
G1 X98.131 Y94.934 E34.37363
G1 X98.76 Y94.744 E34.40422
G1 X99.407 Y94.633 E34.43479
G1 X100 Y94.6 E34.46245
G1 X120 Y94.6 E35.39373
G1 X120.656 Y94.64 E35.42433
G1 X121.302 Y94.759 E35.45492
G1 X121.929 Y94.956 E35.48552
G1 X122.527 Y95.228 E35.51611
G1 X123.088 Y95.57 E35.54671
G1 X123.603 Y95.978 E35.5773
G1 X124.065 Y96.445 E35.60789
G1 X124.466 Y96.965 E35.63847
G1 X124.802 Y97.529 E35.66904
G1 X125.066 Y98.131 E35.69964
G1 X125.256 Y98.76 E35.73024
G1 X125.367 Y99.407 E35.76081
G1 X125.4 Y100 E35.78846
G1 X125.4 Y120 E36.71975
G1 X125.36 Y120.656 E36.75035
G1 X125.241 Y121.302 E36.78094
G1 X125.044 Y121.929 E36.81154
G1 X124.772 Y122.527 E36.84213
G1 X124.43 Y123.088 E36.87272
G1 X124.022 Y123.603 E36.90332
G1 X123.555 Y124.065 E36.93391
G1 X123.035 Y124.466 E36.96448
G1 X122.471 Y124.802 E36.99505
G1 X121.869 Y125.066 E37.02566
G1 X121.24 Y125.256 E37.05626
G1 X120.593 Y125.367 E37.08682
G1 X120 Y125.4 E37.11448
G1 X100 Y125.4 E38.04576
G1 X99.344 Y125.36 E38.07637
G1 X98.698 Y125.241 E38.10695
G1 X98.071 Y125.044 E38.13756
G1 X97.473 Y124.772 E38.16815
G1 X96.912 Y124.43 E38.19874
G1 X96.397 Y124.022 E38.22933
G1 X95.935 Y123.555 E38.25992
G1 X95.534 Y123.035 E38.2905
G1 X95.198 Y122.471 E38.32107
G1 X94.934 Y121.869 E38.35168
G1 X94.744 Y121.24 E38.38227
G1 X94.633 Y120.593 E38.41284
G1 X94.6 Y120 E38.4405
G1 X94.6 Y100 E39.37178
G1 X94.64 Y99.344 E39.40238
G1 X94.759 Y98.698 E39.43297
G1 X94.956 Y98.071 E39.46357
G1 X95.228 Y97.473 E39.49416
G1 X95.57 Y96.912 E39.52476
G1 X95.978 Y96.397 E39.55535
G1 X96.445 Y95.935 E39.58594
G0 F6000 X96.373 Y96.559
G1 F1200 X96.836 Y96.129 E39.61536
G1 X97.35 Y95.76 E39.64482
G1 X97.906 Y95.46 E39.67424
G1 X98.495 Y95.232 E39.70365
G1 X99.109 Y95.08 E39.73311
G1 X100 Y95 E39.77476
G1 X120 Y95 E40.70604
G1 X120.631 Y95.04 E40.73549
G1 X121.252 Y95.159 E40.76493
G1 X121.852 Y95.356 E40.79433
G1 X122.424 Y95.627 E40.82381
G1 X122.956 Y95.967 E40.85321
G1 X123.441 Y96.373 E40.88266
G1 X123.871 Y96.836 E40.91208
G1 X124.24 Y97.35 E40.94154
G1 X124.54 Y97.906 E40.97096
G1 X124.768 Y98.495 E41.00037
G1 X124.92 Y99.109 E41.02982
G1 X125 Y100 E41.07148
G1 X125 Y120 E42.00276
G1 X124.96 Y120.631 E42.03221
G1 X124.841 Y121.252 E42.06165
G1 X124.644 Y121.852 E42.09105
G1 X124.373 Y122.424 E42.12053
G1 X124.033 Y122.956 E42.14993
G1 X123.627 Y123.441 E42.17938
G1 X123.164 Y123.871 E42.2088
G1 X122.65 Y124.24 E42.23826
G1 X122.094 Y124.54 E42.26768
G1 X121.505 Y124.768 E42.29709
G1 X120.891 Y124.92 E42.32654
G1 X120 Y125 E42.3682
G1 X100 Y125 E43.29948
G1 X99.369 Y124.96 E43.32892
G1 X98.748 Y124.841 E43.35837
G1 X98.148 Y124.644 E43.38777
G1 X97.576 Y124.373 E43.41725
G1 X97.044 Y124.033 E43.44664
G1 X96.559 Y123.627 E43.4761
G1 X96.129 Y123.164 E43.50552
G1 X95.76 Y122.65 E43.53498
G1 X95.46 Y122.094 E43.5644
G1 X95.232 Y121.505 E43.59381
G1 X95.08 Y120.891 E43.62326
G1 X95 Y120 E43.66492
G1 X95 Y100 E44.5962
G1 X95.04 Y99.369 E44.62564
G1 X95.159 Y98.748 E44.65509
G1 X95.356 Y98.148 E44.68449
G1 X95.627 Y97.576 E44.71396
G1 X95.967 Y97.044 E44.74336
G1 X96.373 Y96.559 E44.77282
G0 F6000 X96.767 Y96.728
G1 F1200 X97.225 Y96.331 E44.80104
G1 X97.732 Y95.998 E44.82928
G1 X98.278 Y95.734 E44.85752
G1 X98.854 Y95.545 E44.88575
G1 X99.45 Y95.433 E44.91399
G1 X100 Y95.4 E44.93965
G1 X120 Y95.4 E45.87093
G1 X120.605 Y95.44 E45.89916
G1 X121.199 Y95.559 E45.92737
G1 X121.773 Y95.755 E45.95561
G1 X122.316 Y96.026 E45.98387
G1 X122.819 Y96.365 E46.01212
G1 X123.272 Y96.767 E46.04032
G1 X123.669 Y97.225 E46.06854
G1 X124.002 Y97.732 E46.09679
G1 X124.266 Y98.278 E46.12503
G1 X124.455 Y98.854 E46.15326
G1 X124.567 Y99.45 E46.18149
G1 X124.6 Y100 E46.20715
G1 X124.6 Y120 E47.13843
G1 X124.56 Y120.605 E47.16667
G1 X124.441 Y121.199 E47.19487
G1 X124.245 Y121.773 E47.22312
G1 X123.974 Y122.316 E47.25138
G1 X123.635 Y122.819 E47.27962
G1 X123.233 Y123.272 E47.30782
G1 X122.775 Y123.669 E47.33605
G1 X122.268 Y124.002 E47.36429
G1 X121.722 Y124.266 E47.39253
G1 X121.146 Y124.455 E47.42076
G1 X120.55 Y124.567 E47.449
G1 X120 Y124.6 E47.47465
G1 X100 Y124.6 E48.40594
G1 X99.395 Y124.56 E48.43417
