;FLAVOR:Marlin
;TIME:456
;Filament used: 0.392014m
;Layer height: 0.2
;MINX:89.016
;MINY:89.016
;MINZ:0.2
;MAXX:130.984
;MAXY:130.984
;MAXZ:5
;Generated with Cura_SteamEngine 4.5.0
M140 S50
M105
M190 S50
M104 S200
M105
M109 S200
M82 ;absolute extrusion mode
M201 X500.00 Y500.00 Z100.00 E5000.00 ;Setup machine max acceleration
M203 X500.00 Y500.00 Z10.00 E50.00 ;Setup machine max feedrate
M204 P500.00 R1000.00 T500.00 ;Setup Print/Retract/Travel acceleration
M205 X8.00 Y8.00 Z0.40 E5.00 ;Setup Jerk
M220 S100 ;Reset Feedrate
M221 S100 ;Reset Flowrate

G28 ;Home

G92 E0 ;Reset Extruder
G1 Z2.0 F3000 ;Move Z Axis up
G1 X10.1 Y20 Z0.28 F5000.0 ;Move to start position
G1 X10.1 Y200.0 Z0.28 F1500.0 E15 ;Draw the first line
G1 X10.4 Y200.0 Z0.28 F5000.0 ;Move to side a little
G1 X10.4 Y20 Z0.28 F1500.0 E30 ;Draw the second line
G92 E0 ;Reset Extruder
G1 Z2.0 F3000 ;Move Z Axis up

G92 E0
G92 E0
G1 F2700 E-5
;LAYER_COUNT:25
;LAYER:0
M107
G0 F6000 X95.275 Y95.044 Z0.2
;TYPE:SKIRT
G1 F2700 E0
G1 F1200 X95.485 Y94.841 E0.00971
G1 X95.85 Y94.504 E0.02624
G1 X96.422 Y93.999 E0.05162
G1 X96.91 Y93.592 E0.07275
G1 X97.082 Y93.457 E0.08002
G1 X97.462 Y93.172 E0.09582
G1 X98.113 Y92.705 E0.12247
G1 X98.702 Y92.31 E0.14606
G1 X98.928 Y92.169 E0.15492
G1 X99.321 Y91.935 E0.17013
G1 X99.987 Y91.557 E0.1956
G1 X100.541 Y91.264 E0.21644
G1 X100.814 Y91.129 E0.22657
G1 X101.263 Y90.919 E0.24306
G1 X101.859 Y90.657 E0.26471
G1 X103.075 Y90.206 E0.30785
G1 X104.553 Y89.765 E0.35915
G1 X105.28 Y89.566 E0.38422
G1 X106.194 Y89.357 E0.4154
G1 X106.851 Y89.257 E0.43751
G1 X107.408 Y89.193 E0.45616
G1 X108.494 Y89.093 E0.49243
G1 X109.084 Y89.048 E0.51211
G1 X110.022 Y89.016 E0.54333
G1 X110.694 Y89.043 E0.5657
G1 X112.155 Y89.152 E0.61442
G1 X112.951 Y89.235 E0.64104
G1 X113.879 Y89.372 E0.67224
G1 X114.411 Y89.488 E0.69035
G1 X114.637 Y89.543 E0.69809
G1 X115.378 Y89.745 E0.72363
G1 X116.749 Y90.149 E0.77117
G1 X118.026 Y90.612 E0.81635
G1 X118.601 Y90.862 E0.8372
G1 X118.901 Y90.998 E0.84816
G1 X119.262 Y91.168 E0.86143
G1 X119.831 Y91.456 E0.88264
G1 X120.105 Y91.605 E0.89302
G1 X120.514 Y91.839 E0.90869
G1 X121.125 Y92.206 E0.93239
G1 X121.612 Y92.516 E0.9516
G1 X121.827 Y92.661 E0.96022
G1 X122.258 Y92.967 E0.9778
G1 X122.878 Y93.43 E1.00354
G1 X123.338 Y93.794 E1.02305
G1 X123.512 Y93.939 E1.03058
G1 X123.918 Y94.294 E1.04852
G1 X124.493 Y94.823 E1.07451
G1 X124.953 Y95.271 E1.09586
G1 X125.158 Y95.483 E1.10567
G1 X125.493 Y95.846 E1.1221
G1 X125.994 Y96.413 E1.14727
G1 X126.401 Y96.901 E1.1684
G1 X126.533 Y97.069 E1.17551
G1 X126.816 Y97.446 E1.19119
G1 X127.291 Y98.107 E1.21826
G1 X127.691 Y98.704 E1.24216
G1 X127.817 Y98.906 E1.25008
G1 X128.043 Y99.286 E1.26478
G1 X128.429 Y99.964 E1.29073
G1 X128.723 Y100.515 E1.3115
G1 X128.861 Y100.793 E1.32183
G1 X129.074 Y101.248 E1.33854
G1 X129.338 Y101.847 E1.36031
G1 X129.793 Y103.071 E1.40374
G1 X130.235 Y104.553 E1.45518
G1 X130.434 Y105.28 E1.48025
G1 X130.643 Y106.194 E1.51143
G1 X130.743 Y106.851 E1.53354
G1 X130.807 Y107.408 E1.55218
G1 X130.907 Y108.492 E1.58839
G1 X130.952 Y109.08 E1.608
G1 X130.984 Y110.017 E1.63919
G1 X130.957 Y110.691 E1.66162
G1 X130.88 Y111.786 E1.69813
G1 X130.848 Y112.153 E1.71039
G1 X130.765 Y112.95 E1.73704
G1 X130.628 Y113.878 E1.76824
G1 X130.501 Y114.457 E1.78795
G1 X130.275 Y115.31 E1.8173
G1 X130.026 Y116.172 E1.84714
G1 X129.83 Y116.821 E1.86969
G1 X129.385 Y118.033 E1.91264
G1 X129.002 Y118.901 E1.94419
G1 X128.832 Y119.262 E1.95746
G1 X128.552 Y119.816 E1.97811
G1 X128.403 Y120.091 E1.98851
G1 X128.163 Y120.51 E2.00457
G1 X127.797 Y121.12 E2.02823
G1 X127.465 Y121.641 E2.04878
G1 X127.319 Y121.856 E2.05742
G1 X127.033 Y122.258 E2.07383
G1 X126.57 Y122.878 E2.09957
G1 X126.206 Y123.338 E2.11908
G1 X126.061 Y123.512 E2.12661
G1 X125.706 Y123.918 E2.14455
G1 X125.177 Y124.493 E2.17054
G1 X124.729 Y124.953 E2.19189
G1 X124.517 Y125.158 E2.2017
G1 X124.156 Y125.491 E2.21804
G1 X123.586 Y125.995 E2.24334
G1 X123.082 Y126.414 E2.26514
G1 X122.916 Y126.544 E2.27216
G1 X122.535 Y126.83 E2.288
G1 X121.874 Y127.303 E2.31504
G1 X121.339 Y127.663 E2.33648
G1 X121.128 Y127.796 E2.34478
G1 X120.697 Y128.054 E2.36149
G1 X120.023 Y128.437 E2.38727
G1 X119.479 Y128.726 E2.40776
G1 X119.201 Y128.864 E2.41808
G1 X118.743 Y129.078 E2.4349
G1 X118.148 Y129.34 E2.45652
G1 X116.922 Y129.795 E2.50001
G1 X115.447 Y130.235 E2.55121
G1 X114.72 Y130.434 E2.57628
G1 X113.806 Y130.643 E2.60746
G1 X113.149 Y130.743 E2.62957
G1 X112.592 Y130.807 E2.64821
G1 X111.506 Y130.907 E2.68449
G1 X110.916 Y130.952 E2.70417
G1 X109.978 Y130.984 E2.73538
G1 X109.306 Y130.957 E2.75775
G1 X108.213 Y130.88 E2.7942
G1 X107.845 Y130.848 E2.80648
G1 X107.049 Y130.765 E2.8331
G1 X106.121 Y130.628 E2.8643
G1 X105.589 Y130.512 E2.88241
G1 X105.363 Y130.457 E2.89015
G1 X104.692 Y130.276 E2.91326
G1 X103.821 Y130.024 E2.94342
G1 X103.176 Y129.829 E2.96583
G1 X101.967 Y129.385 E3.00867
G1 X101.095 Y129 E3.04037
G1 X100.728 Y128.827 E3.05387
G1 X100.156 Y128.537 E3.0752
G1 X99.888 Y128.391 E3.08535
G1 X99.486 Y128.161 E3.10075
G1 X98.875 Y127.794 E3.12446
G1 X98.379 Y127.477 E3.14404
G1 X98.163 Y127.331 E3.15271
G1 X97.744 Y127.033 E3.16981
G1 X97.125 Y126.571 E3.1955
G1 X96.631 Y126.181 E3.21643
G1 X96.444 Y126.024 E3.22455
G1 X96.071 Y125.695 E3.2411
G1 X95.498 Y125.168 E3.26699
G1 X94.991 Y124.671 E3.2906
G1 X94.798 Y124.469 E3.2999
G1 X94.506 Y124.151 E3.31426
G1 X94 Y123.578 E3.33968
G1 X93.619 Y123.123 E3.35942
G1 X93.49 Y122.96 E3.36633
G1 X93.171 Y122.537 E3.38395
G1 X92.695 Y121.872 E3.41115
G1 X92.321 Y121.314 E3.4335
G1 X92.178 Y121.086 E3.44245
G1 X91.926 Y120.662 E3.45885
G1 X91.555 Y120.007 E3.48389
G1 X91.266 Y119.463 E3.50438
G1 X91.126 Y119.18 E3.51488
G1 X90.917 Y118.731 E3.53135
G1 X90.658 Y118.142 E3.55275
G1 X90.206 Y116.925 E3.59593
G1 X89.764 Y115.443 E3.64737
G1 X89.565 Y114.715 E3.67247
G1 X89.357 Y113.801 E3.70365
G1 X89.258 Y113.153 E3.72545
G1 X89.193 Y112.588 E3.74437
G1 X89.094 Y111.51 E3.78037
G1 X89.049 Y110.926 E3.79985
G1 X89.016 Y109.989 E3.83104
G1 X89.043 Y109.309 E3.85367
G1 X89.12 Y108.214 E3.89018
G1 X89.152 Y107.844 E3.90253
G1 X89.235 Y107.049 E3.92912
G1 X89.373 Y106.121 E3.96032
G1 X89.492 Y105.574 E3.97894
G1 X89.553 Y105.325 E3.98747
G1 X89.644 Y104.976 E3.99947
G1 X89.975 Y103.823 E4.03936
G1 X90.171 Y103.175 E4.06188
G1 X90.612 Y101.974 E4.10443
G1 X90.862 Y101.399 E4.12529
G1 X90.998 Y101.099 E4.13624
G1 X91.168 Y100.738 E4.14952
G1 X91.456 Y100.169 E4.17073
G1 X91.605 Y99.895 E4.1811
G1 X91.842 Y99.482 E4.19694
G1 X92.216 Y98.86 E4.22108
G1 X92.532 Y98.365 E4.24061
G1 X92.67 Y98.161 E4.2488
G1 X92.967 Y97.742 E4.26588
G1 X93.43 Y97.122 E4.29162
G1 X93.82 Y96.63 E4.3125
G1 X93.972 Y96.449 E4.32036
G1 X94.298 Y96.078 E4.33679
G1 X94.822 Y95.508 E4.36254
G1 X95.275 Y95.044 E4.38411
G0 F6000 X95.553 Y95.332
G1 F1200 X95.763 Y95.129 E4.39382
G1 X96.115 Y94.804 E4.40976
G1 X96.687 Y94.299 E4.43514
G1 X97.157 Y93.907 E4.45549
G1 X97.329 Y93.772 E4.46276
G1 X97.695 Y93.497 E4.47799
G1 X98.346 Y93.03 E4.50464
G1 X98.914 Y92.65 E4.52737
G1 X99.14 Y92.509 E4.53623
G1 X99.519 Y92.283 E4.5509
G1 X100.185 Y91.905 E4.57638
G1 X100.718 Y91.622 E4.59645
G1 X100.991 Y91.487 E4.60658
G1 X101.424 Y91.285 E4.62247
G1 X102.02 Y91.023 E4.64412
G1 X103.192 Y90.589 E4.68569
G1 X104.658 Y90.151 E4.73658
G1 X105.385 Y89.952 E4.76165
G1 X106.283 Y89.748 E4.79228
G1 X106.9 Y89.654 E4.81304
G1 X107.445 Y89.592 E4.83128
G1 X108.525 Y89.492 E4.86735
G1 X109.115 Y89.447 E4.88703
G1 X110.035 Y89.417 E4.91765
G1 X110.666 Y89.442 E4.93865
G1 X112.113 Y89.55 E4.98691
G1 X112.909 Y89.633 E5.01353
G1 X113.82 Y89.768 E5.04416
G1 X114.316 Y89.877 E5.06105
G1 X114.542 Y89.932 E5.06879
G1 X115.265 Y90.128 E5.09371
G1 X116.636 Y90.532 E5.14124
G1 X117.866 Y90.979 E5.18477
G1 X118.731 Y91.36 E5.21621
G1 X119.092 Y91.53 E5.22948
G1 X119.64 Y91.808 E5.24992
G1 X119.914 Y91.957 E5.26029
G1 X120.308 Y92.182 E5.27538
G1 X120.919 Y92.549 E5.29909
G1 X121.388 Y92.848 E5.31759
G1 X121.603 Y92.993 E5.32621
G1 X122.018 Y93.288 E5.34315
G1 X122.638 Y93.751 E5.36888
G1 X123.082 Y94.101 E5.38769
G1 X123.256 Y94.246 E5.39522
G1 X123.647 Y94.588 E5.4125
G1 X124.222 Y95.117 E5.43849
G1 X124.665 Y95.55 E5.45909
G1 X124.87 Y95.762 E5.4689
G1 X125.193 Y96.111 E5.48472
G1 X125.694 Y96.678 E5.50988
G1 X126.086 Y97.148 E5.53024
G1 X126.218 Y97.316 E5.53734
G1 X126.491 Y97.679 E5.55245
G1 X126.966 Y98.34 E5.57952
G1 X127.352 Y98.916 E5.60258
G1 X127.478 Y99.118 E5.6105
G1 X127.696 Y99.484 E5.62467
G1 X128.082 Y100.162 E5.65062
G1 X128.365 Y100.693 E5.67063
G1 X128.503 Y100.971 E5.68096
G1 X128.708 Y101.409 E5.69704
G1 X128.972 Y102.008 E5.71881
G1 X129.41 Y103.188 E5.76068
G1 X129.849 Y104.658 E5.8117
G1 X130.048 Y105.385 E5.83677
G1 X130.252 Y106.283 E5.8674
G1 X130.346 Y106.9 E5.88816
G1 X130.408 Y107.445 E5.9064
G1 X130.508 Y108.522 E5.94238
G1 X130.553 Y109.11 E5.96199
G1 X130.583 Y110.03 E5.99261
G1 X130.558 Y110.663 E6.01368
G1 X130.481 Y111.758 E6.05019
G1 X130.45 Y112.112 E6.06201
G1 X130.367 Y112.909 E6.08866
G1 X130.232 Y113.82 E6.11929
G1 X130.113 Y114.36 E6.13768
G1 X129.891 Y115.2 E6.16658
G1 X129.643 Y116.057 E6.19625
G1 X129.447 Y116.706 E6.2188
G1 X129.018 Y117.874 E6.26019
G1 X128.64 Y118.731 E6.29134
G1 X128.47 Y119.092 E6.30461
G1 X128.2 Y119.626 E6.32451
G1 X128.051 Y119.901 E6.33492
G1 X127.82 Y120.305 E6.35039
G1 X127.454 Y120.915 E6.37405
G1 X127.134 Y121.416 E6.39383
G1 X126.988 Y121.631 E6.40247
G1 X126.712 Y122.018 E6.41828
G1 X126.249 Y122.638 E6.44402
G1 X125.899 Y123.082 E6.46282
G1 X125.754 Y123.256 E6.47035
G1 X125.412 Y123.647 E6.48763
G1 X124.883 Y124.222 E6.51362
G1 X124.45 Y124.665 E6.53422
G1 X124.238 Y124.87 E6.54403
G1 X123.891 Y125.191 E6.55975
G1 X123.321 Y125.695 E6.58506
G1 X122.836 Y126.099 E6.60605
G1 X122.67 Y126.229 E6.61307
G1 X122.303 Y126.504 E6.62832
G1 X121.642 Y126.977 E6.65535
G1 X121.125 Y127.324 E6.67606
G1 X120.914 Y127.457 E6.68436
G1 X120.499 Y127.706 E6.70046
G1 X119.825 Y128.089 E6.72624
G1 X119.301 Y128.368 E6.74599
G1 X119.023 Y128.506 E6.75631
G1 X118.582 Y128.712 E6.7725
G1 X117.987 Y128.974 E6.79412
G1 X116.806 Y129.412 E6.83602
G1 X115.342 Y129.849 E6.88683
G1 X114.615 Y130.048 E6.9119
G1 X113.717 Y130.252 E6.94253
G1 X113.1 Y130.346 E6.96329
G1 X112.555 Y130.408 E6.98153
G1 X111.475 Y130.508 E7.01761
G1 X110.885 Y130.553 E7.03729
G1 X109.965 Y130.583 E7.0679
G1 X109.334 Y130.558 E7.08891
G1 X108.241 Y130.481 E7.12535
G1 X107.887 Y130.45 E7.13717
G1 X107.091 Y130.367 E7.16379
G1 X106.18 Y130.232 E7.19442
G1 X105.684 Y130.123 E7.21131
G1 X105.458 Y130.068 E7.21904
G1 X104.802 Y129.891 E7.24164
G1 X103.936 Y129.641 E7.27162
G1 X103.291 Y129.446 E7.29403
G1 X102.126 Y129.018 E7.33531
G1 X101.265 Y128.638 E7.36662
G1 X100.898 Y128.465 E7.38011
G1 X100.347 Y128.185 E7.40067
G1 X100.079 Y128.039 E7.41082
G1 X99.692 Y127.818 E7.42564
G1 X99.081 Y127.451 E7.44935
G1 X98.603 Y127.146 E7.46821
G1 X98.387 Y127 E7.47688
G1 X97.983 Y126.713 E7.49336
G1 X97.364 Y126.251 E7.51905
G1 X96.888 Y125.874 E7.53925
G1 X96.701 Y125.717 E7.54737
G1 X96.341 Y125.401 E7.5633
G1 X95.768 Y124.874 E7.58919
G1 X95.28 Y124.395 E7.61194
G1 X95.087 Y124.193 E7.62123
G1 X94.806 Y123.886 E7.63507
G1 X94.3 Y123.313 E7.6605
G1 X93.933 Y122.875 E7.6795
G1 X93.804 Y122.712 E7.68642
G1 X93.497 Y122.304 E7.7034
G1 X93.021 Y121.639 E7.7306
G1 X92.66 Y121.101 E7.75215
G1 X92.517 Y120.873 E7.7611
G1 X92.274 Y120.465 E7.77689
G1 X91.903 Y119.81 E7.80193
G1 X91.625 Y119.286 E7.82166
G1 X91.485 Y119.003 E7.83216
G1 X91.283 Y118.57 E7.84805
G1 X91.024 Y117.981 E7.86945
G1 X90.589 Y116.808 E7.91106
G1 X90.15 Y115.338 E7.96209
G1 X89.951 Y114.61 E7.98719
G1 X89.747 Y113.712 E8.01782
G1 X89.655 Y113.104 E8.03827
G1 X89.591 Y112.55 E8.05682
G1 X89.492 Y111.479 E8.0926
G1 X89.447 Y110.895 E8.11208
G1 X89.417 Y109.975 E8.14269
G1 X89.442 Y109.337 E8.16393
G1 X89.519 Y108.242 E8.20044
G1 X89.55 Y107.885 E8.21236
G1 X89.633 Y107.09 E8.23894
G1 X89.769 Y106.18 E8.26955
G1 X89.88 Y105.669 E8.28694
G1 X89.941 Y105.42 E8.29546
G1 X90.129 Y104.73 E8.31925
G1 X90.358 Y103.939 E8.34664
G1 X90.554 Y103.291 E8.36916
G1 X90.979 Y102.134 E8.41015
G1 X91.36 Y101.269 E8.44159
G1 X91.53 Y100.908 E8.45486
G1 X91.808 Y100.36 E8.4753
G1 X91.957 Y100.086 E8.48567
G1 X92.185 Y99.688 E8.50093
G1 X92.559 Y99.066 E8.52507
G1 X92.863 Y98.589 E8.54388
G1 X93.001 Y98.385 E8.55207
G1 X93.288 Y97.982 E8.56853
G1 X93.751 Y97.362 E8.59426
G1 X94.127 Y96.887 E8.61441
G1 X94.279 Y96.706 E8.62228
G1 X94.592 Y96.349 E8.63807
G1 X95.116 Y95.779 E8.66382
G1 X95.553 Y95.332 E8.68461
G0 F6000 X95.831 Y95.619
G1 F1200 X96.041 Y95.416 E8.69432
G1 X96.379 Y95.104 E8.70962
G1 X96.951 Y94.599 E8.735
G1 X97.404 Y94.221 E8.75463
G1 X97.576 Y94.086 E8.7619
G1 X97.929 Y93.822 E8.77656
G1 X98.58 Y93.355 E8.80321
G1 X99.126 Y92.989 E8.82507
G1 X99.352 Y92.848 E8.83393
G1 X99.716 Y92.631 E8.84802
G1 X100.382 Y92.253 E8.87349
G1 X100.896 Y91.981 E8.89284
G1 X101.169 Y91.846 E8.90297
G1 X101.585 Y91.651 E8.91825
G1 X102.181 Y91.389 E8.9399
G1 X103.309 Y90.971 E8.97991
G1 X104.764 Y90.537 E9.03041
G1 X105.491 Y90.338 E9.05548
G1 X106.372 Y90.138 E9.08553
G1 X106.948 Y90.051 E9.1049
G1 X107.483 Y89.99 E9.12281
G1 X108.555 Y89.891 E9.15862
G1 X109.145 Y89.846 E9.1783
G1 X110.048 Y89.817 E9.20835
G1 X110.638 Y89.841 E9.22799
G1 X112.072 Y89.948 E9.27582
G1 X112.868 Y90.031 E9.30244
G1 X113.761 Y90.164 E9.33246
G1 X114.222 Y90.265 E9.34816
G1 X114.448 Y90.32 E9.3559
G1 X115.152 Y90.512 E9.38017
G1 X116.523 Y90.916 E9.42771
G1 X117.707 Y91.346 E9.4696
G1 X118.561 Y91.722 E9.50064
G1 X118.922 Y91.892 E9.51391
G1 X119.449 Y92.159 E9.53356
G1 X119.723 Y92.308 E9.54393
G1 X120.102 Y92.525 E9.55846
G1 X120.713 Y92.892 E9.58216
G1 X121.164 Y93.179 E9.59994
G1 X121.379 Y93.324 E9.60857
G1 X121.779 Y93.608 E9.62489
G1 X122.399 Y94.071 E9.65062
G1 X122.826 Y94.408 E9.66871
G1 X123 Y94.553 E9.67625
G1 X123.376 Y94.883 E9.69289
G1 X123.951 Y95.412 E9.71887
G1 X124.378 Y95.828 E9.7387
G1 X124.583 Y96.04 E9.74851
G1 X124.894 Y96.376 E9.76374
G1 X125.395 Y96.943 E9.7889
G1 X125.771 Y97.395 E9.80846
G1 X125.903 Y97.563 E9.81557
G1 X126.166 Y97.913 E9.83013
G1 X126.641 Y98.574 E9.8572
G1 X127.012 Y99.128 E9.87938
G1 X127.138 Y99.33 E9.88729
G1 X127.348 Y99.681 E9.9009
G1 X127.734 Y100.359 E9.92685
G1 X128.006 Y100.871 E9.94613
G1 X128.144 Y101.149 E9.95645
G1 X128.342 Y101.57 E9.97193
G1 X128.606 Y102.169 E9.9937
G1 X129.028 Y103.305 E10.03401
G1 X129.463 Y104.764 E10.08464
G1 X129.662 Y105.491 E10.10971
G1 X129.862 Y106.372 E10.13976
G1 X129.949 Y106.948 E10.15914
G1 X130.01 Y107.483 E10.17704
G1 X130.109 Y108.553 E10.21278
G1 X130.154 Y109.141 E10.2324
G1 X130.183 Y110.043 E10.26242
G1 X130.159 Y110.634 E10.28209
G1 X130.082 Y111.729 E10.3186
G1 X130.052 Y112.071 E10.33002
G1 X129.969 Y112.868 E10.35667
G1 X129.836 Y113.761 E10.3867
G1 X129.725 Y114.264 E10.40383
G1 X129.506 Y115.089 E10.43222
G1 X129.26 Y115.941 E10.46171
G1 X129.064 Y116.59 E10.48426
G1 X128.652 Y117.714 E10.52408
G1 X128.278 Y118.561 E10.55488
G1 X128.108 Y118.922 E10.56815
G1 X127.848 Y119.435 E10.58728
G1 X127.699 Y119.71 E10.59768
G1 X127.477 Y120.099 E10.61258
G1 X127.111 Y120.709 E10.63624
G1 X126.803 Y121.191 E10.65526
G1 X126.657 Y121.406 E10.6639
G1 X126.392 Y121.779 E10.67912
G1 X125.929 Y122.399 E10.70486
G1 X125.592 Y122.826 E10.72295
G1 X125.447 Y123 E10.73049
G1 X125.117 Y123.376 E10.74712
G1 X124.588 Y123.951 E10.77311
G1 X124.172 Y124.378 E10.79294
G1 X123.96 Y124.583 E10.80275
G1 X123.627 Y124.891 E10.81783
G1 X123.057 Y125.395 E10.84314
G1 X122.589 Y125.785 E10.8634
G1 X122.423 Y125.915 E10.87042
G1 X122.07 Y126.179 E10.88508
G1 X121.409 Y126.652 E10.91211
G1 X120.912 Y126.986 E10.93203
G1 X120.701 Y127.119 E10.94032
G1 X120.301 Y127.358 E10.95582
G1 X119.627 Y127.741 E10.9816
G1 X119.123 Y128.009 E11.00059
G1 X118.845 Y128.147 E11.01091
G1 X118.421 Y128.346 E11.02649
G1 X117.826 Y128.608 E11.04812
G1 X116.689 Y129.03 E11.08845
G1 X115.236 Y129.463 E11.13888
G1 X114.509 Y129.662 E11.16395
G1 X113.628 Y129.862 E11.194
G1 X113.052 Y129.949 E11.21337
