;FLAVOR:Marlin
;TIME:1491
;Filament used: 1.36497m
;Layer height: 0.2
;MINX:89
;MINY:89
;MINZ:0.2
;MAXX:131
;MAXY:131
;MAXZ:20
;Generated with Cura_SteamEngine 4.5.0
M140 S50
M105
M190 S50
M104 S200
M105
M109 S200
M82 ;absolute extrusion mode
M201 X500.00 Y500.00 Z100.00 E5000.00 ;Setup machine max acceleration
M203 X500.00 Y500.00 Z10.00 E50.00 ;Setup machine max feedrate
M204 P500.00 R1000.00 T500.00 ;Setup Print/Retract/Travel acceleration
M205 X8.00 Y8.00 Z0.40 E5.00 ;Setup Jerk
M220 S100 ;Reset Feedrate
M221 S100 ;Reset Flowrate

G28 ;Home

G92 E0 ;Reset Extruder
G1 Z2.0 F3000 ;Move Z Axis up
G1 X10.1 Y20 Z0.28 F5000.0 ;Move to start position
G1 X10.1 Y200.0 Z0.28 F1500.0 E15 ;Draw the first line
G1 X10.4 Y200.0 Z0.28 F5000.0 ;Move to side a little
G1 X10.4 Y20 Z0.28 F1500.0 E30 ;Draw the second line
G92 E0 ;Reset Extruder
G1 Z2.0 F3000 ;Move Z Axis up

G92 E0
G92 E0
G1 F2700 E-5
;LAYER_COUNT:100
;LAYER:0
M107
G0 F6000 X92.198 Y92.264 Z0.2
;TYPE:SKIRT
G1 F2700 E0
G1 F1200 X92.886 Y91.627 E0.03119
G1 X93.626 Y91.051 E0.06237
G1 X94.412 Y90.539 E0.09357
G1 X95.239 Y90.097 E0.12476
G1 X96.101 Y89.727 E0.15596
G1 X96.991 Y89.431 E0.18716
G1 X97.903 Y89.213 E0.21835
G1 X98.83 Y89.072 E0.24953
G1 X99.701 Y89.013 E0.27857
G1 X100.33 Y89 E0.29949
G1 X119.451 Y89.001 E0.93546
G1 X120.149 Y89.011 E0.95868
G1 X121.085 Y89.065 E0.98986
G1 X122.013 Y89.197 E1.02104
G1 X122.927 Y89.409 E1.05224
G1 X123.819 Y89.698 E1.08343
G1 X124.684 Y90.061 E1.11463
G1 X125.514 Y90.497 E1.14581
G1 X126.305 Y91.002 E1.17703
G1 X127.049 Y91.573 E1.20822
G1 X127.742 Y92.205 E1.23942
G1 X128.379 Y92.893 E1.2706
G1 X128.954 Y93.634 E1.3018
G1 X129.465 Y94.42 E1.33298
G1 X129.907 Y95.248 E1.3642
G1 X130.276 Y96.11 E1.39538
G1 X130.571 Y97 E1.42657
G1 X130.789 Y97.912 E1.45776
G1 X130.929 Y98.84 E1.48897
G1 X130.987 Y99.701 E1.51767
G1 X131 Y100.33 E1.5386
G1 X130.999 Y119.4 E2.17287
G1 X130.99 Y120.127 E2.19705
G1 X130.939 Y121.064 E2.22826
G1 X130.807 Y121.992 E2.25944
G1 X130.598 Y122.906 E2.29062
G1 X130.311 Y123.799 E2.32182
G1 X129.949 Y124.665 E2.35304
G1 X129.515 Y125.496 E2.38422
G1 X129.011 Y126.287 E2.41541
G1 X128.442 Y127.032 E2.44659
G1 X127.811 Y127.727 E2.47782
G1 X127.124 Y128.365 E2.509
G1 X126.385 Y128.942 E2.54018
G1 X125.599 Y129.454 E2.57138
G1 X124.773 Y129.897 E2.60256
G1 X123.911 Y130.269 E2.63378
G1 X123.022 Y130.565 E2.66495
G1 X122.11 Y130.785 E2.69615
G1 X121.183 Y130.926 E2.72734
G1 X120.299 Y130.987 E2.75681
G1 X119.67 Y131 E2.77773
G1 X100.565 Y130.999 E3.41317
G1 X99.867 Y130.99 E3.43639
G1 X98.931 Y130.938 E3.46757
G1 X98.002 Y130.806 E3.49878
G1 X97.088 Y130.596 E3.52997
G1 X96.195 Y130.309 E3.56116
G1 X95.33 Y129.946 E3.59237
G1 X94.499 Y129.512 E3.62355
G1 X93.708 Y129.008 E3.65474
G1 X92.963 Y128.438 E3.68594
G1 X92.269 Y127.807 E3.71714
G1 X91.632 Y127.12 E3.7483
G1 X91.055 Y126.38 E3.77951
G1 X90.543 Y125.594 E3.81071
G1 X90.1 Y124.767 E3.84191
G1 X89.729 Y123.906 E3.8731
G1 X89.433 Y123.016 E3.90429
G1 X89.214 Y122.104 E3.93549
G1 X89.073 Y121.177 E3.96667
G1 X89.013 Y120.288 E3.99631
G1 X89 Y119.658 E4.01727
G1 X89.001 Y100.525 E4.65363
G1 X89.01 Y99.86 E4.67575
G1 X89.063 Y98.924 E4.70694
G1 X89.195 Y97.995 E4.73814
G1 X89.406 Y97.081 E4.76934
G1 X89.694 Y96.189 E4.80052
G1 X90.057 Y95.324 E4.83172
G1 X90.492 Y94.493 E4.86292
G1 X90.996 Y93.703 E4.89408
G1 X91.566 Y92.958 E4.92528
G1 X92.198 Y92.264 E4.9565
G0 F6000 X92.589 Y92.439
G1 F1200 X93.274 Y91.823 E4.98714
G1 X94.01 Y91.27 E5.01776
G1 X94.791 Y90.782 E5.04839
G1 X95.611 Y90.364 E5.07901
G1 X96.465 Y90.019 E5.10964
G1 X97.345 Y89.749 E5.14026
G1 X98.245 Y89.557 E5.17086
G1 X99.159 Y89.443 E5.2015
G1 X99.712 Y89.413 E5.21992
G1 X100.33 Y89.4 E5.24048
G1 X119.445 Y89.401 E5.87625
G1 X120.143 Y89.411 E5.89946
G1 X121.062 Y89.464 E5.93008
G1 X121.973 Y89.597 E5.9607
G1 X122.869 Y89.808 E5.99132
G1 X123.743 Y90.096 E6.02192
G1 X124.59 Y90.459 E6.05257
G1 X125.401 Y90.894 E6.08318
G1 X126.171 Y91.398 E6.11379
G1 X126.895 Y91.967 E6.14442
G1 X127.567 Y92.597 E6.17506
G1 X128.182 Y93.282 E6.20567
G1 X128.735 Y94.018 E6.23629
G1 X129.222 Y94.799 E6.26691
G1 X129.639 Y95.62 E6.29753
G1 X129.984 Y96.474 E6.32817
G1 X130.253 Y97.354 E6.35877
G1 X130.445 Y98.255 E6.38941
G1 X130.558 Y99.168 E6.42001
G1 X130.587 Y99.712 E6.43813
G1 X130.6 Y100.33 E6.45869
G1 X130.599 Y119.395 E7.0928
G1 X130.59 Y120.122 E7.11698
G1 X130.539 Y121.041 E7.14759
G1 X130.408 Y121.953 E7.17823
G1 X130.198 Y122.849 E7.20884
G1 X129.912 Y123.724 E7.23946
G1 X129.551 Y124.571 E7.27008
G1 X129.117 Y125.383 E7.30071
G1 X128.615 Y126.155 E7.33134
G1 X128.047 Y126.88 E7.36197
G1 X127.419 Y127.553 E7.39258
G1 X126.735 Y128.169 E7.4232
G1 X126 Y128.723 E7.45381
G1 X125.22 Y129.212 E7.48443
G1 X124.4 Y129.631 E7.51506
G1 X123.547 Y129.977 E7.54568
G1 X122.667 Y130.248 E7.5763
G1 X121.767 Y130.441 E7.60692
G1 X120.853 Y130.556 E7.63756
G1 X120.288 Y130.587 E7.65638
G1 X119.67 Y130.6 E7.67693
G1 X100.57 Y130.599 E8.3122
G1 X99.872 Y130.59 E8.33542
G1 X98.953 Y130.538 E8.36604
G1 X98.042 Y130.407 E8.39665
G1 X97.146 Y130.197 E8.42726
G1 X96.271 Y129.91 E8.45788
G1 X95.424 Y129.548 E8.48852
G1 X94.612 Y129.114 E8.51914
G1 X93.841 Y128.612 E8.54974
G1 X93.116 Y128.044 E8.58038
G1 X92.443 Y127.415 E8.61101
G1 X91.828 Y126.731 E8.64161
G1 X91.274 Y125.996 E8.67222
G1 X90.786 Y125.215 E8.70285
G1 X90.367 Y124.395 E8.73348
G1 X90.021 Y123.542 E8.76409
G1 X89.751 Y122.662 E8.79471
G1 X89.558 Y121.761 E8.82536
G1 X89.444 Y120.848 E8.85596
G1 X89.413 Y120.277 E8.87498
G1 X89.4 Y119.658 E8.89557
G1 X89.401 Y100.531 E9.53174
G1 X89.41 Y99.866 E9.55386
G1 X89.462 Y98.946 E9.58451
G1 X89.594 Y98.035 E9.61512
G1 X89.805 Y97.139 E9.64574
G1 X90.092 Y96.264 E9.67637
G1 X90.455 Y95.418 E9.70699
G1 X90.889 Y94.606 E9.73761
G1 X91.392 Y93.835 E9.76823
G1 X91.961 Y93.111 E9.79885
G1 X92.589 Y92.439 E9.82945
G0 F6000 X92.981 Y92.617
G1 F1200 X93.662 Y92.024 E9.85948
G1 X94.394 Y91.494 E9.88954
G1 X95.169 Y91.031 E9.91956
G1 X95.982 Y90.638 E9.9496
G1 X96.827 Y90.318 E9.97965
G1 X97.696 Y90.075 E10.00966
G1 X98.584 Y89.909 E10.03971
G1 X99.723 Y89.813 E10.07773
G1 X100.33 Y89.8 E10.09792
G1 X119.439 Y89.801 E10.73349
G1 X120.137 Y89.811 E10.75671
G1 X121.039 Y89.864 E10.78676
G1 X121.932 Y89.996 E10.81678
G1 X122.81 Y90.207 E10.84682
G1 X123.666 Y90.495 E10.87686
G1 X124.493 Y90.857 E10.90688
G1 X125.285 Y91.292 E10.93694
G1 X126.036 Y91.794 E10.96698
G1 X126.739 Y92.361 E10.99702
G1 X127.389 Y92.988 E11.02706
G1 X127.981 Y93.67 E11.05709
G1 X128.511 Y94.401 E11.08713
G1 X128.973 Y95.177 E11.11716
G1 X129.366 Y95.99 E11.1472
G1 X129.684 Y96.835 E11.17723
G1 X129.927 Y97.705 E11.20727
G1 X130.092 Y98.593 E11.23731
G1 X130.187 Y99.723 E11.27503
G1 X130.2 Y100.33 E11.29522
G1 X130.199 Y119.39 E11.92916
G1 X130.19 Y120.117 E11.95334
G1 X130.139 Y121.019 E11.98339
G1 X130.008 Y121.913 E12.01344
G1 X129.799 Y122.791 E12.04346
G1 X129.513 Y123.648 E12.07351
G1 X129.152 Y124.476 E12.10355
G1 X128.72 Y125.268 E12.13356
G1 X128.219 Y126.02 E12.16361
G1 X127.653 Y126.724 E12.19366
G1 X127.028 Y127.375 E12.22367
G1 X126.347 Y127.969 E12.25373
G1 X125.616 Y128.5 E12.28378
G1 X124.842 Y128.964 E12.31379
G1 X124.029 Y129.358 E12.34384
G1 X123.185 Y129.678 E12.37386
G1 X122.315 Y129.923 E12.40393
G1 X121.428 Y130.089 E12.43394
G1 X120.277 Y130.187 E12.47236
G1 X119.67 Y130.2 E12.49255
G1 X100.575 Y130.199 E13.12766
G1 X99.877 Y130.19 E13.15087
G1 X98.976 Y130.139 E13.18089
G1 X98.082 Y130.007 E13.21095
G1 X97.204 Y129.798 E13.24096
G1 X96.347 Y129.511 E13.27102
G1 X95.52 Y129.15 E13.30104
G1 X94.727 Y128.717 E13.33109
G1 X93.976 Y128.216 E13.36111
G1 X93.272 Y127.65 E13.39116
G1 X92.621 Y127.024 E13.4212
G1 X92.028 Y126.343 E13.45123
G1 X91.498 Y125.612 E13.48126
G1 X91.034 Y124.837 E13.51131
G1 X90.64 Y124.024 E13.54135
G1 X90.32 Y123.18 E13.57138
G1 X90.076 Y122.31 E13.60143
G1 X89.91 Y121.422 E13.63148
G1 X89.813 Y120.267 E13.67003
G1 X89.8 Y119.658 E13.69029
G1 X89.801 Y100.536 E14.32629
G1 X89.81 Y99.871 E14.34841
G1 X89.862 Y98.969 E14.37846
G1 X89.994 Y98.076 E14.40848
G1 X90.204 Y97.198 E14.43851
G1 X90.491 Y96.341 E14.46857
G1 X90.853 Y95.514 E14.49859
G1 X91.286 Y94.722 E14.52861
G1 X91.788 Y93.971 E14.55866
G1 X92.355 Y93.267 E14.58872
G1 X92.981 Y92.617 E14.61874
G1 F2700 E9.61874
;MESH:2cmCube.stl
G0 F6000 X100.414 Y99.335
G0 X100.414 Y100.414
G0 X101 Y119
;TYPE:WALL-INNER
G1 F2700 E14.61874
G1 F1200 X101 Y101 E15.21742
G1 X119 Y101 E15.8161
G1 X119 Y119 E16.41479
G1 X101 Y119 E17.01347
G0 F6000 X100.6 Y119.4
G1 F1200 X100.6 Y100.6 E17.63876
G1 X119.4 Y100.6 E18.26405
G1 X119.4 Y119.4 E18.88934
G1 X100.6 Y119.4 E19.51463
G0 F6000 X100.2 Y119.8
;TYPE:WALL-OUTER
G1 F1200 X100.2 Y100.2 E20.16653
G1 X119.8 Y100.2 E20.81843
G1 X119.8 Y119.8 E21.47033
G1 X100.2 Y119.8 E22.12223
G0 F6000 X100.47 Y119.53
G0 X101.11 Y118.61
G0 X101.39 Y118.61
;TYPE:SKIN
G1 F1200 X101.39 Y101.39 E22.69497
G1 X118.61 Y101.39 E23.2677
G1 X118.61 Y118.61 E23.84044
G1 X101.39 Y118.61 E24.41318
G0 F6000 X102.044 Y118.449
G1 F1200 X101.549 Y117.954 E24.43647
G0 F6000 X101.549 Y117.388
G1 F1200 X102.61 Y118.449 E24.48637
G0 F6000 X103.176 Y118.449
G1 F1200 X101.549 Y116.823 E24.56288
G0 F6000 X101.549 Y116.257
G1 F1200 X103.741 Y118.449 E24.66598
G0 F6000 X104.307 Y118.449
G1 F1200 X101.549 Y115.691 E24.79571
G0 F6000 X101.549 Y115.126
G1 F1200 X104.873 Y118.449 E24.95204
G0 F6000 X105.438 Y118.449
G1 F1200 X101.549 Y114.56 E25.13497
G0 F6000 X101.549 Y113.994
G1 F1200 X106.004 Y118.449 E25.34452
G0 F6000 X106.57 Y118.449
G1 F1200 X101.549 Y113.429 E25.58066
G0 F6000 X101.549 Y112.863
G1 F1200 X107.135 Y118.449 E25.84341
G0 F6000 X107.701 Y118.449
G1 F1200 X101.549 Y112.297 E26.13278
G0 F6000 X101.549 Y111.732
G1 F1200 X108.267 Y118.449 E26.44875
G0 F6000 X108.832 Y118.449
G1 F1200 X101.549 Y111.166 E26.79132
G0 F6000 X101.549 Y110.6
G1 F1200 X109.398 Y118.449 E27.16052
G0 F6000 X109.964 Y118.449
G1 F1200 X101.549 Y110.035 E27.55631
G0 F6000 X101.549 Y109.469
G1 F1200 X110.529 Y118.449 E27.9787
G0 F6000 X111.095 Y118.449
G1 F1200 X101.549 Y108.903 E28.42772
G0 F6000 X101.549 Y108.337
G1 F1200 X111.661 Y118.449 E28.90335
G0 F6000 X112.227 Y118.449
G1 F1200 X101.549 Y107.772 E29.40559
G0 F6000 X101.549 Y107.206
G1 F1200 X112.792 Y118.449 E29.93443
G0 F6000 X113.358 Y118.449
G1 F1200 X101.549 Y106.64 E30.48989
G0 F6000 X101.549 Y106.075
G1 F1200 X113.924 Y118.449 E31.07194
G0 F6000 X114.489 Y118.449
G1 F1200 X101.549 Y105.509 E31.6806
G0 F6000 X101.549 Y104.943
G1 F1200 X115.055 Y118.449 E32.31588
G0 F6000 X115.621 Y118.449
G1 F1200 X101.549 Y104.378 E32.97776
G0 F6000 X101.549 Y103.812
G1 F1200 X116.186 Y118.449 E33.66624
G0 F6000 X116.752 Y118.449
G1 F1200 X101.549 Y103.246 E34.38135
G0 F6000 X101.549 Y102.681
G1 F1200 X117.318 Y118.449 E35.12305
G0 F6000 X117.883 Y118.449
G1 F1200 X101.549 Y102.115 E35.89135
G0 F6000 X101.549 Y101.549
G1 F1200 X118.449 Y118.449 E36.68627
G0 F6000 X118.449 Y117.883
G1 F1200 X102.115 Y101.549 E37.45457
G0 F6000 X102.681 Y101.549
G1 F1200 X118.449 Y117.318 E38.19628
G0 F6000 X118.449 Y116.752
G1 F1200 X103.246 Y101.549 E38.91138
G0 F6000 X103.812 Y101.549
G1 F1200 X118.449 Y116.186 E39.59986
G0 F6000 X118.449 Y115.621
G1 F1200 X104.378 Y101.549 E40.26174
G0 F6000 X104.943 Y101.549
G1 F1200 X118.449 Y115.055 E40.89702
G0 F6000 X118.449 Y114.489
G1 F1200 X105.509 Y101.549 E41.50568
G0 F6000 X106.075 Y101.549
G1 F1200 X118.449 Y113.924 E42.08774
G0 F6000 X118.449 Y113.358
G1 F1200 X106.64 Y101.549 E42.64319
G0 F6000 X107.206 Y101.549
G1 F1200 X118.449 Y112.792 E43.17203
G0 F6000 X118.449 Y112.227
G1 F1200 X107.772 Y101.549 E43.67427
G0 F6000 X108.337 Y101.549
G1 F1200 X118.449 Y111.661 E44.14991
G0 F6000 X118.449 Y111.095
G1 F1200 X108.903 Y101.549 E44.59892
G0 F6000 X109.469 Y101.549
G1 F1200 X118.449 Y110.529 E45.02131
G0 F6000 X118.449 Y109.964
G1 F1200 X110.035 Y101.549 E45.4171
G0 F6000 X110.6 Y101.549
G1 F1200 X118.449 Y109.398 E45.7863
G0 F6000 X118.449 Y108.832
G1 F1200 X111.166 Y101.549 E46.12887
G0 F6000 X111.732 Y101.549
G1 F1200 X118.449 Y108.267 E46.44484
G0 F6000 X118.449 Y107.701
G1 F1200 X112.297 Y101.549 E46.73421
G0 F6000 X112.863 Y101.549
G1 F1200 X118.449 Y107.135 E46.99696
G0 F6000 X118.449 Y106.57
G1 F1200 X113.429 Y101.549 E47.23311
G0 F6000 X113.994 Y101.549
G1 F1200 X118.449 Y106.004 E47.44266
G0 F6000 X118.449 Y105.438
G1 F1200 X114.56 Y101.549 E47.62558
G0 F6000 X115.126 Y101.549
G1 F1200 X118.449 Y104.873 E47.78191
G0 F6000 X118.449 Y104.307
G1 F1200 X115.691 Y101.549 E47.91164
G0 F6000 X116.257 Y101.549
G1 F1200 X118.449 Y103.741 E48.01474
G0 F6000 X118.449 Y103.176
G1 F1200 X116.823 Y101.549 E48.09125
G0 F6000 X117.388 Y101.549
G1 F1200 X118.449 Y102.61 E48.14115
G0 F6000 X118.449 Y102.044
G1 F1200 X117.954 Y101.549 E48.16444
G0 F6000 X117.954 Y100.81
G1 F2700 E43.16444
;MESH:NONMESH
G0 F300 X117.954 Y100.81 Z0.4
G0 F6000 X101.182 Y101.182
G0 X101 Y119
;TIME_ELAPSED:83.566957
;LAYER:1
M140 S50
M106 S85
;TYPE:WALL-INNER
;MESH:2cmCube.stl
G1 F2700 E48.16444
G1 F1800 X101 Y101 E48.76312
G1 X119 Y101 E49.3618
G1 X119 Y119 E49.96048
G1 X101 Y119 E50.55917
G0 F9000 X100.6 Y119.4
G1 F1800 X100.6 Y100.6 E51.18446
G1 X119.4 Y100.6 E51.80975
G1 X119.4 Y119.4 E52.43504
G1 X100.6 Y119.4 E53.06033
G0 F9000 X100.2 Y119.8
;TYPE:WALL-OUTER
G1 F1800 X100.2 Y100.2 E53.71223
G1 X119.8 Y100.2 E54.36413
G1 X119.8 Y119.8 E55.01602
G1 X100.2 Y119.8 E55.66792
G0 F9000 X100.47 Y119.53
G0 X101.11 Y118.61
G0 X101.39 Y118.61
;TYPE:SKIN
G1 F1800 X101.39 Y101.39 E56.24066
G1 X118.61 Y101.39 E56.8134
G1 X118.61 Y118.61 E57.38614
G1 X101.39 Y118.61 E57.95888
G0 F9000 X101.11 Y118.61
G0 X101.11 Y102.097
G0 X101.549 Y102.097
G1 F1800 X102.097 Y101.549 E57.98466
G0 F9000 X102.662 Y101.549
G1 F1800 X101.549 Y102.662 E58.03701
G0 F9000 X101.549 Y103.228
G1 F1800 X103.228 Y101.549 E58.11598
G0 F9000 X103.794 Y101.549
G1 F1800 X101.549 Y103.794 E58.22158
G0 F9000 X101.549 Y104.359
G1 F1800 X104.359 Y101.549 E58.35376
G0 F9000 X104.925 Y101.549
G1 F1800 X101.549 Y104.925 E58.51255
G0 F9000 X101.549 Y105.491
G1 F1800 X105.491 Y101.549 E58.69797
G0 F9000 X106.056 Y101.549
G1 F1800 X101.549 Y106.056 E58.90997
G0 F9000 X101.549 Y106.622
G1 F1800 X106.622 Y101.549 E59.14859
G0 F9000 X107.188 Y101.549
G1 F1800 X101.549 Y107.188 E59.41383
G0 F9000 X101.549 Y107.753
G1 F1800 X107.753 Y101.549 E59.70564
G0 F9000 X108.319 Y101.549
G1 F1800 X101.549 Y108.319 E60.02408
G0 F9000 X101.549 Y108.885
G1 F1800 X108.885 Y101.549 E60.36915
G0 F9000 X109.45 Y101.549
G1 F1800 X101.549 Y109.45 E60.74079
G0 F9000 X101.549 Y110.016
G1 F1800 X110.016 Y101.549 E61.13905
G0 F9000 X110.582 Y101.549
G1 F1800 X101.549 Y110.582 E61.56393
G0 F9000 X101.549 Y111.147
G1 F1800 X111.147 Y101.549 E62.01539
G0 F9000 X111.713 Y101.549
G1 F1800 X101.549 Y111.713 E62.49348
G0 F9000 X101.549 Y112.279
G1 F1800 X112.279 Y101.549 E62.99818
G0 F9000 X112.845 Y101.549
G1 F1800 X101.549 Y112.845 E63.52951
G0 F9000 X101.549 Y113.41
G1 F1800 X113.41 Y101.549 E64.08742
G0 F9000 X113.976 Y101.549
G1 F1800 X101.549 Y113.976 E64.67195
G0 F9000 X101.549 Y114.542
G1 F1800 X114.542 Y101.549 E65.2831
G0 F9000 X115.107 Y101.549
G1 F1800 X101.549 Y115.107 E65.92082
G0 F9000 X101.549 Y115.673
G1 F1800 X115.673 Y101.549 E66.58517
G0 F9000 X116.239 Y101.549
G1 F1800 X101.549 Y116.239 E67.27615
G0 F9000 X101.549 Y116.804
G1 F1800 X116.804 Y101.549 E67.99369
G0 F9000 X117.37 Y101.549
G1 F1800 X101.549 Y117.37 E68.73787
G0 F9000 X101.549 Y117.936
G1 F1800 X117.936 Y101.549 E69.50866
G0 F9000 X118.449 Y101.602
G1 F1800 X101.602 Y118.449 E70.30109
G0 F9000 X102.167 Y118.449
G1 F1800 X118.449 Y102.167 E71.06695
G0 F9000 X118.449 Y102.733
G1 F1800 X102.733 Y118.449 E71.80618
G0 F9000 X103.299 Y118.449
G1 F1800 X118.449 Y103.299 E72.51879
G0 F9000 X118.449 Y103.864
G1 F1800 X103.864 Y118.449 E73.20482
G0 F9000 X104.43 Y118.449
G1 F1800 X118.449 Y104.43 E73.86423
G0 F9000 X118.449 Y104.996
G1 F1800 X104.996 Y118.449 E74.49702
G0 F9000 X105.561 Y118.449
G1 F1800 X118.449 Y105.561 E75.10323
G0 F9000 X118.449 Y106.127
G1 F1800 X106.127 Y118.449 E75.68282
G0 F9000 X106.693 Y118.449
