;FLAVOR:Marlin
;TIME:282
;Filament used: 0.113178m
;Layer height: 0.2
;MINX:89.011
;MINY:89.015
;MINZ:0.2
;MAXX:130.979
;MAXY:130.987
;MAXZ:5
;Generated with Cura_SteamEngine 4.5.0
M140 S50
M105
M190 S50
M104 S200
M105
M109 S200
M82 ;absolute extrusion mode
M201 X500.00 Y500.00 Z100.00 E5000.00 ;Setup machine max acceleration
M203 X500.00 Y500.00 Z10.00 E50.00 ;Setup machine max feedrate
M204 P500.00 R1000.00 T500.00 ;Setup Print/Retract/Travel acceleration
M205 X8.00 Y8.00 Z0.40 E5.00 ;Setup Jerk
M220 S100 ;Reset Feedrate
M221 S100 ;Reset Flowrate

G28 ;Home

G92 E0 ;Reset Extruder
G1 Z2.0 F3000 ;Move Z Axis up
G1 X10.1 Y20 Z0.28 F5000.0 ;Move to start position
G1 X10.1 Y200.0 Z0.28 F1500.0 E15 ;Draw the first line
G1 X10.4 Y200.0 Z0.28 F5000.0 ;Move to side a little
G1 X10.4 Y20 Z0.28 F1500.0 E30 ;Draw the second line
G92 E0 ;Reset Extruder
G1 Z2.0 F3000 ;Move Z Axis up

G92 E0
G92 E0
G1 F2700 E-5
;LAYER_COUNT:25
;LAYER:0
M107
G0 F6000 X94.851 Y95.473 Z0.2
;TYPE:SKIRT
G1 F2700 E0
G1 F1200 X95.475 Y94.849 E0.02935
G1 X95.702 Y94.632 E0.0398
G1 X96.219 Y94.168 E0.0629
G1 X96.871 Y93.625 E0.09112
G1 X97.129 Y93.42 E0.10208
G1 X97.646 Y93.033 E0.12356
G1 X98.348 Y92.543 E0.15204
G1 X98.603 Y92.373 E0.16223
G1 X99.212 Y91.995 E0.18607
G1 X99.951 Y91.574 E0.21436
G1 X100.216 Y91.43 E0.22439
G1 X100.83 Y91.12 E0.24727
G1 X101.329 Y90.888 E0.26557
G1 X101.947 Y90.618 E0.288
G1 X102.518 Y90.392 E0.30842
G1 X103.034 Y90.204 E0.32669
G1 X103.392 Y90.08 E0.33929
G1 X103.702 Y89.979 E0.35014
G1 X104.288 Y89.806 E0.37046
G1 X105.114 Y89.591 E0.39885
G1 X105.446 Y89.512 E0.4102
G1 X106.156 Y89.367 E0.4343
G1 X106.947 Y89.237 E0.46096
G1 X107.292 Y89.188 E0.47255
G1 X107.924 Y89.117 E0.4937
G1 X108.822 Y89.047 E0.52366
G1 X109.119 Y89.031 E0.53355
G1 X109.785 Y89.015 E0.55571
G1 X110.376 Y89.019 E0.57537
G1 X111.037 Y89.039 E0.59736
G1 X111.646 Y89.079 E0.61766
G1 X112.198 Y89.131 E0.6361
G1 X112.857 Y89.209 E0.65817
G1 X113.496 Y89.309 E0.67969
G1 X114.355 Y89.473 E0.70877
G1 X114.676 Y89.542 E0.71969
G1 X115.319 Y89.7 E0.74172
G1 X116.123 Y89.929 E0.76952
G1 X116.465 Y90.035 E0.78143
G1 X117.099 Y90.253 E0.80373
G1 X117.604 Y90.444 E0.82169
G1 X118.224 Y90.695 E0.84393
G1 X118.8 Y90.951 E0.8649
G1 X119.287 Y91.185 E0.88287
G1 X119.865 Y91.479 E0.90444
G1 X120.434 Y91.795 E0.92608
G1 X120.913 Y92.08 E0.94462
G1 X121.475 Y92.432 E0.96668
G1 X122.024 Y92.804 E0.98874
G1 X122.742 Y93.329 E1.01832
G1 X122.984 Y93.515 E1.02847
G1 X123.482 Y93.921 E1.04984
G1 X124.131 Y94.489 E1.07853
G1 X124.354 Y94.693 E1.08858
G1 X124.851 Y95.177 E1.11165
G1 X125.479 Y95.835 E1.14191
G1 X125.686 Y96.062 E1.15212
G1 X126.128 Y96.578 E1.17472
G1 X126.658 Y97.243 E1.203
G1 X126.848 Y97.493 E1.21345
G1 X127.226 Y98.022 E1.23507
G1 X127.562 Y98.523 E1.25514
G1 X127.909 Y99.067 E1.2766
G1 X128.201 Y99.562 E1.29571
G1 X128.466 Y100.039 E1.31386
G1 X128.655 Y100.395 E1.32727
G1 X128.805 Y100.69 E1.33827
G1 X129.072 Y101.255 E1.35906
G1 X129.421 Y102.061 E1.38827
G1 X129.552 Y102.385 E1.3999
G1 X129.777 Y102.992 E1.42143
G1 X130.042 Y103.791 E1.44943
G1 X130.14 Y104.112 E1.46059
G1 X130.309 Y104.732 E1.48196
G1 X130.506 Y105.56 E1.51027
G1 X130.579 Y105.902 E1.5219
G1 X130.702 Y106.587 E1.54505
G1 X130.82 Y107.412 E1.57277
G1 X130.864 Y107.78 E1.58509
G1 X130.923 Y108.433 E1.6069
G1 X130.968 Y109.263 E1.63455
G1 X130.979 Y109.615 E1.64626
G1 X130.979 Y110.276 E1.66825
G1 X130.95 Y111.128 E1.6966
G1 X130.929 Y111.484 E1.70846
G1 X130.875 Y112.101 E1.72906
G1 X130.811 Y112.654 E1.74758
G1 X130.764 Y113.009 E1.75949
G1 X130.715 Y113.338 E1.77055
G1 X130.605 Y113.956 E1.79143
G1 X130.499 Y114.466 E1.80875
G1 X130.422 Y114.809 E1.82045
G1 X130.338 Y115.157 E1.83235
G1 X130.179 Y115.744 E1.85258
G1 X130.022 Y116.266 E1.87071
G1 X129.914 Y116.605 E1.88254
G1 X129.803 Y116.935 E1.89412
G1 X129.577 Y117.545 E1.91576
G1 X129.258 Y118.325 E1.94379
G1 X129.123 Y118.634 E1.95501
G1 X128.851 Y119.211 E1.97622
G1 X128.591 Y119.723 E1.99532
G1 X128.266 Y120.324 E2.01805
G1 X127.96 Y120.846 E2.03817
G1 X127.481 Y121.604 E2.06799
G1 X127.291 Y121.888 E2.07936
G1 X126.933 Y122.391 E2.09989
G1 X126.618 Y122.809 E2.1173
G1 X126.395 Y123.096 E2.12939
G1 X126.178 Y123.365 E2.14089
G1 X125.761 Y123.852 E2.16221
G1 X125.377 Y124.275 E2.18121
G1 X124.951 Y124.723 E2.20177
G1 X124.507 Y125.158 E2.22245
G1 X124.04 Y125.59 E2.24361
G1 X123.574 Y126.002 E2.26429
G1 X123.082 Y126.406 E2.28547
G1 X122.4 Y126.927 E2.31401
G1 X122.132 Y127.122 E2.32504
G1 X121.587 Y127.494 E2.34698
G1 X121.107 Y127.801 E2.36593
G1 X120.534 Y128.148 E2.38821
G1 X120.008 Y128.442 E2.40826
G1 X119.484 Y128.716 E2.42792
G1 X119.147 Y128.885 E2.44046
G1 X118.872 Y129.017 E2.45061
G1 X118.326 Y129.261 E2.4705
G1 X117.822 Y129.47 E2.48865
G1 X117.192 Y129.714 E2.51112
G1 X116.589 Y129.923 E2.53234
G1 X116.057 Y130.09 E2.55089
G1 X115.697 Y130.196 E2.56337
G1 X115.39 Y130.281 E2.57397
G1 X114.813 Y130.424 E2.59374
G1 X113.93 Y130.613 E2.62377
G1 X113.6 Y130.675 E2.63494
G1 X112.957 Y130.776 E2.65659
G1 X112.122 Y130.878 E2.68457
G1 X111.785 Y130.911 E2.69583
G1 X111.136 Y130.955 E2.71746
G1 X110.564 Y130.977 E2.7365
G1 X109.911 Y130.987 E2.75822
G1 X109.294 Y130.974 E2.77875
G1 X108.708 Y130.945 E2.79827
G1 X108.038 Y130.895 E2.82061
G1 X107.412 Y130.826 E2.84156
G1 X106.544 Y130.7 E2.87073
G1 X106.193 Y130.64 E2.88257
G1 X105.562 Y130.513 E2.90398
G1 X104.747 Y130.319 E2.93185
G1 X104.419 Y130.233 E2.94312
G1 X103.791 Y130.048 E2.9649
G1 X102.953 Y129.769 E2.99428
G1 X102.629 Y129.652 E3.00573
G1 X102.037 Y129.419 E3.02689
G1 X101.537 Y129.205 E3.04498
G1 X100.957 Y128.941 E3.06618
G1 X100.382 Y128.655 E3.08754
G1 X99.856 Y128.373 E3.10739
G1 X99.27 Y128.039 E3.12982
G1 X98.754 Y127.72 E3.15
G1 X98.27 Y127.402 E3.16926
G1 X97.735 Y127.033 E3.19088
G1 X97.23 Y126.657 E3.21182
G1 X96.804 Y126.32 E3.22988
G1 X96.514 Y126.082 E3.24236
G1 X96.244 Y125.853 E3.25414
G1 X95.815 Y125.469 E3.27329
G1 X95.433 Y125.109 E3.29075
G1 X95.165 Y124.849 E3.30316
G1 X94.934 Y124.616 E3.31408
G1 X94.509 Y124.162 E3.33476
G1 X94.108 Y123.709 E3.35488
G1 X93.696 Y123.222 E3.3761
G1 X93.287 Y122.7 E3.39816
G1 X92.793 Y122.021 E3.42608
G1 X92.59 Y121.727 E3.43797
G1 X92.248 Y121.201 E3.45883
G1 X91.783 Y120.429 E3.48881
G1 X91.636 Y120.171 E3.49869
G1 X91.329 Y119.591 E3.52051
G1 X91.075 Y119.076 E3.53961
G1 X90.922 Y118.752 E3.55153
G1 X90.781 Y118.441 E3.56289
G1 X90.546 Y117.883 E3.58302
G1 X90.363 Y117.412 E3.59983
G1 X90.238 Y117.076 E3.61175
G1 X90.122 Y116.746 E3.62339
G1 X89.934 Y116.159 E3.64389
G1 X89.779 Y115.624 E3.66241
G1 X89.688 Y115.29 E3.67393
G1 X89.601 Y114.95 E3.6856
G1 X89.464 Y114.341 E3.70636
G1 X89.36 Y113.811 E3.72433
G1 X89.299 Y113.474 E3.73572
G1 X89.246 Y113.151 E3.7466
G1 X89.162 Y112.525 E3.76761
G1 X89.103 Y111.966 E3.78631
G1 X89.071 Y111.607 E3.7983
G1 X89.048 Y111.29 E3.80887
G1 X89.02 Y110.664 E3.82971
G1 X89.011 Y109.765 E3.85961
G1 X89.015 Y109.464 E3.86962
G1 X89.043 Y108.818 E3.89113
G1 X89.083 Y108.264 E3.9096
G1 X89.115 Y107.899 E3.92179
G1 X89.15 Y107.568 E3.93286
G1 X89.23 Y106.968 E3.95299
G1 X89.324 Y106.387 E3.97257
G1 X89.441 Y105.756 E3.99391
G1 X89.587 Y105.105 E4.0161
G1 X89.783 Y104.356 E4.04185
G1 X89.882 Y104.006 E4.05395
G1 X90.097 Y103.33 E4.07755
G1 X90.391 Y102.513 E4.10642
G1 X90.51 Y102.204 E4.11744
G1 X90.76 Y101.608 E4.13893
G1 X91.108 Y100.85 E4.16668
G1 X91.254 Y100.551 E4.17774
G1 X91.573 Y99.947 E4.20046
G1 X91.996 Y99.21 E4.22872
G1 X92.146 Y98.96 E4.23842
G1 X92.53 Y98.364 E4.262
G1 X93.054 Y97.614 E4.29243
G1 X93.254 Y97.343 E4.30364
G1 X93.63 Y96.863 E4.32392
G1 X94.166 Y96.222 E4.35171
G1 X94.407 Y95.948 E4.36384
G1 X94.851 Y95.473 E4.38547
G0 F6000 X95.135 Y95.754
G1 F1200 X95.751 Y95.138 E4.41444
G1 X95.978 Y94.921 E4.42489
G1 X96.476 Y94.474 E4.44715
G1 X97.12 Y93.938 E4.47501
G1 X97.378 Y93.733 E4.48597
G1 X97.876 Y93.36 E4.50667
G1 X98.57 Y92.876 E4.53481
G1 X98.825 Y92.706 E4.545
G1 X99.412 Y92.342 E4.56798
G1 X100.142 Y91.925 E4.59594
G1 X100.407 Y91.781 E4.60597
G1 X100.999 Y91.483 E4.62801
G1 X101.498 Y91.251 E4.64632
G1 X102.105 Y90.986 E4.66834
G1 X102.655 Y90.767 E4.68803
G1 X103.171 Y90.579 E4.7063
G1 X103.516 Y90.46 E4.71844
G1 X103.826 Y90.359 E4.72928
G1 X104.39 Y90.193 E4.74884
G1 X105.206 Y89.98 E4.77689
G1 X105.538 Y89.901 E4.78824
G1 X106.222 Y89.762 E4.81145
G1 X107.003 Y89.633 E4.83778
G1 X107.348 Y89.584 E4.84937
G1 X107.957 Y89.516 E4.86975
G1 X108.844 Y89.446 E4.89935
G1 X109.141 Y89.43 E4.90924
G1 X109.783 Y89.415 E4.9306
G1 X110.374 Y89.419 E4.95025
G1 X111.021 Y89.439 E4.97178
G1 X111.608 Y89.478 E4.99135
G1 X112.489 Y89.566 E5.0208
G1 X112.807 Y89.606 E5.03146
G1 X113.423 Y89.702 E5.05219
G1 X114.271 Y89.864 E5.08091
G1 X114.592 Y89.933 E5.09183
G1 X115.212 Y90.086 E5.11307
G1 X116.004 Y90.311 E5.14045
G1 X116.346 Y90.417 E5.15236
G1 X116.958 Y90.627 E5.17388
G1 X117.749 Y90.931 E5.20207
G1 X118.072 Y91.064 E5.21369
G1 X118.627 Y91.312 E5.2339
G1 X119.395 Y91.686 E5.26232
G1 X119.681 Y91.834 E5.27303
G1 X120.229 Y92.139 E5.29389
G1 X120.973 Y92.586 E5.32275
G1 X121.261 Y92.769 E5.3341
G1 X121.79 Y93.128 E5.35537
G1 X122.499 Y93.647 E5.38459
G1 X122.741 Y93.833 E5.39474
G1 X123.22 Y94.224 E5.41531
G1 X123.861 Y94.784 E5.44362
G1 X124.084 Y94.988 E5.45367
G1 X124.562 Y95.454 E5.47587
G1 X125.183 Y96.105 E5.5058
G1 X125.39 Y96.332 E5.51601
G1 X125.816 Y96.829 E5.53779
G1 X126.339 Y97.485 E5.56569
G1 X126.529 Y97.735 E5.57613
G1 X126.893 Y98.245 E5.59697
G1 X127.411 Y99.026 E5.62814
G1 X127.57 Y99.28 E5.63811
G1 X127.851 Y99.756 E5.6565
G1 X128.116 Y100.233 E5.67465
G1 X128.299 Y100.577 E5.68761
G1 X128.449 Y100.872 E5.69861
G1 X128.706 Y101.415 E5.71859
G1 X129.05 Y102.211 E5.74743
G1 X129.181 Y102.535 E5.75906
G1 X129.398 Y103.119 E5.77978
G1 X129.659 Y103.908 E5.80742
G1 X129.757 Y104.229 E5.81858
G1 X129.92 Y104.826 E5.83917
G1 X130.114 Y105.643 E5.8671
G1 X130.187 Y105.985 E5.87873
G1 X130.307 Y106.645 E5.90104
G1 X130.423 Y107.46 E5.92842
G1 X130.467 Y107.828 E5.94075
G1 X130.523 Y108.456 E5.96172
G1 X130.568 Y109.276 E5.98903
G1 X130.579 Y109.628 E6.00074
G1 X130.58 Y110.264 E6.0219
G1 X130.551 Y111.104 E6.04985
G1 X130.53 Y111.46 E6.06171
G1 X130.478 Y112.055 E6.08158
G1 X130.414 Y112.608 E6.10009
G1 X130.319 Y113.279 E6.12263
G1 X130.213 Y113.875 E6.14277
G1 X130.107 Y114.385 E6.16009
G1 X130.033 Y114.715 E6.17134
G1 X129.949 Y115.063 E6.18325
G1 X129.796 Y115.629 E6.20275
G1 X129.639 Y116.151 E6.22088
G1 X129.535 Y116.477 E6.23226
G1 X129.424 Y116.807 E6.24384
G1 X129.206 Y117.396 E6.26473
G1 X128.891 Y118.165 E6.29237
G1 X128.756 Y118.474 E6.30359
G1 X128.494 Y119.029 E6.324
G1 X128.234 Y119.541 E6.3431
G1 X128.068 Y119.856 E6.35494
G1 X127.916 Y120.132 E6.36542
G1 X127.621 Y120.634 E6.38479
G1 X127.328 Y121.103 E6.40318
G1 X127.148 Y121.381 E6.41419
G1 X126.958 Y121.665 E6.42556
G1 X126.613 Y122.15 E6.44536
G1 X126.298 Y122.568 E6.46276
G1 X126.083 Y122.844 E6.4744
G1 X125.866 Y123.113 E6.4859
G1 X125.464 Y123.583 E6.50647
G1 X125.08 Y124.006 E6.52547
G1 X124.663 Y124.445 E6.54561
G1 X124.235 Y124.864 E6.56553
G1 X123.768 Y125.296 E6.58669
G1 X123.311 Y125.7 E6.60697
G1 X122.837 Y126.089 E6.62737
G1 X122.165 Y126.603 E6.65551
G1 X121.897 Y126.798 E6.66653
G1 X121.371 Y127.157 E6.68771
G1 X120.891 Y127.464 E6.70666
G1 X120.33 Y127.804 E6.72848
G1 X119.823 Y128.087 E6.74779
G1 X119.299 Y128.361 E6.76746
G1 X118.974 Y128.524 E6.77955
G1 X118.699 Y128.656 E6.7897
G1 X118.172 Y128.891 E6.80889
G1 X117.364 Y129.221 E6.83792
G1 X117.05 Y129.34 E6.84909
G1 X116.469 Y129.541 E6.86954
G1 X115.937 Y129.708 E6.88808
G1 X115.59 Y129.811 E6.90012
G1 X115.283 Y129.896 E6.91072
G1 X114.727 Y130.034 E6.92977
G1 X113.856 Y130.22 E6.95939
G1 X113.526 Y130.282 E6.97056
G1 X112.906 Y130.379 E6.99143
G1 X112.083 Y130.48 E7.01901
G1 X111.746 Y130.513 E7.03027
G1 X111.12 Y130.555 E7.05114
G1 X110.211 Y130.585 E7.08139
G1 X109.908 Y130.587 E7.09147
G1 X109.314 Y130.574 E7.11123
G1 X108.728 Y130.545 E7.13074
G1 X108.388 Y130.523 E7.14208
G1 X108.07 Y130.497 E7.15269
G1 X107.468 Y130.43 E7.17284
G1 X106.931 Y130.355 E7.19087
G1 X106.611 Y130.305 E7.20164
G1 X106.26 Y130.245 E7.21349
G1 X105.652 Y130.123 E7.23411
G1 X104.849 Y129.932 E7.26156
G1 X104.521 Y129.846 E7.27284
G1 X103.915 Y129.668 E7.29385
G1 X103.089 Y129.393 E7.3228
G1 X102.765 Y129.276 E7.33426
G1 X102.194 Y129.051 E7.35467
G1 X101.694 Y128.837 E7.37276
G1 X101.125 Y128.578 E7.39356
G1 X100.571 Y128.302 E7.41414
G1 X100.045 Y128.02 E7.43399
G1 X99.471 Y127.693 E7.45597
G1 X98.973 Y127.386 E7.47542
G1 X98.489 Y127.068 E7.49469
G1 X97.965 Y126.706 E7.51587
G1 X97.479 Y126.343 E7.53604
G1 X97.053 Y126.006 E7.55411
G1 X96.773 Y125.777 E7.56614
G1 X96.503 Y125.548 E7.57792
G1 X96.089 Y125.178 E7.59638
G1 X95.707 Y124.818 E7.61384
G1 X95.449 Y124.567 E7.62581
G1 X95.218 Y124.334 E7.63673
G1 X94.809 Y123.897 E7.65663
G1 X94.408 Y123.444 E7.67676
G1 X94.004 Y122.966 E7.69757
G1 X93.609 Y122.463 E7.71884
G1 X93.122 Y121.794 E7.74637
G1 X92.919 Y121.5 E7.75825
G1 X92.59 Y120.993 E7.77835
G1 X92.131 Y120.231 E7.80794
G1 X91.984 Y119.973 E7.81781
G1 X91.687 Y119.414 E7.83887
G1 X91.433 Y118.899 E7.85797
G1 X91.286 Y118.587 E7.86944
G1 X91.145 Y118.276 E7.8808
G1 X90.919 Y117.738 E7.9002
G1 X90.736 Y117.267 E7.91701
G1 X90.616 Y116.943 E7.9285
G1 X90.5 Y116.613 E7.94014
G1 X90.319 Y116.048 E7.95987
G1 X90.164 Y115.513 E7.9784
G1 X90.076 Y115.191 E7.9895
G1 X89.989 Y114.851 E8.00117
G1 X89.856 Y114.264 E8.02119
G1 X89.752 Y113.734 E8.03915
G1 X89.641 Y113.086 E8.06102
G1 X89.56 Y112.483 E8.08126
G1 X89.501 Y111.924 E8.09995
G1 X89.47 Y111.578 E8.11151
G1 X89.447 Y111.261 E8.12208
G1 X89.42 Y110.658 E8.14215
G1 X89.411 Y109.77 E8.17169
G1 X89.415 Y109.469 E8.1817
G1 X89.442 Y108.847 E8.20241
G1 X89.482 Y108.293 E8.22088
G1 X89.513 Y107.941 E8.23264
G1 X89.548 Y107.61 E8.24371
G1 X89.625 Y107.032 E8.2631
G1 X89.719 Y106.451 E8.28268
G1 X89.834 Y105.832 E8.30362
G1 X89.975 Y105.205 E8.32499
G1 X90.168 Y104.465 E8.35043
G1 X90.267 Y104.115 E8.36252
G1 X90.474 Y103.463 E8.38528
G1 X90.764 Y102.657 E8.41377
G1 X90.883 Y102.348 E8.42478
G1 X91.124 Y101.774 E8.44549
G1 X91.468 Y101.026 E8.47287
G1 X91.614 Y100.727 E8.48394
G1 X91.921 Y100.144 E8.50585
G1 X92.339 Y99.415 E8.5338
G1 X92.489 Y99.165 E8.5435
G1 X92.859 Y98.591 E8.56621
G1 X93.186 Y98.118 E8.58534
G1 X93.376 Y97.852 E8.59621
G1 X93.576 Y97.581 E8.60741
G1 X93.938 Y97.118 E8.62696
G1 X94.467 Y96.486 E8.65437
G1 X94.708 Y96.212 E8.66651
G1 X95.135 Y95.754 E8.68734
G0 F6000 X95.419 Y96.036
G1 F1200 X96.028 Y95.427 E8.71598
G1 X96.255 Y95.21 E8.72643
G1 X96.734 Y94.78 E8.74784
G1 X97.369 Y94.251 E8.77532
G1 X97.627 Y94.046 E8.78628
G1 X98.106 Y93.687 E8.80619
G1 X98.792 Y93.209 E8.834
G1 X99.047 Y93.039 E8.8442
G1 X99.612 Y92.689 E8.8663
G1 X100.333 Y92.277 E8.89392
G1 X100.598 Y92.133 E8.90395
G1 X101.168 Y91.846 E8.92518
G1 X101.945 Y91.489 E8.95362
G1 X102.262 Y91.353 E8.96509
G1 X102.792 Y91.143 E8.98405
G1 X103.308 Y90.955 E9.00232
G1 X103.64 Y90.841 E9.01399
G1 X103.95 Y90.74 E9.02484
G1 X104.493 Y90.579 E9.04367
G1 X105.299 Y90.369 E9.07138
G1 X105.631 Y90.29 E9.08273
G1 X106.289 Y90.156 E9.10506
G1 X107.06 Y90.029 E9.13105
G1 X107.405 Y89.98 E9.14264
G1 X107.99 Y89.914 E9.16222
G1 X108.565 Y89.866 E9.18141
G1 X109.162 Y89.83 E9.20131
G1 X109.78 Y89.815 E9.22187
G1 X110.371 Y89.819 E9.24152
G1 X111.006 Y89.839 E9.26265
G1 X111.571 Y89.876 E9.28149
G1 X112.123 Y89.928 E9.29993
G1 X112.757 Y90.003 E9.32116
G1 X113.35 Y90.095 E9.34112
G1 X114.187 Y90.255 E9.36946
G1 X114.508 Y90.324 E9.38038
G1 X115.104 Y90.471 E9.4008
G1 X115.886 Y90.693 E9.42784
G1 X116.228 Y90.799 E9.43975
G1 X116.816 Y91.002 E9.46044
G1 X117.597 Y91.301 E9.48825
G1 X117.92 Y91.434 E9.49987
G1 X118.454 Y91.672 E9.51931
G1 X119.211 Y92.041 E9.54732
G1 X119.497 Y92.189 E9.55804
G1 X120.025 Y92.482 E9.57812
G1 X120.504 Y92.767 E9.59666
G1 X121.046 Y93.107 E9.61794
G1 X121.555 Y93.452 E9.63839
G1 X122.255 Y93.964 E9.66723
G1 X122.497 Y94.15 E9.67739
G1 X122.958 Y94.526 E9.69717
G1 X123.591 Y95.079 E9.72513
G1 X123.814 Y95.283 E9.73518
G1 X124.274 Y95.732 E9.75656
