;FLAVOR:Marlin
;TIME:7483
;Filament used: 7.90328m
;Layer height: 0.2
;MINX:29.25
;MINY:40.588
;MINZ:0.2
;MAXX:190.75
;MAXY:180.207
;MAXZ:2
;Generated with Cura_SteamEngine 4.6.1
M140 S50
M105
M190 S50
M104 S200
M105
M109 S200
M82 ;absolute extrusion mode
M201 X500.00 Y500.00 Z100.00 E5000.00 ;Setup machine max acceleration
M203 X500.00 Y500.00 Z10.00 E50.00 ;Setup machine max feedrate
M204 P500.00 R1000.00 T500.00 ;Setup Print/Retract/Travel acceleration
M205 X8.00 Y8.00 Z0.40 E5.00 ;Setup Jerk
M220 S100 ;Reset Feedrate
M221 S100 ;Reset Flowrate

G28 ;Home

G92 E0 ;Reset Extruder
G1 Z2.0 F3000 ;Move Z Axis up
G1 X10.1 Y20 Z0.28 F5000.0 ;Move to start position
G1 X10.1 Y200.0 Z0.28 F1500.0 E15 ;Draw the first line
G1 X10.4 Y200.0 Z0.28 F5000.0 ;Move to side a little
G1 X10.4 Y20 Z0.28 F1500.0 E30 ;Draw the second line
G92 E0 ;Reset Extruder
G1 Z2.0 F3000 ;Move Z Axis up

G92 E0
G92 E0
G1 F2700 E-5
;LAYER_COUNT:10
;LAYER:0
M107
G0 F6000 X179.681 Y41.411 Z0.2
;TYPE:SKIRT
G1 F2700 E0
G1 F1200 X180.146 Y41.43 E0.01548
G1 X181.046 Y41.506 E0.04552
G1 X181.936 Y41.662 E0.07557
G1 X182.808 Y41.897 E0.10561
G1 X183.656 Y42.207 E0.13564
G1 X184.473 Y42.591 E0.16567
G1 X185.254 Y43.046 E0.19573
G1 X185.99 Y43.568 E0.22574
G1 X186.678 Y44.154 E0.2558
G1 X187.311 Y44.797 E0.28581
G1 X187.885 Y45.495 E0.31587
G1 X188.395 Y46.24 E0.34589
G1 X188.837 Y47.028 E0.37594
G1 X189.208 Y47.851 E0.40597
G1 X189.504 Y48.704 E0.436
G1 X189.724 Y49.58 E0.46604
G1 X189.901 Y50.849 E0.50866
G1 X189.919 Y51.086 E0.51656
G1 X189.948 Y51.845 E0.54183
G1 X189.949 Y53.608 E0.60046
G1 X189.939 Y54.338 E0.62475
G1 X189.887 Y55.239 E0.65476
G1 X189.679 Y56.493 E0.69704
G1 X189.038 Y59.271 E0.79187
G1 X188.539 Y61.745 E0.87581
G1 X188.11 Y64.255 E0.9605
G1 X187.756 Y66.734 E1.04379
G1 X187.466 Y69.27 E1.12869
G1 X187.248 Y71.822 E1.21388
G1 X187.105 Y74.318 E1.29703
G1 X187.032 Y76.886 E1.38248
G1 X187.03 Y79.42 E1.46676
G1 X187.101 Y81.95 E1.55094
G1 X187.244 Y84.493 E1.63565
G1 X187.459 Y87.041 E1.7207
G1 X187.744 Y89.555 E1.80485
G1 X188.094 Y92.023 E1.88776
G1 X188.532 Y94.586 E1.97424
G1 X189.021 Y97.032 E2.05721
G1 X189.681 Y99.92 E2.15574
G1 X189.843 Y100.808 E2.18576
G1 X189.93 Y101.808 E2.21915
G1 X189.943 Y102.153 E2.23063
G1 X189.95 Y102.537 E2.2434
G1 X189.95 Y168.471 E4.43638
G1 X189.94 Y169.324 E4.46475
G1 X189.889 Y170.226 E4.4948
G1 X189.758 Y171.12 E4.52485
G1 X189.549 Y171.998 E4.55487
G1 X189.263 Y172.855 E4.58492
G1 X188.902 Y173.683 E4.61496
G1 X188.47 Y174.475 E4.64497
G1 X187.969 Y175.227 E4.67502
G1 X187.403 Y175.931 E4.70506
G1 X186.778 Y176.582 E4.73508
G1 X186.097 Y177.176 E4.76514
G1 X185.366 Y177.707 E4.79519
G1 X184.592 Y178.171 E4.8252
G1 X183.779 Y178.565 E4.85525
G1 X182.935 Y178.885 E4.88527
G1 X182.065 Y179.13 E4.91533
G1 X181.178 Y179.296 E4.94535
G1 X180.027 Y179.394 E4.98377
G1 X179.42 Y179.407 E5.00396
G1 X40.957 Y179.407 E9.60926
G1 X40.127 Y179.397 E9.63687
G1 X39.226 Y179.346 E9.66688
G1 X38.332 Y179.214 E9.69694
G1 X37.454 Y179.005 E9.72696
G1 X36.597 Y178.718 E9.75702
G1 X35.77 Y178.357 E9.78703
G1 X34.977 Y177.924 E9.81708
G1 X34.226 Y177.423 E9.84711
G1 X33.522 Y176.857 E9.87715
G1 X32.871 Y176.231 E9.90719
G1 X32.278 Y175.55 E9.93723
G1 X31.748 Y174.819 E9.96726
G1 X31.284 Y174.044 E9.9973
G1 X30.89 Y173.231 E10.02735
G1 X30.57 Y172.387 E10.05737
G1 X30.326 Y171.517 E10.08742
G1 X30.16 Y170.629 E10.11747
G1 X30.063 Y169.474 E10.15602
G1 X30.05 Y168.865 E10.17628
G1 X30.05 Y52.889 E14.03366
G1 X30.06 Y52.08 E14.06057
G1 X30.112 Y51.178 E14.09062
G1 X30.244 Y50.285 E14.12064
G1 X30.454 Y49.406 E14.1507
G1 X30.741 Y48.55 E14.18073
G1 X31.102 Y47.722 E14.21077
G1 X31.536 Y46.93 E14.24081
G1 X32.037 Y46.179 E14.27084
G1 X32.604 Y45.476 E14.30087
G1 X33.23 Y44.825 E14.33091
G1 X33.911 Y44.232 E14.36095
G1 X34.642 Y43.702 E14.39098
G1 X35.417 Y43.238 E14.42102
G1 X36.23 Y42.845 E14.45106
G1 X37.075 Y42.526 E14.4811
G1 X37.945 Y42.282 E14.51115
G1 X38.832 Y42.116 E14.54116
G1 X39.973 Y42.02 E14.57925
G1 X40.58 Y42.007 E14.59944
G1 X114.873 Y42.007 E17.07044
G1 X117.479 Y41.97 E17.15712
G1 X120.044 Y41.861 E17.24251
G1 X122.546 Y41.684 E17.32593
G1 X124.257 Y41.513 E17.38313
G1 X124.875 Y41.46 E17.40376
G1 X125.446 Y41.427 E17.42278
G1 X126.594 Y41.396 E17.46098
G1 X127.431 Y41.388 E17.48882
G1 X129.141 Y41.393 E17.54569
G1 X131.183 Y41.412 E17.61361
G1 X174.307 Y41.413 E19.04792
G1 X177.086 Y41.388 E19.14036
G1 X178.334 Y41.389 E19.18186
G1 X179.681 Y41.411 E19.22667
G0 F6000 X179.698 Y41.011
G1 F1200 X180.163 Y41.03 E19.24215
G1 X181.08 Y41.107 E19.27276
G1 X181.987 Y41.264 E19.30337
G1 X182.878 Y41.499 E19.33402
G1 X183.744 Y41.81 E19.36463
G1 X184.58 Y42.196 E19.39525
G1 X185.38 Y42.652 E19.42588
G1 X186.137 Y43.176 E19.4565
G1 X186.845 Y43.764 E19.48711
G1 X187.5 Y44.411 E19.51773
G1 X188.096 Y45.112 E19.54834
G1 X188.63 Y45.863 E19.57898
G1 X189.096 Y46.657 E19.60961
G1 X189.491 Y47.488 E19.64021
G1 X189.813 Y48.351 E19.67084
G1 X190.059 Y49.238 E19.70146
G1 X190.226 Y50.143 E19.73207
G1 X190.3 Y50.818 E19.75465
G1 X190.318 Y51.055 E19.76256
G1 X190.348 Y51.845 E19.78885
G1 X190.349 Y53.613 E19.84766
G1 X190.339 Y54.343 E19.87194
G1 X190.286 Y55.262 E19.90256
G1 X190.068 Y56.583 E19.94709
G1 X189.433 Y59.334 E20.04099
G1 X188.931 Y61.826 E20.12554
G1 X188.507 Y64.301 E20.20906
G1 X188.155 Y66.769 E20.29198
G1 X187.86 Y69.348 E20.37831
G1 X187.65 Y71.81 E20.4605
G1 X187.505 Y74.35 E20.54511
G1 X187.432 Y76.898 E20.6299
G1 X187.43 Y79.409 E20.71341
G1 X187.501 Y81.953 E20.79806
G1 X187.643 Y84.471 E20.88194
G1 X187.853 Y86.964 E20.96515
G1 X188.139 Y89.486 E21.04957
G1 X188.498 Y92.011 E21.1344
G1 X188.925 Y94.513 E21.21882
G1 X189.409 Y96.936 E21.301
G1 X190.071 Y99.831 E21.39977
G1 X190.237 Y100.736 E21.43038
G1 X190.329 Y101.793 E21.46567
G1 X190.342 Y102.138 E21.47715
G1 X190.35 Y102.537 E21.49042
G1 X190.35 Y168.471 E23.6834
G1 X190.34 Y169.329 E23.71193
G1 X190.289 Y170.248 E23.74255
G1 X190.158 Y171.16 E23.77319
G1 X189.948 Y172.056 E23.8038
G1 X189.662 Y172.931 E23.83442
G1 X189.301 Y173.778 E23.86504
G1 X188.867 Y174.59 E23.89566
G1 X188.365 Y175.362 E23.92629
G1 X187.797 Y176.087 E23.95693
G1 X187.169 Y176.76 E23.98754
G1 X186.485 Y177.376 E24.01816
G1 X185.75 Y177.93 E24.04877
G1 X184.97 Y178.419 E24.07939
G1 X184.15 Y178.838 E24.11002
G1 X183.297 Y179.184 E24.14063
G1 X182.417 Y179.455 E24.17126
G1 X181.517 Y179.648 E24.20187
G1 X180.603 Y179.763 E24.23251
G1 X180.038 Y179.794 E24.25133
G1 X179.42 Y179.807 E24.27189
G1 X40.957 Y179.807 E28.87719
G1 X40.122 Y179.797 E28.90496
G1 X39.203 Y179.745 E28.93558
G1 X38.292 Y179.614 E28.96619
G1 X37.396 Y179.404 E28.9968
G1 X36.521 Y179.117 E29.02743
G1 X35.674 Y178.755 E29.05806
G1 X34.862 Y178.321 E29.08869
G1 X34.091 Y177.819 E29.11929
G1 X33.366 Y177.251 E29.14992
G1 X32.693 Y176.622 E29.18056
G1 X32.078 Y175.938 E29.21115
G1 X31.524 Y175.203 E29.24176
G1 X31.036 Y174.422 E29.27239
G1 X30.617 Y173.602 E29.30302
G1 X30.271 Y172.749 E29.33364
G1 X30.001 Y171.869 E29.36425
G1 X29.808 Y170.968 E29.3949
G1 X29.694 Y170.055 E29.4255
G1 X29.663 Y169.484 E29.44452
G1 X29.65 Y168.865 E29.46512
G1 X29.65 Y52.889 E33.32249
G1 X29.66 Y52.074 E33.3496
G1 X29.712 Y51.155 E33.38022
G1 X29.844 Y50.244 E33.41083
G1 X30.054 Y49.348 E33.44144
G1 X30.342 Y48.473 E33.47208
G1 X30.704 Y47.627 E33.50269
G1 X31.138 Y46.815 E33.53331
G1 X31.641 Y46.044 E33.56393
G1 X32.209 Y45.319 E33.59456
G1 X32.838 Y44.647 E33.62517
G1 X33.523 Y44.031 E33.65581
G1 X34.259 Y43.478 E33.68643
G1 X35.04 Y42.99 E33.71706
G1 X35.86 Y42.572 E33.74768
G1 X36.713 Y42.227 E33.77828
G1 X37.593 Y41.957 E33.8089
G1 X38.494 Y41.764 E33.83954
G1 X39.407 Y41.65 E33.87015
G1 X39.962 Y41.62 E33.88863
G1 X40.58 Y41.607 E33.90919
G1 X114.867 Y41.607 E36.37999
G1 X117.492 Y41.57 E36.4673
G1 X120 Y41.463 E36.5508
G1 X122.515 Y41.285 E36.63465
G1 X124.223 Y41.115 E36.69174
G1 X124.841 Y41.062 E36.71237
G1 X125.434 Y41.028 E36.73213
G1 X126.59 Y40.996 E36.77059
G1 X127.432 Y40.988 E36.7986
G1 X129.145 Y40.993 E36.85557
G1 X131.187 Y41.012 E36.92349
G1 X174.304 Y41.013 E38.35757
G1 X177.083 Y40.988 E38.45
G1 X178.339 Y40.989 E38.49178
G1 X179.698 Y41.011 E38.53699
G0 F6000 X179.714 Y40.611
G1 F1200 X180.179 Y40.63 E38.55246
G1 X181.114 Y40.708 E38.58367
G1 X182.038 Y40.866 E38.61485
G1 X182.946 Y41.102 E38.64605
G1 X183.83 Y41.414 E38.67723
G1 X184.685 Y41.8 E38.70843
G1 X185.504 Y42.258 E38.73964
G1 X186.28 Y42.784 E38.77082
G1 X187.009 Y43.374 E38.80202
G1 X187.685 Y44.024 E38.83321
G1 X188.303 Y44.729 E38.86439
G1 X188.859 Y45.485 E38.8956
G1 X189.349 Y46.285 E38.92681
G1 X189.768 Y47.123 E38.95797
G1 X190.115 Y47.995 E38.98918
G1 X190.386 Y48.893 E39.02038
G1 X190.58 Y49.81 E39.05155
G1 X190.698 Y50.788 E39.08432
G1 X190.716 Y51.025 E39.09222
G1 X190.748 Y51.844 E39.11948
G1 X190.749 Y53.619 E39.17852
G1 X190.739 Y54.349 E39.2028
G1 X190.686 Y55.285 E39.23399
G1 X190.554 Y56.214 E39.26519
G1 X190.458 Y56.673 E39.28079
G1 X189.821 Y59.431 E39.37494
G1 X189.324 Y61.901 E39.45874
G1 X188.904 Y64.354 E39.54151
G1 X188.549 Y66.839 E39.625
G1 X188.262 Y69.356 E39.70926
G1 X188.047 Y71.866 E39.79305
G1 X187.903 Y74.385 E39.87697
G1 X187.832 Y76.874 E39.95979
G1 X187.83 Y79.398 E40.04373
G1 X187.901 Y81.918 E40.12758
G1 X188.043 Y84.454 E40.21206
G1 X188.254 Y86.953 E40.29548
G1 X188.534 Y89.421 E40.37809
G1 X188.894 Y91.959 E40.46335
G1 X189.311 Y94.398 E40.54565
G1 X189.806 Y96.874 E40.62963
G1 X190.461 Y99.741 E40.72744
G1 X190.63 Y100.664 E40.75865
G1 X190.729 Y101.778 E40.79585
G1 X190.742 Y102.123 E40.80733
G1 X190.75 Y102.537 E40.8211
G1 X190.75 Y168.471 E43.01408
G1 X190.74 Y169.334 E43.04278
G1 X190.689 Y170.271 E43.07399
G1 X190.557 Y171.199 E43.10517
G1 X190.348 Y172.113 E43.13635
G1 X190.061 Y173.006 E43.16755
G1 X189.699 Y173.872 E43.19877
G1 X189.265 Y174.703 E43.22995
G1 X188.761 Y175.494 E43.26115
G1 X188.192 Y176.239 E43.29233
G1 X187.561 Y176.934 E43.32355
G1 X186.874 Y177.572 E43.35473
G1 X186.135 Y178.149 E43.38592
G1 X185.349 Y178.661 E43.41712
G1 X184.523 Y179.104 E43.44829
G1 X183.661 Y179.476 E43.47952
G1 X182.772 Y179.772 E43.51068
G1 X181.86 Y179.992 E43.54188
G1 X180.933 Y180.133 E43.57307
G1 X180.049 Y180.194 E43.60254
G1 X179.42 Y180.207 E43.62347
G1 X40.957 Y180.207 E48.22877
G1 X40.117 Y180.197 E48.25671
G1 X39.181 Y180.145 E48.28789
G1 X38.252 Y180.013 E48.31909
G1 X37.338 Y179.803 E48.35029
G1 X36.445 Y179.516 E48.38148
G1 X35.58 Y179.153 E48.41268
G1 X34.749 Y178.719 E48.44387
G1 X33.958 Y178.215 E48.47506
G1 X33.213 Y177.645 E48.50626
G1 X32.519 Y177.014 E48.53746
G1 X31.882 Y176.327 E48.56862
G1 X31.305 Y175.587 E48.59983
G1 X30.793 Y174.801 E48.63103
G1 X30.35 Y173.974 E48.66223
G1 X29.979 Y173.113 E48.69341
G1 X29.683 Y172.223 E48.72461
G1 X29.464 Y171.311 E48.75581
G1 X29.323 Y170.384 E48.78699
G1 X29.263 Y169.495 E48.81663
G1 X29.25 Y168.865 E48.83759
G1 X29.25 Y52.889 E52.69496
G1 X29.26 Y52.069 E52.72224
G1 X29.312 Y51.133 E52.75342
G1 X29.445 Y50.204 E52.78463
G1 X29.655 Y49.29 E52.81582
G1 X29.943 Y48.397 E52.84703
G1 X30.306 Y47.533 E52.8782
G1 X30.741 Y46.702 E52.9094
G1 X31.245 Y45.911 E52.94059
G1 X31.815 Y45.166 E52.97179
G1 X32.446 Y44.472 E53.00299
G1 X33.134 Y43.835 E53.03418
G1 X33.874 Y43.259 E53.06537
G1 X34.66 Y42.747 E53.09657
G1 X35.487 Y42.305 E53.12775
G1 X36.349 Y41.934 E53.15897
G1 X37.239 Y41.639 E53.19015
G1 X38.151 Y41.42 E53.22135
G1 X39.078 Y41.28 E53.25253
G1 X39.951 Y41.22 E53.28163
G1 X40.58 Y41.207 E53.30256
G1 X114.861 Y41.207 E55.77316
G1 X117.469 Y41.17 E55.85991
G1 X119.99 Y41.063 E55.94383
G1 X122.48 Y40.886 E56.02686
G1 X124.189 Y40.716 E56.08398
G1 X124.807 Y40.663 E56.10461
G1 X125.422 Y40.628 E56.1251
G1 X126.586 Y40.596 E56.16383
G1 X127.433 Y40.588 E56.192
G1 X129.148 Y40.593 E56.24904
G1 X131.19 Y40.612 E56.31696
G1 X174.3 Y40.613 E57.75081
G1 X177.079 Y40.588 E57.84324
G1 X178.345 Y40.589 E57.88535
G1 X179.714 Y40.611 E57.93089
G1 F2700 E52.93089
;MESH:SideWalls-P5.stl
G0 F6000 X180.403 Y50.976
G0 X180.415 Y53.411
G0 X178.954 Y53.411
G0 X74.322 Y53.779
G0 X74.322 Y102.635
G0 X179.036 Y102.646
G0 X179.15 Y168.607
;TYPE:WALL-INNER
G1 F2700 E57.93089
G1 F1200 X40.85 Y168.607 E62.53076
G1 X40.85 Y52.807 E66.38229
G1 X126.35 Y52.807 E69.22603
G1 X126.35 Y52.213 E69.24578
G1 X126.413 Y52.213 E69.24788
G1 X126.953 Y52.188 E69.26586
G1 X128.624 Y52.188 E69.32144
G1 X130.442 Y52.212 E69.38191
G1 X175.058 Y52.213 E70.86584
G1 X176.876 Y52.188 E70.92632
G1 X178.827 Y52.188 E70.99121
G1 X179.15 Y52.197 E71.00195
G1 X179.15 Y53.607 E71.04885
G1 X74.15 Y53.607 E74.54116
G1 X74.15 Y102.807 E76.17756
G1 X179.15 Y102.807 E79.66988
G1 X179.15 Y168.607 E81.85839
G0 F6000 X179.55 Y169.007
;TYPE:WALL-OUTER
G1 F1200 X40.45 Y169.007 E86.48488
G1 X40.45 Y52.407 E90.36301
G1 X125.95 Y52.407 E93.20675
G1 X125.95 Y51.813 E93.22651
G1 X126.404 Y51.813 E93.24161
G1 X126.934 Y51.788 E93.25926
G1 X128.629 Y51.788 E93.31563
G1 X130.445 Y51.812 E93.37604
G1 X175.055 Y51.813 E94.85977
G1 X176.87 Y51.788 E94.92015
G1 X178.838 Y51.788 E94.9856
G1 X179.55 Y51.807 E95.00929
G1 X179.55 Y54.007 E95.08246
G1 X74.55 Y54.007 E98.57478
G1 X74.55 Y102.407 E100.18457
G1 X179.55 Y102.407 E103.67688
G1 X179.55 Y169.007 E105.89201
G0 F6000 X179.28 Y168.737
G0 X179.04 Y168.217
G0 X178.76 Y168.217
;TYPE:SKIN
G1 F1200 X41.24 Y168.217 E110.46594
G1 X41.24 Y53.197 E114.29152
G1 X126.74 Y53.197 E117.13526
G1 X126.74 Y52.589 E117.15549
G1 X126.971 Y52.578 E117.16318
G1 X128.618 Y52.578 E117.21796
G1 X130.44 Y52.602 E117.27856
G1 X175.06 Y52.603 E118.76263
G1 X176.882 Y52.578 E118.82323
G1 X178.76 Y52.578 E118.8857
G1 X178.76 Y53.217 E118.90695
G1 X73.76 Y53.217 E122.39926
G1 X73.76 Y103.197 E124.06161
G1 X178.76 Y103.197 E127.55392
G1 X178.76 Y168.217 E129.71649
G1 F2700 E124.71649
G0 F6000 X179.04 Y168.217
G0 X179.04 Y102.647
G0 X74.322 Y102.635
G0 X74.322 Y53.779
G0 X179.04 Y53.767
G0 X179.04 Y53.017
G0 X178.599 Y53.017
G1 F2700 E129.71649
G1 F1200 X178.319 Y52.737 E129.72966
G0 F6000 X178.073 Y53.057
G1 F1200 X177.753 Y52.737 E129.74472
G0 F6000 X177.507 Y53.057
G1 F1200 X177.188 Y52.738 E129.75972
G0 F6000 X176.942 Y53.057
G1 F1200 X176.626 Y52.741 E129.77459
G0 F6000 X176.376 Y53.057
G1 F1200 X176.068 Y52.749 E129.78907
G0 F6000 X175.81 Y53.057
G1 F1200 X175.51 Y52.757 E129.80318
G0 F6000 X175.245 Y53.057
G1 F1200 X174.95 Y52.762 E129.81706
G0 F6000 X174.679 Y53.057
G1 F1200 X174.385 Y52.762 E129.83091
G0 F6000 X174.113 Y53.057
G1 F1200 X173.819 Y52.762 E129.84476
G0 F6000 X173.548 Y53.057
G1 F1200 X173.253 Y52.762 E129.85864
G0 F6000 X172.982 Y53.057
G1 F1200 X172.688 Y52.762 E129.87249
G0 F6000 X172.416 Y53.057
G1 F1200 X172.122 Y52.762 E129.88634
G0 F6000 X171.85 Y53.057
G1 F1200 X171.556 Y52.762 E129.9002
G0 F6000 X171.285 Y53.057
G1 F1200 X170.991 Y52.762 E129.91405
G0 F6000 X170.719 Y53.057
G1 F1200 X170.425 Y52.762 E129.9279
G0 F6000 X170.153 Y53.057
G1 F1200 X169.859 Y52.762 E129.94175
G0 F6000 X169.588 Y53.057
G1 F1200 X169.294 Y52.762 E129.95561
G0 F6000 X169.022 Y53.057
G1 F1200 X168.728 Y52.762 E129.96946
G0 F6000 X168.456 Y53.057
G1 F1200 X168.162 Y52.762 E129.98331
G0 F6000 X167.891 Y53.057
G1 F1200 X167.597 Y52.762 E129.99716
G0 F6000 X167.325 Y53.057
G1 F1200 X167.031 Y52.762 E130.01102
G0 F6000 X166.759 Y53.057
G1 F1200 X166.465 Y52.762 E130.02487
G0 F6000 X166.194 Y53.057
G1 F1200 X165.899 Y52.762 E130.03874
G0 F6000 X165.628 Y53.057
G1 F1200 X165.334 Y52.762 E130.0526
G0 F6000 X165.062 Y53.057
G1 F1200 X164.768 Y52.762 E130.06645
G0 F6000 X164.497 Y53.057
G1 F1200 X164.202 Y52.762 E130.08033
G0 F6000 X163.931 Y53.057
G1 F1200 X163.637 Y52.762 E130.09418
G0 F6000 X163.365 Y53.057
G1 F1200 X163.071 Y52.762 E130.10803
G0 F6000 X162.8 Y53.057
G1 F1200 X162.505 Y52.762 E130.12191
G0 F6000 X162.234 Y53.057
G1 F1200 X161.94 Y52.762 E130.13576
G0 F6000 X161.668 Y53.057
G1 F1200 X161.374 Y52.762 E130.14961
G0 F6000 X161.102 Y53.057
G1 F1200 X160.808 Y52.762 E130.16346
G0 F6000 X160.537 Y53.057
G1 F1200 X160.243 Y52.762 E130.17732
G0 F6000 X159.971 Y53.057
G1 F1200 X159.677 Y52.762 E130.19117
G0 F6000 X159.405 Y53.057
G1 F1200 X159.111 Y52.762 E130.20502
