;FLAVOR:Marlin
;TIME:5871
;Filament used: 6.27511m
;Layer height: 0.2
;MINX:65.75
;MINY:31
;MINZ:0.2
;MAXX:154.25
;MAXY:189
;MAXZ:2
;Generated with Cura_SteamEngine 4.6.1
M140 S50
M105
M190 S50
M104 S200
M105
M109 S200
M82 ;absolute extrusion mode
M201 X500.00 Y500.00 Z100.00 E5000.00 ;Setup machine max acceleration
M203 X500.00 Y500.00 Z10.00 E50.00 ;Setup machine max feedrate
M204 P500.00 R1000.00 T500.00 ;Setup Print/Retract/Travel acceleration
M205 X8.00 Y8.00 Z0.40 E5.00 ;Setup Jerk
M220 S100 ;Reset Feedrate
M221 S100 ;Reset Flowrate

G28 ;Home

G92 E0 ;Reset Extruder
G1 Z2.0 F3000 ;Move Z Axis up
G1 X10.1 Y20 Z0.28 F5000.0 ;Move to start position
G1 X10.1 Y200.0 Z0.28 F1500.0 E15 ;Draw the first line
G1 X10.4 Y200.0 Z0.28 F5000.0 ;Move to side a little
G1 X10.4 Y20 Z0.28 F1500.0 E30 ;Draw the second line
G92 E0 ;Reset Extruder
G1 Z2.0 F3000 ;Move Z Axis up

G92 E0
G92 E0
G1 F2700 E-5
;LAYER_COUNT:10
;LAYER:0
M107
G0 F6000 X143.387 Y31.811 Z0.2
;TYPE:SKIRT
G1 F2700 E0
G1 F1200 X144.289 Y31.864 E0.03005
G1 X145.182 Y31.996 E0.06008
G1 X146.06 Y32.207 E0.09011
G1 X146.916 Y32.495 E0.12015
G1 X147.743 Y32.857 E0.15018
G1 X148.535 Y33.292 E0.18023
G1 X149.286 Y33.794 E0.21027
G1 X149.989 Y34.361 E0.24031
G1 X150.639 Y34.988 E0.27035
G1 X151.231 Y35.67 E0.30039
G1 X151.761 Y36.401 E0.33042
G1 X152.223 Y37.177 E0.36046
G1 X152.616 Y37.99 E0.39049
G1 X152.934 Y38.835 E0.42052
G1 X153.177 Y39.705 E0.45056
G1 X153.342 Y40.593 E0.4806
G1 X153.437 Y41.723 E0.51832
G1 X153.45 Y42.33 E0.53851
G1 X153.45 Y177.264 E5.02644
G1 X153.44 Y178.117 E5.05481
G1 X153.389 Y179.019 E5.08486
G1 X153.258 Y179.913 E5.11491
G1 X153.049 Y180.791 E5.14493
G1 X152.763 Y181.648 E5.17498
G1 X152.402 Y182.476 E5.20502
G1 X151.97 Y183.268 E5.23503
G1 X151.469 Y184.02 E5.26508
G1 X150.903 Y184.724 E5.29513
G1 X150.278 Y185.375 E5.32514
G1 X149.597 Y185.969 E5.3552
G1 X148.866 Y186.5 E5.38525
G1 X148.092 Y186.964 E5.41526
G1 X147.279 Y187.358 E5.44531
G1 X146.435 Y187.678 E5.47533
G1 X145.565 Y187.923 E5.5054
G1 X144.678 Y188.089 E5.53541
G1 X143.527 Y188.187 E5.57383
G1 X142.92 Y188.2 E5.59402
G1 X77.325 Y188.199 E7.77572
G1 X76.627 Y188.19 E7.79894
G1 X75.726 Y188.139 E7.82895
G1 X74.832 Y188.007 E7.85901
G1 X73.954 Y187.798 E7.88903
G1 X73.097 Y187.511 E7.91909
G1 X72.27 Y187.15 E7.9491
G1 X71.477 Y186.717 E7.97915
G1 X70.726 Y186.216 E8.00918
G1 X70.022 Y185.65 E8.03922
G1 X69.371 Y185.024 E8.06926
G1 X68.778 Y184.343 E8.0993
G1 X68.248 Y183.612 E8.12933
G1 X67.784 Y182.837 E8.15937
G1 X67.39 Y182.024 E8.18942
G1 X67.07 Y181.18 E8.21944
G1 X66.826 Y180.31 E8.24949
G1 X66.66 Y179.422 E8.27954
G1 X66.563 Y178.267 E8.31809
G1 X66.55 Y177.658 E8.33835
G1 X66.55 Y42.674 E12.82794
G1 X66.56 Y41.871 E12.85465
G1 X66.612 Y40.969 E12.8847
G1 X66.744 Y40.076 E12.91472
G1 X66.954 Y39.198 E12.94475
G1 X67.241 Y38.341 E12.97481
G1 X67.603 Y37.514 E13.00483
G1 X68.036 Y36.722 E13.03486
G1 X68.538 Y35.971 E13.0649
G1 X69.105 Y35.267 E13.09497
G1 X69.731 Y34.617 E13.12498
G1 X70.412 Y34.024 E13.15501
G1 X71.144 Y33.494 E13.18507
G1 X71.919 Y33.031 E13.2151
G1 X72.732 Y32.638 E13.24513
G1 X73.577 Y32.318 E13.27519
G1 X74.446 Y32.075 E13.3052
G1 X75.334 Y31.909 E13.33524
G1 X76.473 Y31.813 E13.37326
G1 X77.08 Y31.8 E13.39346
G1 X142.689 Y31.801 E15.57562
G1 X143.387 Y31.811 E15.59884
G0 F6000 X143.393 Y31.411
G1 F1200 X144.312 Y31.464 E15.62945
G1 X145.223 Y31.597 E15.66008
G1 X146.119 Y31.808 E15.69069
G1 X146.993 Y32.096 E15.7213
G1 X147.84 Y32.459 E15.75195
G1 X148.651 Y32.894 E15.78256
G1 X149.421 Y33.398 E15.81317
G1 X150.145 Y33.967 E15.84379
G1 X150.817 Y34.597 E15.87443
G1 X151.432 Y35.282 E15.90505
G1 X151.985 Y36.018 E15.93567
G1 X152.472 Y36.799 E15.96628
G1 X152.889 Y37.62 E15.99691
G1 X153.234 Y38.474 E16.02754
G1 X153.503 Y39.354 E16.05815
G1 X153.695 Y40.255 E16.08879
G1 X153.808 Y41.168 E16.11939
G1 X153.837 Y41.712 E16.1375
G1 X153.85 Y42.33 E16.15806
G1 X153.85 Y177.264 E20.64599
G1 X153.84 Y178.122 E20.67453
G1 X153.789 Y179.041 E20.70514
G1 X153.658 Y179.953 E20.73578
G1 X153.448 Y180.849 E20.76639
G1 X153.162 Y181.724 E20.79701
G1 X152.801 Y182.571 E20.82763
G1 X152.367 Y183.383 E20.85826
G1 X151.865 Y184.155 E20.88888
G1 X151.297 Y184.88 E20.91952
G1 X150.669 Y185.553 E20.95013
G1 X149.985 Y186.169 E20.98075
G1 X149.25 Y186.723 E21.01136
G1 X148.47 Y187.212 E21.04198
G1 X147.65 Y187.631 E21.07261
G1 X146.797 Y187.977 E21.10322
G1 X145.917 Y188.248 E21.13385
G1 X145.017 Y188.441 E21.16447
G1 X144.103 Y188.556 E21.1951
G1 X143.538 Y188.587 E21.21392
G1 X142.92 Y188.6 E21.23448
G1 X77.32 Y188.599 E23.41635
G1 X76.622 Y188.59 E23.43957
G1 X75.703 Y188.538 E23.47018
G1 X74.792 Y188.407 E23.50079
G1 X73.896 Y188.197 E23.5314
G1 X73.021 Y187.91 E23.56203
G1 X72.174 Y187.548 E23.59267
G1 X71.362 Y187.114 E23.62329
G1 X70.591 Y186.612 E23.65389
G1 X69.866 Y186.044 E23.68452
G1 X69.193 Y185.415 E23.71516
G1 X68.578 Y184.731 E23.74575
G1 X68.024 Y183.996 E23.77637
G1 X67.536 Y183.215 E23.807
G1 X67.117 Y182.395 E23.83762
G1 X66.771 Y181.542 E23.86824
G1 X66.501 Y180.662 E23.89886
G1 X66.308 Y179.761 E23.9295
G1 X66.194 Y178.848 E23.96011
G1 X66.163 Y178.277 E23.97912
G1 X66.15 Y177.658 E23.99972
G1 X66.15 Y42.674 E28.4893
G1 X66.16 Y41.866 E28.51618
G1 X66.212 Y40.946 E28.54683
G1 X66.344 Y40.035 E28.57744
G1 X66.555 Y39.139 E28.60806
G1 X66.842 Y38.264 E28.63869
G1 X67.205 Y37.418 E28.66931
G1 X67.639 Y36.606 E28.69993
G1 X68.142 Y35.835 E28.73055
G1 X68.711 Y35.111 E28.76118
G1 X69.339 Y34.439 E28.79177
G1 X70.024 Y33.823 E28.82241
G1 X70.76 Y33.27 E28.85303
G1 X71.541 Y32.782 E28.88366
G1 X72.361 Y32.364 E28.91427
G1 X73.215 Y32.019 E28.9449
G1 X74.095 Y31.749 E28.97552
G1 X74.995 Y31.557 E29.00613
G1 X75.909 Y31.443 E29.03676
G1 X76.462 Y31.413 E29.05518
G1 X77.08 Y31.4 E29.07574
G1 X142.543 Y31.4 E31.25305
G1 X142.695 Y31.401 E31.25811
G1 X143.393 Y31.411 E31.28132
G0 F6000 X143.399 Y31.011
G1 F1200 X144.335 Y31.065 E31.31251
G1 X145.263 Y31.197 E31.34368
G1 X146.177 Y31.409 E31.37489
G1 X147.069 Y31.698 E31.40608
G1 X147.934 Y32.061 E31.43728
G1 X148.764 Y32.497 E31.46846
G1 X149.555 Y33.002 E31.49967
G1 X150.299 Y33.573 E31.53087
G1 X150.992 Y34.205 E31.56206
G1 X151.629 Y34.893 E31.59325
G1 X152.204 Y35.634 E31.62444
G1 X152.715 Y36.42 E31.65562
G1 X153.157 Y37.248 E31.68684
G1 X153.526 Y38.11 E31.71803
G1 X153.821 Y39 E31.74921
G1 X154.039 Y39.912 E31.7804
G1 X154.179 Y40.84 E31.81162
G1 X154.237 Y41.701 E31.84032
G1 X154.25 Y42.33 E31.86124
G1 X154.25 Y177.264 E36.34917
G1 X154.24 Y178.127 E36.37787
G1 X154.189 Y179.064 E36.40908
G1 X154.057 Y179.992 E36.44026
G1 X153.848 Y180.906 E36.47144
G1 X153.561 Y181.799 E36.50264
G1 X153.199 Y182.665 E36.53386
G1 X152.765 Y183.496 E36.56504
G1 X152.261 Y184.287 E36.59624
G1 X151.692 Y185.032 E36.62741
G1 X151.061 Y185.727 E36.65864
G1 X150.374 Y186.365 E36.68982
G1 X149.635 Y186.942 E36.721
G1 X148.849 Y187.454 E36.7522
G1 X148.023 Y187.897 E36.78338
G1 X147.161 Y188.269 E36.8146
G1 X146.272 Y188.565 E36.84577
G1 X145.36 Y188.785 E36.87697
G1 X144.433 Y188.926 E36.90816
G1 X143.549 Y188.987 E36.93763
G1 X142.92 Y189 E36.95856
G1 X77.315 Y188.999 E39.14059
G1 X76.617 Y188.99 E39.1638
G1 X75.681 Y188.938 E39.19498
G1 X74.752 Y188.806 E39.22619
G1 X73.838 Y188.596 E39.25738
G1 X72.945 Y188.309 E39.28858
G1 X72.08 Y187.946 E39.31978
G1 X71.249 Y187.512 E39.35096
G1 X70.458 Y187.008 E39.38216
G1 X69.713 Y186.438 E39.41336
G1 X69.019 Y185.807 E39.44456
G1 X68.382 Y185.12 E39.47572
G1 X67.805 Y184.38 E39.50693
G1 X67.293 Y183.594 E39.53813
G1 X66.85 Y182.767 E39.56933
G1 X66.479 Y181.906 E39.60051
G1 X66.183 Y181.016 E39.63171
G1 X65.964 Y180.104 E39.6629
G1 X65.823 Y179.177 E39.69409
G1 X65.763 Y178.288 E39.72373
G1 X65.75 Y177.658 E39.74468
G1 X65.75 Y42.674 E44.23427
G1 X65.76 Y41.86 E44.26135
G1 X65.813 Y40.924 E44.29253
G1 X65.945 Y39.995 E44.32374
G1 X66.156 Y39.081 E44.35494
G1 X66.444 Y38.189 E44.38611
G1 X66.807 Y37.324 E44.41731
G1 X67.242 Y36.493 E44.44851
G1 X67.746 Y35.703 E44.47968
G1 X68.316 Y34.958 E44.51088
G1 X68.948 Y34.264 E44.5421
G1 X69.636 Y33.627 E44.57328
G1 X70.376 Y33.051 E44.60447
G1 X71.162 Y32.539 E44.63567
G1 X71.989 Y32.097 E44.66686
G1 X72.851 Y31.727 E44.69806
G1 X73.741 Y31.431 E44.72925
G1 X74.653 Y31.213 E44.76044
G1 X75.58 Y31.072 E44.79163
G1 X76.451 Y31.013 E44.82067
G1 X77.08 Y31 E44.84159
G1 X142.543 Y31 E47.0189
G1 X142.701 Y31.001 E47.02415
G1 X143.399 Y31.011 E47.04737
G1 F2700 E42.04737
;MESH:SideWalls-P1.stl
G0 F6000 X142.44 Y41.335
G0 X142.44 Y42.81
G0 X77.532 Y42.782
G0 X77.35 Y177.4
;TYPE:WALL-INNER
G1 F2700 E47.04737
G1 F1200 X77.35 Y42.6 E51.53084
G1 X142.65 Y42.6 E53.70272
G1 X142.65 Y177.4 E58.18619
G1 X77.35 Y177.4 E60.35808
G0 F6000 X76.95 Y177.8
;TYPE:WALL-OUTER
G1 F1200 X76.95 Y42.2 E64.86815
G1 X143.05 Y42.2 E67.06665
G1 X143.05 Y177.8 E71.57672
G1 X76.95 Y177.8 E73.77522
G0 F6000 X77.22 Y177.53
G0 X77.46 Y177.01
G0 X77.74 Y177.01
;TYPE:SKIN
G1 F1200 X77.74 Y42.99 E78.23274
G1 X142.26 Y42.99 E80.37868
G1 X142.26 Y177.01 E84.83621
G1 X77.74 Y177.01 E86.98215
G0 F6000 X78.419 Y176.848
G1 F1200 X77.899 Y176.328 E87.00661
G0 F6000 X77.899 Y175.762
G1 F1200 X78.985 Y176.848 E87.05769
G0 F6000 X79.55 Y176.848
G1 F1200 X77.899 Y175.197 E87.13535
G0 F6000 X77.899 Y174.631
G1 F1200 X80.116 Y176.848 E87.23963
G0 F6000 X80.682 Y176.848
G1 F1200 X77.899 Y174.065 E87.37053
G0 F6000 X77.899 Y173.499
G1 F1200 X81.247 Y176.848 E87.52804
G0 F6000 X81.813 Y176.848
G1 F1200 X77.899 Y172.934 E87.71214
G0 F6000 X77.899 Y172.368
G1 F1200 X82.379 Y176.848 E87.92287
G0 F6000 X82.945 Y176.848
G1 F1200 X77.899 Y171.802 E88.16021
G0 F6000 X77.899 Y171.237
G1 F1200 X83.51 Y176.848 E88.42414
G0 F6000 X84.076 Y176.848
G1 F1200 X77.899 Y170.671 E88.71469
G0 F6000 X77.899 Y170.105
G1 F1200 X84.642 Y176.848 E89.03186
G0 F6000 X85.207 Y176.848
G1 F1200 X77.899 Y169.54 E89.3756
G0 F6000 X77.899 Y168.974
G1 F1200 X85.773 Y176.848 E89.74597
G0 F6000 X86.339 Y176.848
G1 F1200 X77.899 Y168.408 E90.14296
G0 F6000 X77.899 Y167.843
G1 F1200 X86.904 Y176.848 E90.56653
G0 F6000 X87.47 Y176.848
G1 F1200 X77.899 Y167.277 E91.01672
G0 F6000 X77.899 Y166.711
G1 F1200 X88.036 Y176.848 E91.49353
G0 F6000 X88.601 Y176.848
G1 F1200 X77.899 Y166.146 E91.99692
G0 F6000 X77.899 Y165.58
G1 F1200 X89.167 Y176.848 E92.52693
G0 F6000 X89.733 Y176.848
G1 F1200 X77.899 Y165.014 E93.08357
G0 F6000 X77.899 Y164.448
G1 F1200 X90.298 Y176.848 E93.6668
G0 F6000 X90.864 Y176.848
G1 F1200 X77.899 Y163.883 E94.27664
G0 F6000 X77.899 Y163.317
G1 F1200 X91.43 Y176.848 E94.9131
G0 F6000 X91.996 Y176.848
G1 F1200 X77.899 Y162.751 E95.57617
G0 F6000 X77.899 Y162.186
G1 F1200 X92.561 Y176.848 E96.26583
G0 F6000 X93.127 Y176.848
G1 F1200 X77.899 Y161.62 E96.98211
G0 F6000 X77.899 Y161.054
G1 F1200 X93.693 Y176.848 E97.72501
G0 F6000 X94.258 Y176.848
G1 F1200 X77.899 Y160.489 E98.49449
G0 F6000 X77.899 Y159.923
G1 F1200 X94.824 Y176.848 E99.29059
G0 F6000 X95.39 Y176.848
G1 F1200 X77.899 Y159.357 E100.11331
G0 F6000 X77.899 Y158.792
G1 F1200 X95.955 Y176.848 E100.96261
G0 F6000 X96.521 Y176.848
G1 F1200 X77.899 Y158.226 E101.83853
G0 F6000 X77.899 Y157.66
G1 F1200 X97.087 Y176.848 E102.74108
G0 F6000 X97.652 Y176.848
G1 F1200 X77.899 Y157.095 E103.6702
G0 F6000 X77.899 Y156.529
G1 F1200 X98.218 Y176.848 E104.62594
G0 F6000 X98.784 Y176.848
G1 F1200 X77.899 Y155.963 E105.60831
G0 F6000 X77.899 Y155.398
G1 F1200 X99.349 Y176.848 E106.61725
G0 F6000 X99.915 Y176.848
G1 F1200 X77.899 Y154.832 E107.65281
G0 F6000 X77.899 Y154.266
G1 F1200 X100.481 Y176.848 E108.715
G0 F6000 X101.046 Y176.848
G1 F1200 X77.899 Y153.7 E109.80379
G0 F6000 X77.899 Y153.135
G1 F1200 X101.612 Y176.848 E110.91918
G0 F6000 X102.178 Y176.848
G1 F1200 X77.899 Y152.569 E112.06119
G0 F6000 X77.899 Y152.003
G1 F1200 X102.744 Y176.848 E113.22982
G0 F6000 X103.309 Y176.848
G1 F1200 X77.899 Y151.438 E114.42503
G0 F6000 X77.899 Y150.872
G1 F1200 X103.875 Y176.848 E115.64686
G0 F6000 X104.441 Y176.848
G1 F1200 X77.899 Y150.306 E116.89531
G0 F6000 X77.899 Y149.741
G1 F1200 X105.006 Y176.848 E118.17034
G0 F6000 X105.572 Y176.848
G1 F1200 X77.899 Y149.175 E119.472
G0 F6000 X77.899 Y148.609
G1 F1200 X106.138 Y176.848 E120.80027
G0 F6000 X106.703 Y176.848
G1 F1200 X77.899 Y148.044 E122.15512
G0 F6000 X77.899 Y147.478
G1 F1200 X107.269 Y176.848 E123.5366
G0 F6000 X107.835 Y176.848
G1 F1200 X77.899 Y146.912 E124.9447
G0 F6000 X77.899 Y146.347
G1 F1200 X108.4 Y176.848 E126.37937
G0 F6000 X108.966 Y176.848
G1 F1200 X77.899 Y145.781 E127.84067
G0 F6000 X77.899 Y145.215
G1 F1200 X109.532 Y176.848 E129.32859
G0 F6000 X110.097 Y176.848
G1 F1200 X77.899 Y144.65 E130.84308
G0 F6000 X77.899 Y144.084
G1 F1200 X110.663 Y176.848 E132.3842
G0 F6000 X111.229 Y176.848
G1 F1200 X77.899 Y143.518 E133.95194
G0 F6000 X77.899 Y142.952
G1 F1200 X111.794 Y176.848 E135.54628
G0 F6000 X112.36 Y176.848
G1 F1200 X77.899 Y142.387 E137.16722
G0 F6000 X77.899 Y141.821
G1 F1200 X112.926 Y176.848 E138.81478
G0 F6000 X113.492 Y176.848
G1 F1200 X77.899 Y141.255 E140.48897
G0 F6000 X77.899 Y140.69
G1 F1200 X114.057 Y176.848 E142.18973
G0 F6000 X114.623 Y176.848
G1 F1200 X77.899 Y140.124 E143.91711
G0 F6000 X77.899 Y139.558
G1 F1200 X115.189 Y176.848 E145.67112
G0 F6000 X115.754 Y176.848
G1 F1200 X77.899 Y138.993 E147.4517
G0 F6000 X77.899 Y138.427
G1 F1200 X116.32 Y176.848 E149.25891
G0 F6000 X116.886 Y176.848
G1 F1200 X77.899 Y137.861 E151.09274
G0 F6000 X77.899 Y137.296
G1 F1200 X117.451 Y176.848 E152.95314
G0 F6000 X118.017 Y176.848
G1 F1200 X77.899 Y136.73 E154.84017
G0 F6000 X77.899 Y136.164
G1 F1200 X118.583 Y176.848 E156.75382
G0 F6000 X119.148 Y176.848
G1 F1200 X77.899 Y135.599 E158.69405
G0 F6000 X77.899 Y135.033
G1 F1200 X119.714 Y176.848 E160.6609
G0 F6000 X120.28 Y176.848
G1 F1200 X77.899 Y134.467 E162.65437
G0 F6000 X77.899 Y133.901
G1 F1200 X120.845 Y176.848 E164.67444
G0 F6000 X121.411 Y176.848
G1 F1200 X77.899 Y133.336 E166.72111
G0 F6000 X77.899 Y132.77
G1 F1200 X121.977 Y176.848 E168.79441
G0 F6000 X122.543 Y176.848
G1 F1200 X77.899 Y132.204 E170.89432
G0 F6000 X77.899 Y131.639
G1 F1200 X123.108 Y176.848 E173.02082
G0 F6000 X123.674 Y176.848
G1 F1200 X77.899 Y131.073 E175.17393
G0 F6000 X77.899 Y130.507
G1 F1200 X124.24 Y176.848 E177.35367
G0 F6000 X124.805 Y176.848
G1 F1200 X77.899 Y129.942 E179.55999
G0 F6000 X77.899 Y129.376
G1 F1200 X125.371 Y176.848 E181.79292
G0 F6000 X125.937 Y176.848
G1 F1200 X77.899 Y128.81 E184.05248
G0 F6000 X77.899 Y128.245
G1 F1200 X126.502 Y176.848 E186.33862
G0 F6000 X127.068 Y176.848
G1 F1200 X77.899 Y127.679 E188.65138
G0 F6000 X77.899 Y127.113
G1 F1200 X127.634 Y176.848 E190.99076
G0 F6000 X128.199 Y176.848
G1 F1200 X77.899 Y126.548 E193.35672
G0 F6000 X77.899 Y125.982
G1 F1200 X128.765 Y176.848 E195.7493
G0 F6000 X129.331 Y176.848
G1 F1200 X77.899 Y125.416 E198.1685
G0 F6000 X77.899 Y124.851
G1 F1200 X129.896 Y176.848 E200.61428
G0 F6000 X130.462 Y176.848
G1 F1200 X77.899 Y124.285 E203.08668
G0 F6000 X77.899 Y123.719
G1 F1200 X131.028 Y176.848 E205.58571
G0 F6000 X131.593 Y176.848
G1 F1200 X77.899 Y123.153 E208.11133
G0 F6000 X77.899 Y122.588
G1 F1200 X132.159 Y176.848 E210.66356
G0 F6000 X132.725 Y176.848
G1 F1200 X77.899 Y122.022 E213.2424
G0 F6000 X77.899 Y121.456
G1 F1200 X133.291 Y176.848 E215.84787
G0 F6000 X133.856 Y176.848
G1 F1200 X77.899 Y120.891 E218.47992
G0 F6000 X77.899 Y120.325
G1 F1200 X134.422 Y176.848 E221.13859
G0 F6000 X134.988 Y176.848
G1 F1200 X77.899 Y119.759 E223.82388
G0 F6000 X77.899 Y119.194
G1 F1200 X135.553 Y176.848 E226.53575
G0 F6000 X136.119 Y176.848
G1 F1200 X77.899 Y118.628 E229.27424
G0 F6000 X77.899 Y118.062
G1 F1200 X136.685 Y176.848 E232.03935
G0 F6000 X137.25 Y176.848
G1 F1200 X77.899 Y117.497 E234.83104
G0 F6000 X77.899 Y116.931
G1 F1200 X137.816 Y176.848 E237.64935
G0 F6000 X138.382 Y176.848
G1 F1200 X77.899 Y116.365 E240.49429
G0 F6000 X77.899 Y115.8
G1 F1200 X138.947 Y176.848 E243.3658
G0 F6000 X139.513 Y176.848
G1 F1200 X77.899 Y115.234 E246.26393
G0 F6000 X77.899 Y114.668
G1 F1200 X140.079 Y176.848 E249.18869
G0 F6000 X140.644 Y176.848
G1 F1200 X77.899 Y114.102 E252.14004
