;FLAVOR:Marlin
;TIME:11549
;Filament used: 13.8203m
;Layer height: 0.2
;MINX:65.562
;MINY:10
;MINZ:0.2
;MAXX:154.438
;MAXY:210
;MAXZ:66.4
;Generated with Cura_SteamEngine 4.6.1
M140 S50
M105
M190 S50
M104 S200
M105
M109 S200
M82 ;absolute extrusion mode
M201 X500.00 Y500.00 Z100.00 E5000.00 ;Setup machine max acceleration
M203 X500.00 Y500.00 Z10.00 E50.00 ;Setup machine max feedrate
M204 P500.00 R1000.00 T500.00 ;Setup Print/Retract/Travel acceleration
M205 X8.00 Y8.00 Z0.40 E5.00 ;Setup Jerk
M220 S100 ;Reset Feedrate
M221 S100 ;Reset Flowrate

G28 ;Home

G92 E0 ;Reset Extruder
G1 Z2.0 F3000 ;Move Z Axis up
G1 X10.1 Y20 Z0.28 F5000.0 ;Move to start position
G1 X10.1 Y200.0 Z0.28 F1500.0 E15 ;Draw the first line
G1 X10.4 Y200.0 Z0.28 F5000.0 ;Move to side a little
G1 X10.4 Y20 Z0.28 F1500.0 E30 ;Draw the second line
G92 E0 ;Reset Extruder
G1 Z2.0 F3000 ;Move Z Axis up

G92 E0
G92 E0
G1 F2700 E-5
;LAYER_COUNT:332
;LAYER:0
M107
G0 F6000 X143.575 Y10.811 Z0.2
;TYPE:SKIRT
G1 F2700 E0
G1 F1200 X144.477 Y10.864 E0.03005
G1 X145.37 Y10.996 E0.06008
G1 X146.248 Y11.207 E0.09011
G1 X147.104 Y11.495 E0.12015
G1 X147.931 Y11.857 E0.15018
G1 X148.723 Y12.292 E0.18023
G1 X149.474 Y12.794 E0.21027
G1 X150.177 Y13.361 E0.24031
G1 X150.827 Y13.988 E0.27035
G1 X151.419 Y14.67 E0.30039
G1 X151.949 Y15.401 E0.33042
G1 X152.411 Y16.177 E0.36046
G1 X152.804 Y16.99 E0.39049
G1 X153.122 Y17.835 E0.42052
G1 X153.365 Y18.705 E0.45056
G1 X153.53 Y19.593 E0.4806
G1 X153.625 Y20.723 E0.51832
G1 X153.638 Y21.33 E0.53851
G1 X153.638 Y196.286 E6.35757
G1 X153.629 Y197.004 E6.38146
G1 X153.602 Y197.621 E6.402
G1 X153.565 Y198.117 E6.41854
G1 X153.458 Y199.014 E6.44859
G1 X153.196 Y200.177 E6.48824
G1 X153.108 Y200.483 E6.49883
G1 X152.695 Y201.648 E6.53994
G1 X152.583 Y201.912 E6.54948
G1 X152.194 Y202.727 E6.57951
G1 X151.639 Y203.646 E6.61522
G1 X151.421 Y203.968 E6.62815
G1 X150.719 Y204.888 E6.66664
G1 X150.581 Y205.049 E6.6737
G1 X149.964 Y205.708 E6.70372
G1 X149.367 Y206.247 E6.73048
G1 X149.091 Y206.477 E6.74242
G1 X148.372 Y207.024 E6.77247
G1 X147.432 Y207.603 E6.80919
G1 X147.099 Y207.784 E6.8218
G1 X146.287 Y208.179 E6.85183
G1 X145.484 Y208.489 E6.88046
G1 X145.291 Y208.554 E6.88723
G1 X144.423 Y208.804 E6.91728
G1 X143.717 Y208.947 E6.94124
G1 X143.107 Y209.049 E6.96181
G1 X142.211 Y209.159 E6.99183
G1 X141.657 Y209.186 E7.01028
G1 X140.942 Y209.2 E7.03406
G1 X77.123 Y209.199 E9.15669
G1 X76.425 Y209.189 E9.17991
G1 X75.523 Y209.136 E9.20996
G1 X74.63 Y209.004 E9.23999
G1 X73.752 Y208.793 E9.27002
G1 X72.896 Y208.505 E9.30006
G1 X72.069 Y208.143 E9.33009
G1 X71.277 Y207.708 E9.36014
G1 X70.526 Y207.206 E9.39018
G1 X69.823 Y206.639 E9.42022
G1 X69.173 Y206.012 E9.45026
G1 X68.581 Y205.33 E9.4803
G1 X68.051 Y204.599 E9.51033
G1 X67.589 Y203.823 E9.54037
G1 X67.196 Y203.01 E9.5704
G1 X66.878 Y202.165 E9.60043
G1 X66.635 Y201.295 E9.63047
G1 X66.47 Y200.407 E9.66052
G1 X66.375 Y199.266 E9.6986
G1 X66.362 Y198.658 E9.71882
G1 X66.363 Y197.521 E9.75664
G1 X66.373 Y196.856 E9.77876
G1 X66.427 Y195.954 E9.80881
G1 X66.56 Y195.061 E9.83884
G1 X66.771 Y194.183 E9.86888
G1 X67.06 Y193.327 E9.89893
G1 X67.423 Y192.5 E9.92897
G1 X67.857 Y191.709 E9.95898
G1 X68.36 Y190.958 E9.98904
G1 X68.928 Y190.256 E10.01907
G1 X69.555 Y189.606 E10.04911
G1 X70.237 Y189.014 E10.07915
G1 X70.969 Y188.485 E10.10919
G1 X71.745 Y188.023 E10.13922
G1 X72.878 Y187.502 E10.1807
G1 X73.699 Y187.183 E10.21
G1 X76.164 Y186.19 E10.29839
G1 X78.528 Y185.158 E10.38418
G1 X80.808 Y184.086 E10.46797
G1 X83.063 Y182.945 E10.55203
G1 X85.301 Y181.735 E10.63665
G1 X87.509 Y180.456 E10.72152
G1 X89.656 Y179.132 E10.80542
G1 X91.784 Y177.734 E10.8901
G1 X93.862 Y176.285 E10.97436
G1 X95.918 Y174.762 E11.05946
G1 X97.891 Y173.212 E11.14291
G1 X99.885 Y171.551 E11.22923
G1 X101.742 Y169.914 E11.31156
G1 X103.649 Y168.136 E11.39828
G1 X105.41 Y166.396 E11.48062
G1 X107.19 Y164.538 E11.5662
G1 X108.887 Y162.661 E11.65036
G1 X110.54 Y160.725 E11.73503
G1 X112.143 Y158.736 E11.82
G1 X113.665 Y156.734 E11.90364
G1 X115.146 Y154.669 E11.98816
G1 X116.578 Y152.549 E12.07325
G1 X117.934 Y150.411 E12.15746
G1 X119.229 Y148.236 E12.24165
G1 X120.471 Y146.01 E12.32643
G1 X121.657 Y143.735 E12.41176
G1 X122.744 Y141.499 E12.49445
G1 X123.803 Y139.152 E12.5801
G1 X124.779 Y136.816 E12.6643
G1 X125.694 Y134.443 E12.74889
G1 X126.535 Y132.053 E12.83316
G1 X127.313 Y129.629 E12.91783
G1 X128.019 Y127.202 E13.0019
G1 X128.664 Y124.721 E13.08716
G1 X129.227 Y122.269 E13.17084
G1 X129.734 Y119.746 E13.25643
G1 X130.158 Y117.258 E13.34038
G1 X130.51 Y114.778 E13.42369
G1 X130.798 Y112.243 E13.50854
G1 X131.015 Y109.689 E13.5938
G1 X131.155 Y107.203 E13.67661
G1 X131.238 Y103.257 E13.80789
G1 X131.238 Y21.674 E16.52135
G1 X131.239 Y21.521 E16.52644
G1 X131.249 Y20.856 E16.54856
G1 X131.303 Y19.954 E16.57861
G1 X131.436 Y19.061 E16.60864
G1 X131.647 Y18.183 E16.63867
G1 X131.936 Y17.327 E16.66872
G1 X132.299 Y16.5 E16.69876
G1 X132.733 Y15.709 E16.72877
G1 X133.236 Y14.958 E16.75883
G1 X133.804 Y14.256 E16.78887
G1 X134.431 Y13.606 E16.81891
G1 X135.113 Y13.014 E16.84894
G1 X135.845 Y12.485 E16.87898
G1 X136.621 Y12.023 E16.90902
G1 X137.435 Y11.632 E16.93906
G1 X138.28 Y11.313 E16.9691
G1 X139.15 Y11.071 E16.99913
G1 X140.038 Y10.907 E17.02917
G1 X141.161 Y10.813 E17.06665
G1 X141.768 Y10.8 E17.08684
G1 X142.877 Y10.801 E17.12373
G1 X143.575 Y10.811 E17.14694
G0 F6000 X143.581 Y10.411
G1 F1200 X144.5 Y10.464 E17.17756
G1 X145.411 Y10.597 E17.20818
G1 X146.307 Y10.808 E17.2388
G1 X147.181 Y11.096 E17.26941
G1 X148.028 Y11.459 E17.30006
G1 X148.839 Y11.894 E17.33066
G1 X149.609 Y12.398 E17.36127
G1 X150.333 Y12.967 E17.3919
G1 X151.005 Y13.597 E17.42254
G1 X151.62 Y14.282 E17.45316
G1 X152.173 Y15.018 E17.48378
G1 X152.66 Y15.799 E17.51439
G1 X153.077 Y16.62 E17.54501
G1 X153.422 Y17.474 E17.57565
G1 X153.691 Y18.354 E17.60625
G1 X153.883 Y19.255 E17.6369
G1 X153.996 Y20.168 E17.66749
G1 X154.025 Y20.712 E17.68561
G1 X154.038 Y21.33 E17.70617
G1 X154.038 Y196.286 E23.52523
G1 X154.029 Y197.009 E23.54928
G1 X154.001 Y197.651 E23.57065
G1 X153.964 Y198.147 E23.5872
G1 X153.855 Y199.061 E23.61781
G1 X153.58 Y200.288 E23.65963
G1 X153.492 Y200.594 E23.67022
G1 X153.063 Y201.804 E23.71292
G1 X152.951 Y202.068 E23.72246
G1 X152.555 Y202.899 E23.75308
G1 X151.971 Y203.871 E23.79079
G1 X151.753 Y204.193 E23.80373
G1 X151.023 Y205.148 E23.84371
G1 X150.885 Y205.309 E23.85076
G1 X150.256 Y205.982 E23.8814
G1 X149.623 Y206.554 E23.90978
G1 X149.347 Y206.784 E23.92173
G1 X148.615 Y207.342 E23.95234
G1 X147.623 Y207.954 E23.99111
G1 X147.29 Y208.135 E24.00371
G1 X146.463 Y208.539 E24.03433
G1 X145.611 Y208.868 E24.0647
G1 X145.418 Y208.933 E24.07148
G1 X144.534 Y209.188 E24.10208
G1 X143.783 Y209.342 E24.12757
G1 X143.173 Y209.444 E24.14815
G1 X142.259 Y209.556 E24.17877
G1 X141.666 Y209.586 E24.19852
G1 X140.942 Y209.6 E24.22261
G1 X77.117 Y209.599 E26.34543
G1 X76.419 Y209.589 E26.36865
G1 X75.5 Y209.536 E26.39927
G1 X74.589 Y209.403 E26.42989
G1 X73.693 Y209.192 E26.46051
G1 X72.819 Y208.904 E26.49111
G1 X71.972 Y208.541 E26.52176
G1 X71.161 Y208.106 E26.55237
G1 X70.391 Y207.602 E26.58298
G1 X69.667 Y207.033 E26.61361
G1 X68.995 Y206.403 E26.64424
G1 X68.38 Y205.718 E26.67486
G1 X67.827 Y204.982 E26.70548
G1 X67.34 Y204.201 E26.73609
G1 X66.923 Y203.38 E26.76672
G1 X66.578 Y202.526 E26.79736
G1 X66.309 Y201.646 E26.82796
G1 X66.117 Y200.745 E26.8586
G1 X66.004 Y199.832 E26.8892
G1 X65.975 Y199.277 E26.90768
G1 X65.962 Y198.658 E26.92828
G1 X65.963 Y197.515 E26.96629
G1 X65.973 Y196.85 E26.98841
G1 X66.027 Y195.931 E27.01903
G1 X66.16 Y195.02 E27.04965
G1 X66.372 Y194.124 E27.08028
G1 X66.661 Y193.249 E27.11093
G1 X67.025 Y192.404 E27.14153
G1 X67.46 Y191.593 E27.17214
G1 X67.965 Y190.822 E27.20279
G1 X68.534 Y190.099 E27.23339
G1 X69.164 Y189.427 E27.26403
G1 X69.85 Y188.813 E27.29465
G1 X70.586 Y188.261 E27.32525
G1 X71.368 Y187.774 E27.35589
G1 X72.189 Y187.358 E27.3865
G1 X72.733 Y187.129 E27.40613
G1 X73.553 Y186.81 E27.4354
G1 X76.033 Y185.811 E27.52432
G1 X78.347 Y184.801 E27.6083
G1 X80.622 Y183.731 E27.69192
G1 X82.886 Y182.586 E27.7763
G1 X85.117 Y181.38 E27.86065
G1 X87.278 Y180.128 E27.94372
G1 X89.456 Y178.784 E28.02884
G1 X91.557 Y177.405 E28.11243
G1 X93.641 Y175.951 E28.19695
G1 X95.656 Y174.459 E28.28034
G1 X97.655 Y172.889 E28.36488
G1 X99.61 Y171.26 E28.44952
G1 X101.506 Y169.589 E28.53357
G1 X103.342 Y167.876 E28.61709
G1 X105.123 Y166.118 E28.70033
G1 X106.921 Y164.239 E28.78682
G1 X108.57 Y162.416 E28.86858
G1 X110.241 Y160.46 E28.95415
G1 X111.829 Y158.489 E29.03833
G1 X113.337 Y156.505 E29.12122
G1 X114.822 Y154.435 E29.20595
G1 X116.242 Y152.332 E29.29035
G1 X117.58 Y150.223 E29.37342
G1 X118.894 Y148.015 E29.45888
G1 X120.11 Y145.836 E29.54187
G1 X121.3 Y143.554 E29.62747
G1 X122.377 Y141.338 E29.70942
G1 X123.44 Y138.982 E29.79539
G1 X124.406 Y136.672 E29.87867
G1 X125.326 Y134.285 E29.96375
G1 X126.149 Y131.946 E30.04622
G1 X126.934 Y129.499 E30.1317
G1 X127.633 Y127.094 E30.215
G1 X128.273 Y124.636 E30.29948
G1 X128.839 Y122.172 E30.38356
G1 X129.342 Y119.665 E30.46861
G1 X129.754 Y117.247 E30.55019
G1 X130.12 Y114.674 E30.63663
G1 X130.401 Y112.197 E30.71954
G1 X130.616 Y109.669 E30.80393
G1 X130.755 Y107.202 E30.88611
G1 X130.838 Y103.248 E31.01765
G1 X130.838 Y21.674 E33.73081
G1 X130.839 Y21.515 E33.7361
G1 X130.849 Y20.85 E33.75822
G1 X130.903 Y19.931 E33.78884
G1 X131.036 Y19.02 E33.81946
G1 X131.248 Y18.124 E33.85009
G1 X131.537 Y17.249 E33.88074
G1 X131.901 Y16.404 E33.91134
G1 X132.336 Y15.593 E33.94195
G1 X132.841 Y14.822 E33.9726
G1 X133.41 Y14.099 E34.0032
G1 X134.04 Y13.427 E34.03384
G1 X134.726 Y12.813 E34.06446
G1 X135.462 Y12.261 E34.09506
G1 X136.244 Y11.774 E34.1257
G1 X137.065 Y11.358 E34.15631
G1 X137.919 Y11.014 E34.18693
G1 X138.799 Y10.745 E34.21754
G1 X139.7 Y10.554 E34.24817
G1 X140.614 Y10.442 E34.2788
G1 X141.15 Y10.413 E34.29665
G1 X141.768 Y10.4 E34.31721
G1 X142.883 Y10.401 E34.3543
G1 X143.581 Y10.411 E34.37752
G0 F6000 X143.587 Y10.011
G1 F1200 X144.523 Y10.065 E34.4087
G1 X145.451 Y10.197 E34.43988
G1 X146.365 Y10.409 E34.47108
G1 X147.257 Y10.698 E34.50227
G1 X148.122 Y11.061 E34.53347
G1 X148.952 Y11.497 E34.56465
G1 X149.743 Y12.002 E34.59587
G1 X150.487 Y12.573 E34.62706
G1 X151.18 Y13.205 E34.65825
G1 X151.817 Y13.893 E34.68944
G1 X152.392 Y14.634 E34.72063
G1 X152.903 Y15.42 E34.75182
G1 X153.345 Y16.248 E34.78303
G1 X153.714 Y17.11 E34.81422
G1 X154.009 Y18 E34.84541
G1 X154.227 Y18.912 E34.87659
G1 X154.367 Y19.84 E34.90781
G1 X154.425 Y20.701 E34.93651
G1 X154.438 Y21.33 E34.95744
G1 X154.438 Y196.286 E40.7765
G1 X154.429 Y197.015 E40.80074
G1 X154.4 Y197.68 E40.82288
G1 X154.363 Y198.176 E40.83943
G1 X154.253 Y199.108 E40.87064
G1 X153.965 Y200.398 E40.9146
G1 X153.877 Y200.704 E40.92519
G1 X153.431 Y201.96 E40.96952
G1 X153.319 Y202.224 E40.97906
G1 X152.917 Y203.071 E41.01024
G1 X152.302 Y204.095 E41.04997
G1 X152.084 Y204.417 E41.06291
G1 X151.327 Y205.409 E41.10441
G1 X151.189 Y205.57 E41.11146
G1 X150.549 Y206.255 E41.14264
G1 X149.879 Y206.861 E41.17269
G1 X149.603 Y207.091 E41.18464
G1 X148.858 Y207.661 E41.21584
G1 X147.814 Y208.306 E41.25665
G1 X147.481 Y208.487 E41.26926
G1 X146.639 Y208.899 E41.30044
G1 X145.739 Y209.247 E41.33253
G1 X145.546 Y209.312 E41.3393
G1 X144.645 Y209.573 E41.3705
G1 X143.849 Y209.736 E41.39753
G1 X143.239 Y209.838 E41.4181
G1 X142.308 Y209.953 E41.4493
G1 X141.675 Y209.986 E41.47038
G1 X140.942 Y210 E41.49477
G1 X77.111 Y209.999 E43.61779
G1 X76.413 Y209.989 E43.64101
G1 X75.477 Y209.935 E43.67219
G1 X74.549 Y209.803 E43.70337
G1 X73.635 Y209.591 E43.73458
G1 X72.743 Y209.302 E43.76576
G1 X71.878 Y208.939 E43.79696
G1 X71.048 Y208.503 E43.82815
G1 X70.257 Y207.998 E43.85936
G1 X69.513 Y207.427 E43.89055
G1 X68.82 Y206.795 E43.92175
G1 X68.183 Y206.107 E43.95293
G1 X67.608 Y205.366 E43.98413
G1 X67.097 Y204.58 E44.01531
G1 X66.655 Y203.752 E44.04653
G1 X66.286 Y202.89 E44.07772
G1 X65.991 Y202 E44.1089
G1 X65.773 Y201.088 E44.14009
G1 X65.633 Y200.16 E44.1713
G1 X65.575 Y199.288 E44.20037
G1 X65.562 Y198.658 E44.22133
G1 X65.563 Y197.509 E44.25954
G1 X65.573 Y196.844 E44.28166
G1 X65.627 Y195.907 E44.31288
G1 X65.761 Y194.979 E44.34407
G1 X65.973 Y194.065 E44.37527
G1 X66.262 Y193.173 E44.40646
G1 X66.627 Y192.309 E44.43766
G1 X67.063 Y191.479 E44.46884
G1 X67.569 Y190.689 E44.50004
G1 X68.14 Y189.945 E44.53124
G1 X68.772 Y189.252 E44.56243
G1 X69.461 Y188.616 E44.59362
G1 X70.202 Y188.041 E44.62481
G1 X70.989 Y187.531 E44.656
G1 X71.817 Y187.09 E44.68721
G1 X72.588 Y186.756 E44.71515
G1 X73.435 Y186.427 E44.74537
G1 X75.86 Y185.45 E44.83233
G1 X78.196 Y184.43 E44.91711
G1 X80.45 Y183.37 E44.99995
G1 X82.694 Y182.235 E45.08359
G1 X84.917 Y181.033 E45.16765
G1 X87.089 Y179.775 E45.25113
G1 X89.249 Y178.443 E45.33553
G1 X91.331 Y177.075 E45.41839
G1 X93.381 Y175.646 E45.50151
G1 X95.438 Y174.121 E45.58667
G1 X97.397 Y172.583 E45.66951
G1 X99.353 Y170.954 E45.75418
G1 X101.215 Y169.313 E45.83672
G1 X103.071 Y167.581 E45.92116
G1 X104.853 Y165.821 E46.00446
G1 X106.602 Y163.995 E46.08856
G1 X108.3 Y162.116 E46.17279
G1 X109.927 Y160.212 E46.25609
G1 X111.497 Y158.263 E46.33933
G1 X113.026 Y156.252 E46.42336
G1 X114.493 Y154.208 E46.50704
G1 X115.905 Y152.116 E46.59098
G1 X117.257 Y149.985 E46.67492
G1 X118.535 Y147.837 E46.75805
G1 X119.764 Y145.635 E46.84193
G1 X120.929 Y143.401 E46.92573
G1 X122.031 Y141.135 E47.00953
G1 X123.065 Y138.842 E47.0932
G1 X124.035 Y136.523 E47.1768
G1 X124.955 Y134.134 E47.26195
G1 X125.774 Y131.807 E47.344
G1 X126.543 Y129.413 E47.42763
G1 X127.251 Y126.978 E47.51197
G1 X127.882 Y124.551 E47.59538
G1 X128.449 Y122.082 E47.67964
G1 X128.944 Y119.618 E47.76323
G1 X129.363 Y117.16 E47.84616
G1 X129.72 Y114.644 E47.93068
G1 X130.003 Y112.154 E48.01403
G1 X130.215 Y109.649 E48.09764
G1 X130.355 Y107.17 E48.18023
G1 X130.438 Y103.24 E48.31097
G1 X130.438 Y21.674 E51.02387
G1 X130.439 Y21.509 E51.02935
G1 X130.449 Y20.844 E51.05147
G1 X130.503 Y19.907 E51.08269
G1 X130.637 Y18.979 E51.11388
G1 X130.849 Y18.065 E51.14508
G1 X131.138 Y17.173 E51.17627
G1 X131.503 Y16.309 E51.20746
G1 X131.939 Y15.479 E51.23865
G1 X132.445 Y14.689 E51.26985
G1 X133.016 Y13.945 E51.30104
G1 X133.648 Y13.252 E51.33224
G1 X134.337 Y12.616 E51.36343
G1 X135.078 Y12.041 E51.39462
G1 X135.865 Y11.531 E51.42581
G1 X136.693 Y11.09 E51.45701
G1 X137.555 Y10.721 E51.4882
G1 X138.446 Y10.427 E51.51941
G1 X139.358 Y10.209 E51.5506
G1 X140.285 Y10.071 E51.58177
G1 X141.139 Y10.013 E51.61024
G1 X141.768 Y10 E51.63116
G1 X142.889 Y10.001 E51.66845
G1 X143.587 Y10.011 E51.69167
G1 F2700 E46.69167
;MESH:SideWalls-P0.stl
G0 F6000 X140.785 Y20.347
G0 X140.785 Y196.347
G0 X141.852 Y197.414
G0 X77.344 Y197.782
G0 X77.162 Y198.4
;TYPE:WALL-INNER
G1 F2700 E51.69167
G1 F1200 X77.162 Y197.6 E51.71827
G1 X142.038 Y197.6 E53.87606
G1 X142.038 Y21.6 E59.72984
G1 X142.838 Y21.6 E59.75645
G1 X142.838 Y196.976 E65.58948
G1 X142.812 Y197.257 E65.59886
G1 X142.723 Y197.546 E65.60892
G1 X142.606 Y197.764 E65.61715
G1 X142.413 Y197.998 E65.62724
G1 X142.226 Y198.152 E65.6353
G1 X141.998 Y198.276 E65.64393
G1 X141.684 Y198.374 E65.65487
G1 X141.428 Y198.398 E65.66342
G1 X141.331 Y198.4 E65.66665
G1 X77.162 Y198.4 E67.80092
G0 F6000 X76.762 Y198.8
;TYPE:WALL-OUTER
G1 F1200 X76.762 Y197.2 E67.85413
G1 X141.638 Y197.2 E70.01192
G1 X141.638 Y21.2 E75.8657
G1 X143.238 Y21.2 E75.91892
G1 X143.238 Y196.992 E81.76579
G1 X143.206 Y197.334 E81.77721
G1 X143.092 Y197.705 E81.79012
G1 X142.94 Y197.989 E81.80083
G1 X142.7 Y198.28 E81.81338
G1 X142.452 Y198.484 E81.82406
G1 X142.152 Y198.647 E81.83541
G1 X141.765 Y198.768 E81.8489
G1 X141.446 Y198.798 E81.85956
G1 X141.338 Y198.8 E81.86315
G1 X76.762 Y198.8 E84.01096
G0 F6000 X77.032 Y198.53
G0 X77.272 Y198.01
G0 X77.552 Y198.01
;TYPE:SKIN
G1 F1200 X77.552 Y197.99 E84.01162
G1 X141.604 Y197.99 E86.142
G1 X141.41 Y198.008 E86.14848
G1 X77.552 Y198.01 E88.27241
G1 F2700 E83.27241
G0 F6000 X77.272 Y198.01
G0 X77.344 Y198.218
G0 X141.651 Y198.206
G0 X142.129 Y198.011
