;FLAVOR:Marlin
;TIME:16258
;Filament used: 26.3532m
;Layer height: 0.28
;MINX:27.53
;MINY:5.523
;MINZ:0.336
;MAXX:192.478
;MAXY:214.665
;MAXZ:140.906
;Generated with Cura_SteamEngine 4.6.1
M140 S50
M105
M190 S50
M104 S200
M105
M109 S200
M82 ;absolute extrusion mode
M201 X500.00 Y500.00 Z100.00 E5000.00 ;Setup machine max acceleration
M203 X500.00 Y500.00 Z10.00 E50.00 ;Setup machine max feedrate
M204 P500.00 R1000.00 T500.00 ;Setup Print/Retract/Travel acceleration
M205 X8.00 Y8.00 Z0.40 E5.00 ;Setup Jerk
M220 S100 ;Reset Feedrate
M221 S100 ;Reset Flowrate

G28 ;Home

G92 E0 ;Reset Extruder
G1 Z2.0 F3000 ;Move Z Axis up
G1 X10.1 Y20 Z0.28 F5000.0 ;Move to start position
G1 X10.1 Y200.0 Z0.28 F1500.0 E15 ;Draw the first line
G1 X10.4 Y200.0 Z0.28 F5000.0 ;Move to side a little
G1 X10.4 Y20 Z0.28 F1500.0 E30 ;Draw the second line
G92 E0 ;Reset Extruder
G1 Z2.0 F3000 ;Move Z Axis up

G92 E0
G92 E0
G1 F2700 E-5
;LAYER_COUNT:498
;LAYER:-6
M107
G0 F12000 X30.475 Y16.33 Z0.336
;TYPE:SUPPORT-INTERFACE
G1 F2700 E0
G1 F1800 X30.638 Y16.025 E0.03865
G1 X31.137 Y15.167 E0.14957
G1 X31.221 Y15.035 E0.16705
G1 X31.822 Y14.166 E0.28513
G1 X32.238 Y13.632 E0.36078
G1 X32.524 Y13.286 E0.41095
G1 X33.163 Y12.564 E0.51869
G1 X33.269 Y12.453 E0.53585
G1 X33.922 Y11.813 E0.63803
G1 X34.043 Y11.702 E0.65638
G1 X34.851 Y11.023 E0.77432
G1 X35.608 Y10.449 E0.88049
G1 X35.764 Y10.34 E0.90176
G1 X36.624 Y9.789 E1.0159
G1 X37.11 Y9.512 E1.07842
G1 X37.354 Y9.384 E1.10921
G1 X37.354 Y9.38 E1.10966
G1 X37.54 Y9.28 E1.13326
G1 X38.544 Y8.792 E1.25801
G1 X39.396 Y8.448 E1.36069
G1 X39.547 Y8.393 E1.37865
G1 X40.298 Y8.145 E1.46704
G1 X40.653 Y8.041 E1.50838
G1 X41.539 Y7.811 E1.61067
G1 X41.727 Y7.772 E1.63213
G1 X43.234 Y7.525 E1.80279
G1 X43.601 Y7.487 E1.84402
G1 X44.87 Y7.405 E1.98613
G1 X45.244 Y7.4 E2.02793
G1 X90.971 Y7.4 E7.13811
G1 X91.643 Y7.357 E7.21336
G1 X92.499 Y7.176 E7.31114
G1 X93.437 Y6.893 E7.42063
G1 X93.568 Y6.859 E7.43576
G1 X94.465 Y6.658 E7.53849
G1 X94.595 Y6.635 E7.55324
G1 X95.5 Y6.501 E7.65548
G1 X95.669 Y6.483 E7.67447
G1 X96.742 Y6.408 E7.79468
G1 X97.247 Y6.4 E7.85112
G1 X99.19 Y6.401 E8.06826
G1 X100.314 Y6.446 E8.19397
G1 X101.231 Y6.548 E8.29708
G1 X101.406 Y6.573 E8.31684
G1 X102.295 Y6.737 E8.41786
G1 X102.418 Y6.765 E8.43196
G1 X103.312 Y6.999 E8.53524
G1 X103.475 Y7.048 E8.55426
G1 X104.317 Y7.335 E8.65367
G1 X104.483 Y7.398 E8.67351
G1 X105.286 Y7.739 E8.77101
G1 X105.475 Y7.827 E8.79431
G1 X106.386 Y8.301 E8.90907
G1 X107.165 Y8.776 E9.01103
G1 X107.316 Y8.876 E9.03127
G1 X108.03 Y9.387 E9.1294
G1 X108.178 Y9.5 E9.1502
G1 X108.979 Y10.174 E9.26719
G1 X109.631 Y10.802 E9.36836
G1 X109.751 Y10.927 E9.38772
G1 X110.354 Y11.598 E9.48854
G1 X110.45 Y11.714 E9.50537
G1 X111 Y12.426 E9.60591
G1 X111.113 Y12.585 E9.62771
G1 X111.603 Y13.323 E9.72671
G1 X111.679 Y13.449 E9.74315
G1 X112.125 Y14.243 E9.84493
G1 X112.203 Y14.393 E9.86382
G1 X112.586 Y15.208 E9.96446
G1 X112.646 Y15.351 E9.98179
G1 X112.975 Y16.21 E10.08458
G1 X113.027 Y16.36 E10.10233
G1 X113.325 Y17.367 E10.21969
G1 X113.527 Y18.269 E10.32299
G1 X113.552 Y18.408 E10.33877
G1 X113.685 Y19.307 E10.44033
G1 X113.703 Y19.469 E10.45854
G1 X113.779 Y20.555 E10.58021
G1 X113.787 Y21.056 E10.6362
G1 X113.787 Y23.986 E10.96364
G1 X113.751 Y24.992 E11.07614
G1 X113.741 Y25.127 E11.09127
G1 X113.639 Y26.044 E11.19438
G1 X113.614 Y26.219 E11.21413
G1 X113.452 Y27.097 E11.31391
G1 X113.422 Y27.231 E11.32925
G1 X113.191 Y28.116 E11.43147
G1 X113.139 Y28.288 E11.45155
G1 X112.852 Y29.13 E11.55096
G1 X112.789 Y29.296 E11.57081
G1 X112.448 Y30.099 E11.6683
G1 X112.367 Y30.274 E11.68985
G1 X111.951 Y31.082 E11.79141
G1 X111.411 Y31.978 E11.90832
G1 X111.311 Y32.129 E11.92856
G1 X110.8 Y32.843 E12.02669
G1 X110.687 Y32.991 E12.0475
G1 X110.111 Y33.682 E12.14803
G1 X110.01 Y33.795 E12.16497
G1 X109.385 Y34.444 E12.26566
G1 X109.26 Y34.564 E12.28502
G1 X108.59 Y35.166 E12.38568
G1 X108.473 Y35.263 E12.40267
G1 X107.761 Y35.813 E12.50321
G1 X107.602 Y35.926 E12.52501
G1 X106.864 Y36.416 E12.62401
G1 X106.738 Y36.492 E12.64045
G1 X105.944 Y36.938 E12.74222
G1 X105.793 Y37.016 E12.76122
G1 X104.979 Y37.399 E12.86175
G1 X104.836 Y37.459 E12.87908
G1 X103.977 Y37.788 E12.98188
G1 X103.827 Y37.84 E12.99962
G1 X102.977 Y38.095 E13.09879
G1 X102.804 Y38.141 E13.1188
G1 X101.909 Y38.342 E13.22131
G1 X101.779 Y38.365 E13.23606
G1 X100.874 Y38.499 E13.3383
G1 X100.706 Y38.517 E13.35719
G1 X99.632 Y38.592 E13.4775
G1 X99.127 Y38.6 E13.53395
G1 X65.174 Y38.6 E17.32833
G1 X64.506 Y38.642 E17.40313
G1 X63.835 Y38.771 E17.47949
G1 X63.186 Y38.984 E17.55583
G1 X62.569 Y39.276 E17.63211
G1 X61.994 Y39.644 E17.7084
G1 X61.47 Y40.082 E17.78472
G1 X61.006 Y40.582 E17.86095
G1 X60.607 Y41.138 E17.93743
G1 X60.283 Y41.738 E18.01364
G1 X60.037 Y42.374 E18.08984
G1 X59.871 Y43.043 E18.16687
G1 X59.787 Y43.982 E18.27223
G1 X59.787 Y177.013 E33.13898
G1 X59.829 Y177.681 E33.21378
G1 X59.958 Y178.352 E33.29014
G1 X60.171 Y179.001 E33.36648
G1 X60.463 Y179.618 E33.44276
G1 X60.831 Y180.193 E33.51905
G1 X61.269 Y180.717 E33.59538
G1 X61.769 Y181.181 E33.67161
G1 X62.325 Y181.58 E33.74809
G1 X62.925 Y181.904 E33.82429
G1 X63.561 Y182.15 E33.9005
G1 X64.23 Y182.316 E33.97753
G1 X65.169 Y182.4 E34.08288
G1 X176.781 Y182.4 E46.55598
G1 X176.816 Y182.401 E46.55989
G1 X177.94 Y182.446 E46.6856
G1 X178.857 Y182.548 E46.78871
G1 X179.032 Y182.573 E46.80847
G1 X179.921 Y182.737 E46.90949
G1 X180.044 Y182.765 E46.92359
G1 X180.938 Y182.999 E47.02687
G1 X181.101 Y183.048 E47.04589
G1 X181.943 Y183.335 E47.1453
G1 X182.109 Y183.398 E47.16514
G1 X182.912 Y183.739 E47.26264
G1 X183.101 Y183.827 E47.28594
G1 X184.012 Y184.301 E47.4007
G1 X184.791 Y184.776 E47.50266
G1 X184.942 Y184.876 E47.5229
G1 X185.656 Y185.387 E47.62103
G1 X185.804 Y185.5 E47.64184
G1 X186.495 Y186.076 E47.74237
G1 X186.608 Y186.177 E47.75931
G1 X187.257 Y186.802 E47.86
G1 X187.377 Y186.927 E47.87936
G1 X187.98 Y187.598 E47.98018
G1 X188.076 Y187.714 E47.99701
G1 X188.626 Y188.426 E48.09755
G1 X188.739 Y188.585 E48.11935
G1 X189.229 Y189.323 E48.21835
G1 X189.305 Y189.449 E48.23479
G1 X189.751 Y190.243 E48.33656
G1 X189.829 Y190.393 E48.35546
G1 X190.212 Y191.208 E48.45609
G1 X190.272 Y191.351 E48.47342
G1 X190.601 Y192.21 E48.57622
G1 X190.653 Y192.36 E48.59396
G1 X190.908 Y193.21 E48.69314
G1 X190.954 Y193.383 E48.71314
G1 X191.153 Y194.269 E48.81462
G1 X191.178 Y194.408 E48.83041
G1 X191.311 Y195.307 E48.93197
G1 X191.329 Y195.469 E48.95018
G1 X191.405 Y196.555 E49.07184
G1 X191.413 Y197.056 E49.12784
G1 X191.413 Y198.986 E49.34352
G1 X191.377 Y199.992 E49.45602
G1 X191.367 Y200.127 E49.47115
G1 X191.265 Y201.044 E49.57426
G1 X191.24 Y201.219 E49.59402
G1 X191.078 Y202.097 E49.69379
G1 X191.048 Y202.231 E49.70914
G1 X190.817 Y203.116 E49.81135
G1 X190.765 Y203.288 E49.83143
G1 X190.478 Y204.13 E49.93085
G1 X190.415 Y204.296 E49.95069
G1 X190.079 Y205.088 E50.04683
G1 X189.993 Y205.274 E50.06974
G1 X189.512 Y206.199 E50.18625
G1 X189.037 Y206.978 E50.28821
G1 X188.937 Y207.129 E50.30845
G1 X188.426 Y207.843 E50.40657
G1 X188.313 Y207.991 E50.42738
G1 X187.737 Y208.682 E50.52792
G1 X187.636 Y208.795 E50.54485
G1 X187.011 Y209.444 E50.64555
G1 X186.886 Y209.564 E50.66491
G1 X186.216 Y210.166 E50.76557
G1 X186.099 Y210.263 E50.78255
G1 X185.387 Y210.813 E50.8831
G1 X185.228 Y210.926 E50.9049
G1 X184.49 Y211.416 E51.0039
G1 X184.364 Y211.492 E51.02034
G1 X183.57 Y211.938 E51.12211
G1 X183.419 Y212.016 E51.14111
G1 X182.605 Y212.399 E51.24164
G1 X182.462 Y212.459 E51.25897
G1 X181.603 Y212.788 E51.36177
G1 X181.453 Y212.84 E51.37951
G1 X180.603 Y213.095 E51.47868
G1 X180.43 Y213.141 E51.49869
G1 X179.535 Y213.342 E51.6012
G1 X179.405 Y213.365 E51.61595
G1 X178.5 Y213.499 E51.71819
G1 X178.332 Y213.517 E51.73708
G1 X177.258 Y213.592 E51.85739
G1 X176.753 Y213.6 E51.91383
G1 X45.254 Y213.6 E66.60938
G1 X45.155 Y213.598 E66.62045
G1 X43.728 Y213.527 E66.78012
G1 X43.441 Y213.499 E66.81234
G1 X42.497 Y213.376 E66.91873
G1 X42.329 Y213.348 E66.93776
G1 X41.299 Y213.133 E67.05535
G1 X40.688 Y212.968 E67.12608
G1 X40.322 Y212.859 E67.16876
G1 X39.269 Y212.505 E67.29291
G1 X38.262 Y212.083 E67.41492
G1 X37.478 Y211.693 E67.51278
G1 X37.18 Y211.532 E67.55063
G1 X36.335 Y211.039 E67.65996
G1 X36.21 Y210.959 E67.67655
G1 X35.342 Y210.359 E67.79447
G1 X34.622 Y209.789 E67.89709
G1 X33.907 Y209.173 E68.00256
G1 X33.804 Y209.077 E68.0183
G1 X33.049 Y208.318 E68.13794
G1 X32.582 Y207.787 E68.21696
G1 X32.34 Y207.495 E68.25935
G1 X31.753 Y206.744 E68.36587
G1 X31.662 Y206.616 E68.38342
G1 X31.154 Y205.855 E68.48567
G1 X31.066 Y205.714 E68.50425
G1 X30.642 Y204.974 E68.59956
G1 X30.446 Y204.605 E68.64625
G1 X30.017 Y203.724 E68.75576
G1 X29.957 Y203.588 E68.77237
G1 X29.621 Y202.753 E68.87296
G1 X29.559 Y202.581 E68.89339
G1 X29.327 Y201.871 E68.97686
G1 X29.223 Y201.512 E69.01863
G1 X29.001 Y200.654 E69.11768
G1 X28.958 Y200.448 E69.14119
G1 X28.711 Y198.935 E69.31252
G1 X28.677 Y198.607 E69.34937
G1 X28.589 Y197.005 E69.52867
G1 X28.587 Y196.637 E69.56979
G1 X28.587 Y24.06 E88.85597
G1 X28.59 Y23.964 E88.86671
G1 X28.661 Y22.519 E89.02839
G1 X28.692 Y22.212 E89.06287
G1 X28.818 Y21.268 E89.1693
G1 X28.845 Y21.111 E89.1871
G1 X29.066 Y20.066 E89.30647
G1 X29.192 Y19.597 E89.36074
G1 X29.331 Y19.132 E89.41498
G1 X29.681 Y18.085 E89.53835
G1 X30.104 Y17.077 E89.66051
G1 X30.475 Y16.33 E89.75372
G0 F12000 X30.4 Y16.481
G1 F1800 X30.4 Y204.51 E110.76673
G0 F12000 X32 Y207.06
G1 F1800 X32 Y13.937 E132.349
G0 F12000 X33.6 Y12.128
G1 F1800 X33.6 Y208.871 E154.33583
G0 F12000 X35.2 Y210.246
G1 F1800 X35.2 Y10.758 E176.62942
G0 F12000 X36.8 Y9.688
G1 F1800 X36.8 Y211.31 E199.1615
G0 F12000 X38.4 Y212.14
G1 F1800 X38.4 Y8.861 E221.87875
G0 F12000 X40 Y8.243
G1 F1800 X40 Y212.75 E244.73324
G0 F12000 X41.6 Y213.195
G1 F1800 X41.6 Y7.798 E267.68719
G0 F12000 X43.2 Y7.53
G1 F1800 X43.2 Y213.467 E290.70148
G0 F12000 X44.8 Y213.58
G1 F1800 X44.8 Y7.409 E313.74193
G0 F12000 X46.4 Y7.4
G1 F1800 X46.4 Y213.6 E336.78561
G0 F12000 X48 Y213.6
G1 F1800 X48 Y7.4 E359.8293
G0 F12000 X49.6 Y7.4
G1 F1800 X49.6 Y213.6 E382.87298
G0 F12000 X51.2 Y213.6
G1 F1800 X51.2 Y7.4 E405.91667
G0 F12000 X52.8 Y7.4
G1 F1800 X52.8 Y213.6 E428.96035
G0 F12000 X54.4 Y213.6
G1 F1800 X54.4 Y7.4 E452.00404
G0 F12000 X56 Y7.4
G1 F1800 X56 Y213.6 E475.04773
G0 F12000 X57.6 Y213.6
G1 F1800 X57.6 Y7.4 E498.09141
G0 F12000 X59.2 Y7.4
G1 F1800 X59.2 Y213.6 E521.1351
G0 F12000 X60.8 Y213.6
G1 F1800 X60.8 Y180.145 E524.87383
G0 F12000 X62.4 Y181.621
G1 F1800 X62.4 Y213.6 E528.44761
G0 F12000 X64 Y213.6
G1 F1800 X64 Y182.259 E531.9501
G0 F12000 X65.6 Y182.4
G1 F1800 X65.6 Y213.6 E535.43682
G0 F12000 X67.2 Y213.6
G1 F1800 X67.2 Y182.4 E538.92355
G0 F12000 X68.8 Y182.4
G1 F1800 X68.8 Y213.6 E542.41028
G0 F12000 X70.4 Y213.6
G1 F1800 X70.4 Y182.4 E545.897
G0 F12000 X72 Y182.4
G1 F1800 X72 Y213.6 E549.38373
G0 F12000 X73.6 Y213.6
G1 F1800 X73.6 Y182.4 E552.87046
G0 F12000 X75.2 Y182.4
G1 F1800 X75.2 Y213.6 E556.35718
G0 F12000 X76.8 Y213.6
G1 F1800 X76.8 Y182.4 E559.84391
G0 F12000 X78.4 Y182.4
G1 F1800 X78.4 Y213.6 E563.33064
G0 F12000 X80 Y213.6
G1 F1800 X80 Y182.4 E566.81736
G0 F12000 X81.6 Y182.4
G1 F1800 X81.6 Y213.6 E570.30409
G0 F12000 X83.2 Y213.6
G1 F1800 X83.2 Y182.4 E573.79081
G0 F12000 X84.8 Y182.4
G1 F1800 X84.8 Y213.6 E577.27754
G0 F12000 X86.4 Y213.6
G1 F1800 X86.4 Y182.4 E580.76427
G0 F12000 X88 Y182.4
G1 F1800 X88 Y213.6 E584.25099
G0 F12000 X89.6 Y213.6
G1 F1800 X89.6 Y182.4 E587.73772
G0 F12000 X91.2 Y182.4
G1 F1800 X91.2 Y213.6 E591.22445
G0 F12000 X92.8 Y213.6
G1 F1800 X92.8 Y182.4 E594.71117
G0 F12000 X94.4 Y182.4
G1 F1800 X94.4 Y213.6 E598.1979
G0 F12000 X96 Y213.6
G1 F1800 X96 Y182.4 E601.68463
G0 F12000 X97.6 Y182.4
G1 F1800 X97.6 Y213.6 E605.17135
G0 F12000 X99.2 Y213.6
G1 F1800 X99.2 Y182.4 E608.65808
G0 F12000 X100.8 Y182.4
G1 F1800 X100.8 Y213.6 E612.14481
G0 F12000 X102.4 Y213.6
G1 F1800 X102.4 Y182.4 E615.63153
G0 F12000 X104 Y182.4
G1 F1800 X104 Y213.6 E619.11826
G0 F12000 X105.6 Y213.6
G1 F1800 X105.6 Y182.4 E622.60499
G0 F12000 X107.2 Y182.4
G1 F1800 X107.2 Y213.6 E626.09171
G0 F12000 X108.8 Y213.6
G1 F1800 X108.8 Y182.4 E629.57844
G0 F12000 X110.4 Y182.4
G1 F1800 X110.4 Y213.6 E633.06516
G0 F12000 X112 Y213.6
G1 F1800 X112 Y182.4 E636.55189
G0 F12000 X113.6 Y182.4
G1 F1800 X113.6 Y213.6 E640.03862
G0 F12000 X115.2 Y213.6
G1 F1800 X115.2 Y182.4 E643.52534
G0 F12000 X116.8 Y182.4
G1 F1800 X116.8 Y213.6 E647.01207
G0 F12000 X118.4 Y213.6
G1 F1800 X118.4 Y182.4 E650.4988
G0 F12000 X120 Y182.4
G1 F1800 X120 Y213.6 E653.98552
G0 F12000 X121.6 Y213.6
G1 F1800 X121.6 Y182.4 E657.47225
G0 F12000 X123.2 Y182.4
G1 F1800 X123.2 Y213.6 E660.95898
G0 F12000 X124.8 Y213.6
G1 F1800 X124.8 Y182.4 E664.4457
G0 F12000 X126.4 Y182.4
G1 F1800 X126.4 Y213.6 E667.93243
G0 F12000 X128 Y213.6
G1 F1800 X128 Y182.4 E671.41916
G0 F12000 X129.6 Y182.4
G1 F1800 X129.6 Y213.6 E674.90588
G0 F12000 X131.2 Y213.6
G1 F1800 X131.2 Y182.4 E678.39261
G0 F12000 X132.8 Y182.4
G1 F1800 X132.8 Y213.6 E681.87934
G0 F12000 X134.4 Y213.6
G1 F1800 X134.4 Y182.4 E685.36606
G0 F12000 X136 Y182.4
G1 F1800 X136 Y213.6 E688.85279
G0 F12000 X137.6 Y213.6
G1 F1800 X137.6 Y182.4 E692.33951
G0 F12000 X139.2 Y182.4
G1 F1800 X139.2 Y213.6 E695.82624
G0 F12000 X140.8 Y213.6
G1 F1800 X140.8 Y182.4 E699.31297
G0 F12000 X142.4 Y182.4
G1 F1800 X142.4 Y213.6 E702.79969
G0 F12000 X144 Y213.6
G1 F1800 X144 Y182.4 E706.28642
G0 F12000 X145.6 Y182.4
G1 F1800 X145.6 Y213.6 E709.77315
G0 F12000 X147.2 Y213.6
G1 F1800 X147.2 Y182.4 E713.25987
G0 F12000 X148.8 Y182.4
G1 F1800 X148.8 Y213.6 E716.7466
G0 F12000 X150.4 Y213.6
G1 F1800 X150.4 Y182.4 E720.23333
G0 F12000 X152 Y182.4
G1 F1800 X152 Y213.6 E723.72005
G0 F12000 X153.6 Y213.6
G1 F1800 X153.6 Y182.4 E727.20678
G0 F12000 X155.2 Y182.4
G1 F1800 X155.2 Y213.6 E730.69351
G0 F12000 X156.8 Y213.6
G1 F1800 X156.8 Y182.4 E734.18023
G0 F12000 X158.4 Y182.4
G1 F1800 X158.4 Y213.6 E737.66696
G0 F12000 X160 Y213.6
G1 F1800 X160 Y182.4 E741.15369
G0 F12000 X161.6 Y182.4
G1 F1800 X161.6 Y213.6 E744.64041
G0 F12000 X163.2 Y213.6
G1 F1800 X163.2 Y182.4 E748.12714
G0 F12000 X164.8 Y182.4
G1 F1800 X164.8 Y213.6 E751.61386
G0 F12000 X166.4 Y213.6
G1 F1800 X166.4 Y182.4 E755.10059
G0 F12000 X168 Y182.4
G1 F1800 X168 Y213.6 E758.58732
G0 F12000 X169.6 Y213.6
G1 F1800 X169.6 Y182.4 E762.07404
G0 F12000 X171.2 Y182.4
G1 F1800 X171.2 Y213.6 E765.56077
G0 F12000 X172.8 Y213.6
G1 F1800 X172.8 Y182.4 E769.0475
G0 F12000 X174.4 Y182.4
G1 F1800 X174.4 Y213.6 E772.53422
G0 F12000 X176 Y213.6
G1 F1800 X176 Y182.4 E776.02095
G0 F12000 X177.6 Y182.433
G1 F1800 X177.6 Y213.569 E779.50052
G0 F12000 X179.2 Y213.396
G1 F1800 X179.2 Y182.604 E782.94166
G0 F12000 X180.8 Y182.963
G1 F1800 X180.8 Y213.036 E786.30243
G0 F12000 X182.4 Y212.483
G1 F1800 X182.4 Y183.522 E789.53894
G0 F12000 X184 Y184.295
G1 F1800 X184 Y211.697 E792.60123
G0 F12000 X185.6 Y210.649
G1 F1800 X185.6 Y185.347 E795.42883
G0 F12000 X187.2 Y186.748
G1 F1800 X187.2 Y209.248 E797.9433
G0 F12000 X188.8 Y207.321
G1 F1800 X188.8 Y188.677 E800.02684
G0 F12000 X190.4 Y191.686
G1 F1800 X190.4 Y204.332 E801.44008
G1 F2700 E796.44008
G0 F12000 X191.38 Y204.747
G0 X190.518 Y206.58
G0 X189.809 Y207.739
G0 X188.538 Y209.383
G0 X187.615 Y210.34
G0 X186.014 Y211.673
G0 X184.895 Y212.415
G0 X183.03 Y213.375
G0 X181.771 Y213.856
G0 X179.747 Y214.385
G0 X178.434 Y214.576
G0 X176.76 Y214.665
G0 X45.115 Y214.662
G0 X43.312 Y214.556
G0 X41.21 Y214.206
G0 X38.871 Y213.493
G0 X36.981 Y212.634
G0 X35.617 Y211.843
G0 X33.937 Y210.604
G0 X32.381 Y209.16
G0 X30.897 Y207.376
G0 X29.709 Y205.488
G0 X28.979 Y204.008
G0 X28.229 Y201.915
G0 X28.051 Y201.2
G0 X27.748 Y199.655
G0 X28.8 Y199.48
G1 F2700 E801.44008
G1 F1800 X28.8 Y21.402 E821.34102
G1 F2700 E816.34102
G0 F12000 X27.8 Y20.907
G0 X27.961 Y20.078
G0 X28.696 Y17.681
G0 X29.531 Y15.837
G0 X30.336 Y14.442
G0 X31.678 Y12.637
G0 X33.185 Y11.044
G0 X34.975 Y9.593
G0 X36.295 Y8.747
G0 X38.134 Y7.81
G0 X40.27 Y7.042
G0 X41.54 Y6.724
G0 X43.521 Y6.426
G0 X44.491 Y6.376
G0 X60.8 Y6.335
G0 X60.8 Y7.4
G1 F2700 E821.34102
