;FLAVOR:Marlin
;TIME:9996
;Filament used: 17.5924m
;Layer height: 0.28
;MINX:60.898
;MINY:5.344
;MINZ:0.336
;MAXX:158.855
;MAXY:214.665
;MAXZ:67.826
;Generated with Cura_SteamEngine 4.6.1
M140 S50
M105
M190 S50
M104 S200
M105
M109 S200
M82 ;absolute extrusion mode
M201 X500.00 Y500.00 Z100.00 E5000.00 ;Setup machine max acceleration
M203 X500.00 Y500.00 Z10.00 E50.00 ;Setup machine max feedrate
M204 P500.00 R1000.00 T500.00 ;Setup Print/Retract/Travel acceleration
M205 X8.00 Y8.00 Z0.40 E5.00 ;Setup Jerk
M220 S100 ;Reset Feedrate
M221 S100 ;Reset Flowrate

G28 ;Home

G92 E0 ;Reset Extruder
G1 Z2.0 F3000 ;Move Z Axis up
G1 X10.1 Y20 Z0.28 F5000.0 ;Move to start position
G1 X10.1 Y200.0 Z0.28 F1500.0 E15 ;Draw the first line
G1 X10.4 Y200.0 Z0.28 F5000.0 ;Move to side a little
G1 X10.4 Y20 Z0.28 F1500.0 E30 ;Draw the second line
G92 E0 ;Reset Extruder
G1 Z2.0 F3000 ;Move Z Axis up

G92 E0
G92 E0
G1 F2700 E-5
;LAYER_COUNT:237
;LAYER:-6
M107
G0 F12000 X127.011 Y18.781 Z0.336
;TYPE:SUPPORT-INTERFACE
G1 F2700 E0
G1 F1800 X127.173 Y17.903 E0.09978
G1 X127.203 Y17.769 E0.11512
G1 X127.434 Y16.884 E0.21734
G1 X127.486 Y16.712 E0.23742
G1 X127.773 Y15.87 E0.33683
G1 X127.836 Y15.704 E0.35667
G1 X128.177 Y14.901 E0.45417
G1 X128.258 Y14.726 E0.47572
G1 X128.739 Y13.801 E0.59223
G1 X129.214 Y13.022 E0.6942
G1 X129.314 Y12.871 E0.71444
G1 X129.825 Y12.157 E0.81256
G1 X129.938 Y12.009 E0.83337
G1 X130.514 Y11.318 E0.9339
G1 X130.615 Y11.205 E0.95084
G1 X131.24 Y10.556 E1.05153
G1 X131.365 Y10.436 E1.07089
G1 X132.036 Y9.833 E1.17171
G1 X132.152 Y9.737 E1.18854
G1 X132.864 Y9.187 E1.28908
G1 X133.023 Y9.074 E1.31088
G1 X133.761 Y8.584 E1.40988
G1 X133.887 Y8.508 E1.42632
G1 X134.681 Y8.062 E1.5281
G1 X134.831 Y7.984 E1.54699
G1 X135.646 Y7.601 E1.64763
G1 X135.789 Y7.541 E1.66496
G1 X136.648 Y7.212 E1.76775
G1 X136.798 Y7.16 E1.7855
G1 X137.648 Y6.905 E1.88467
G1 X137.821 Y6.859 E1.90467
G1 X138.716 Y6.658 E2.00719
G1 X138.846 Y6.635 E2.02194
G1 X139.751 Y6.501 E2.12418
G1 X139.92 Y6.483 E2.14317
G1 X140.993 Y6.408 E2.26338
G1 X141.498 Y6.4 E2.31982
G1 X143.441 Y6.401 E2.53696
G1 X144.565 Y6.446 E2.66267
G1 X145.482 Y6.548 E2.76578
G1 X145.657 Y6.573 E2.78554
G1 X146.546 Y6.737 E2.88656
G1 X146.669 Y6.765 E2.90066
G1 X147.563 Y6.999 E3.00393
G1 X147.726 Y7.048 E3.02295
G1 X148.568 Y7.335 E3.12237
G1 X148.734 Y7.398 E3.14221
G1 X149.537 Y7.739 E3.2397
G1 X149.726 Y7.827 E3.263
G1 X150.637 Y8.301 E3.37777
G1 X151.416 Y8.776 E3.47973
G1 X151.567 Y8.876 E3.49997
G1 X152.281 Y9.387 E3.59809
G1 X152.429 Y9.5 E3.6189
G1 X153.12 Y10.076 E3.71944
G1 X153.233 Y10.177 E3.73637
G1 X153.882 Y10.802 E3.83706
G1 X154.002 Y10.927 E3.85643
G1 X154.605 Y11.598 E3.95725
G1 X154.701 Y11.714 E3.97407
G1 X155.26 Y12.438 E4.07629
G1 X155.354 Y12.569 E4.09431
G1 X155.854 Y13.323 E4.19542
G1 X155.93 Y13.449 E4.21186
G1 X156.376 Y14.243 E4.31364
G1 X156.454 Y14.393 E4.33253
G1 X156.837 Y15.208 E4.43316
G1 X156.897 Y15.351 E4.4505
G1 X157.226 Y16.21 E4.55329
G1 X157.278 Y16.36 E4.57103
G1 X157.533 Y17.21 E4.67021
G1 X157.579 Y17.383 E4.69021
G1 X157.778 Y18.269 E4.79169
G1 X157.803 Y18.408 E4.80748
G1 X157.936 Y19.307 E4.90904
G1 X157.954 Y19.469 E4.92725
G1 X158.03 Y20.555 E5.04891
G1 X158.038 Y21.056 E5.10491
G1 X158.038 Y196.933 E24.75988
G1 X158.036 Y197.033 E24.77106
G1 X157.967 Y198.441 E24.92859
G1 X157.939 Y198.731 E24.96115
G1 X157.789 Y199.843 E25.08655
G1 X157.569 Y200.893 E25.20644
G1 X157.353 Y201.674 E25.297
G1 X157.221 Y202.102 E25.34705
G1 X156.92 Y202.97 E25.44972
G1 X156.855 Y203.138 E25.46985
G1 X156.44 Y204.096 E25.58652
G1 X156.126 Y204.717 E25.66429
G1 X155.945 Y205.048 E25.70645
G1 X155.483 Y205.837 E25.80863
G1 X155.366 Y206.021 E25.833
G1 X154.775 Y206.872 E25.94878
G1 X154.496 Y207.233 E25.99977
G1 X154.239 Y207.551 E26.04546
G1 X153.531 Y208.365 E26.16603
G1 X152.874 Y209.025 E26.2701
G1 X152.734 Y209.157 E26.2916
G1 X152.063 Y209.742 E26.39109
G1 X151.782 Y209.969 E26.43146
G1 X151.045 Y210.531 E26.53503
G1 X150.91 Y210.627 E26.55354
G1 X150.013 Y211.205 E26.6728
G1 X149.582 Y211.452 E26.72831
G1 X149.219 Y211.648 E26.77441
G1 X148.398 Y212.061 E26.87712
G1 X148.212 Y212.146 E26.89997
G1 X147.248 Y212.54 E27.01636
G1 X146.397 Y212.827 E27.11672
G1 X145.366 Y213.122 E27.23656
G1 X144.436 Y213.322 E27.34287
G1 X144.236 Y213.357 E27.36556
G1 X143.13 Y213.506 E27.49028
G1 X142.794 Y213.535 E27.52797
G1 X141.483 Y213.599 E27.67465
G1 X141.3 Y213.6 E27.6951
G1 X76.559 Y213.599 E34.93017
G1 X75.435 Y213.554 E35.05588
G1 X74.518 Y213.452 E35.15899
G1 X74.343 Y213.427 E35.17875
G1 X73.454 Y213.263 E35.27977
G1 X73.331 Y213.235 E35.29387
G1 X72.437 Y213.001 E35.39715
G1 X72.274 Y212.952 E35.41617
G1 X71.432 Y212.665 E35.51558
G1 X71.266 Y212.602 E35.53542
G1 X70.463 Y212.261 E35.63292
G1 X70.274 Y212.173 E35.65622
G1 X69.363 Y211.699 E35.77098
G1 X68.584 Y211.224 E35.87294
G1 X68.433 Y211.124 E35.89318
G1 X67.718 Y210.612 E35.99146
G1 X67.565 Y210.495 E36.01299
G1 X66.88 Y209.924 E36.11265
G1 X66.767 Y209.823 E36.12958
G1 X66.118 Y209.198 E36.23028
G1 X65.998 Y209.073 E36.24964
G1 X65.395 Y208.402 E36.35046
G1 X65.298 Y208.284 E36.36753
G1 X64.74 Y207.562 E36.4695
G1 X64.636 Y207.415 E36.48963
G1 X64.143 Y206.672 E36.58928
G1 X64.07 Y206.551 E36.60507
G1 X63.618 Y205.746 E36.70824
G1 X63.546 Y205.607 E36.72574
G1 X63.158 Y204.779 E36.82792
G1 X63.098 Y204.637 E36.84515
G1 X62.774 Y203.79 E36.9465
G1 X62.717 Y203.625 E36.966
G1 X62.467 Y202.79 E37.06341
G1 X62.421 Y202.617 E37.08342
G1 X62.219 Y201.716 E37.18661
G1 X62.197 Y201.592 E37.20068
G1 X62.062 Y200.678 E37.30393
G1 X62.045 Y200.518 E37.32191
G1 X61.97 Y199.445 E37.44212
G1 X61.962 Y198.944 E37.49811
G1 X61.962 Y197.014 E37.7138
G1 X61.998 Y196.008 E37.8263
G1 X62.008 Y195.873 E37.84142
G1 X62.11 Y194.956 E37.94453
G1 X62.135 Y194.781 E37.96429
G1 X62.297 Y193.903 E38.06407
G1 X62.327 Y193.769 E38.07941
G1 X62.558 Y192.884 E38.18163
G1 X62.61 Y192.712 E38.20171
G1 X62.897 Y191.87 E38.30112
G1 X62.96 Y191.704 E38.32096
G1 X63.301 Y190.901 E38.41846
G1 X63.382 Y190.726 E38.44001
G1 X63.863 Y189.801 E38.55652
G1 X64.338 Y189.022 E38.65849
G1 X64.438 Y188.871 E38.67873
G1 X64.949 Y188.157 E38.77685
G1 X65.062 Y188.009 E38.79766
G1 X65.638 Y187.318 E38.89819
G1 X65.739 Y187.205 E38.91513
G1 X66.364 Y186.556 E39.01582
G1 X66.489 Y186.436 E39.03518
G1 X67.16 Y185.833 E39.136
G1 X67.276 Y185.737 E39.15283
G1 X67.988 Y185.187 E39.25337
G1 X68.147 Y185.074 E39.27517
G1 X68.885 Y184.584 E39.37417
G1 X69.011 Y184.508 E39.39061
G1 X69.805 Y184.062 E39.49239
G1 X69.955 Y183.984 E39.51128
G1 X70.77 Y183.601 E39.61192
G1 X70.913 Y183.541 E39.62925
G1 X71.772 Y183.212 E39.73204
G1 X71.922 Y183.16 E39.74979
G1 X72.772 Y182.905 E39.84896
G1 X72.945 Y182.859 E39.86896
G1 X73.84 Y182.658 E39.97148
G1 X73.97 Y182.635 E39.98623
G1 X74.875 Y182.501 E40.08847
G1 X75.044 Y182.483 E40.10746
G1 X76.117 Y182.408 E40.22767
G1 X76.622 Y182.4 E40.28411
G1 X121.451 Y182.4 E45.29393
G1 X122.119 Y182.358 E45.36873
G1 X122.79 Y182.229 E45.44509
G1 X123.439 Y182.016 E45.52143
G1 X124.056 Y181.724 E45.59771
G1 X124.631 Y181.356 E45.674
G1 X125.155 Y180.918 E45.75032
G1 X125.619 Y180.418 E45.82656
G1 X126.018 Y179.862 E45.90303
G1 X126.342 Y179.262 E45.97924
G1 X126.588 Y178.626 E46.05545
G1 X126.754 Y177.957 E46.13248
G1 X126.838 Y177.018 E46.23783
G1 X126.838 Y21.014 E63.67191
G1 X126.874 Y20.008 E63.78441
G1 X126.884 Y19.873 E63.79954
G1 X126.986 Y18.956 E63.90265
G1 X127.011 Y18.781 E63.9224
G0 F12000 X128 Y15.317
G1 F1800 X128 Y213.599 E86.08122
G0 F12000 X126.4 Y213.599
G1 F1800 X126.4 Y179.112 E89.93528
G0 F12000 X124.8 Y181.214
G1 F1800 X124.8 Y213.599 E93.55444
G0 F12000 X123.2 Y213.599
G1 F1800 X123.2 Y182.094 E97.07525
G0 F12000 X121.6 Y182.39
G1 F1800 X121.6 Y213.599 E100.56298
G0 F12000 X120 Y213.599
G1 F1800 X120 Y182.4 E104.04959
G0 F12000 X118.4 Y182.4
G1 F1800 X118.4 Y213.599 E107.53621
G0 F12000 X116.8 Y213.599
G1 F1800 X116.8 Y182.4 E111.02282
G0 F12000 X115.2 Y182.4
G1 F1800 X115.2 Y213.599 E114.50944
G0 F12000 X113.6 Y213.599
G1 F1800 X113.6 Y182.4 E117.99605
G0 F12000 X112 Y182.4
G1 F1800 X112 Y213.599 E121.48267
G0 F12000 X110.4 Y213.599
G1 F1800 X110.4 Y182.4 E124.96928
G0 F12000 X108.8 Y182.4
G1 F1800 X108.8 Y213.599 E128.4559
G0 F12000 X107.2 Y213.599
G1 F1800 X107.2 Y182.4 E131.94251
G0 F12000 X105.6 Y182.4
G1 F1800 X105.6 Y213.599 E135.42913
G0 F12000 X104 Y213.599
G1 F1800 X104 Y182.4 E138.91574
G0 F12000 X102.4 Y182.4
G1 F1800 X102.4 Y213.599 E142.40236
G0 F12000 X100.8 Y213.599
G1 F1800 X100.8 Y182.4 E145.88897
G0 F12000 X99.2 Y182.4
G1 F1800 X99.2 Y213.599 E149.37559
G0 F12000 X97.6 Y213.599
G1 F1800 X97.6 Y182.4 E152.8622
G0 F12000 X96 Y182.4
G1 F1800 X96 Y213.599 E156.34882
G0 F12000 X94.4 Y213.599
G1 F1800 X94.4 Y182.4 E159.83543
G0 F12000 X92.8 Y182.4
G1 F1800 X92.8 Y213.599 E163.32205
G0 F12000 X91.2 Y213.599
G1 F1800 X91.2 Y182.4 E166.80866
G0 F12000 X89.6 Y182.4
G1 F1800 X89.6 Y213.599 E170.29527
G0 F12000 X88 Y213.599
G1 F1800 X88 Y182.4 E173.78189
G0 F12000 X86.4 Y182.4
G1 F1800 X86.4 Y213.599 E177.2685
G0 F12000 X84.8 Y213.599
G1 F1800 X84.8 Y182.4 E180.75512
G0 F12000 X83.2 Y182.4
G1 F1800 X83.2 Y213.599 E184.24173
G0 F12000 X81.6 Y213.599
G1 F1800 X81.6 Y182.4 E187.72835
G0 F12000 X80 Y182.4
G1 F1800 X80 Y213.599 E191.21496
G0 F12000 X78.4 Y213.599
G1 F1800 X78.4 Y182.4 E194.70158
G0 F12000 X76.8 Y182.4
G1 F1800 X76.8 Y213.599 E198.18819
G0 F12000 X75.2 Y213.527
G1 F1800 X75.2 Y182.472 E201.65871
G0 F12000 X73.6 Y182.711
G1 F1800 X73.6 Y213.289 E205.07593
G0 F12000 X72 Y212.858
G1 F1800 X72 Y183.136 E208.39748
G0 F12000 X70.4 Y183.774
G1 F1800 X70.4 Y212.231 E211.57767
G0 F12000 X68.8 Y211.355
G1 F1800 X68.8 Y184.64 E214.56318
G0 F12000 X67.2 Y185.799
G1 F1800 X67.2 Y210.19 E217.28897
G0 F12000 X65.6 Y208.63
G1 F1800 X65.6 Y187.363 E219.66565
G0 F12000 X64 Y189.576
G1 F1800 X64 Y206.426 E221.5487
G0 F12000 X62.4 Y202.523
G1 F1800 X62.4 Y193.489 E222.55829
G1 F2700 E217.55829
G0 F12000 X61.37 Y193.22
G0 X61.053 Y194.828
G0 X60.898 Y196.989
G0 X60.916 Y199.687
G0 X61.145 Y201.758
G0 X61.441 Y203.073
G0 X62.112 Y205.039
G0 X62.684 Y206.257
G0 X63.763 Y208.023
G0 X64.594 Y209.103
G0 X66.048 Y210.608
G0 X67.081 Y211.465
G0 X68.819 Y212.613
G0 X70.024 Y213.231
G0 X71.942 Y213.964
G0 X73.246 Y214.306
G0 X75.331 Y214.613
G0 X75.683 Y214.627
G0 X129.6 Y214.665
G0 X129.6 Y213.599
G1 F2700 E222.55829
G1 F1800 X129.6 Y12.471 E245.03516
G0 F12000 X131.2 Y10.597
G1 F1800 X131.2 Y213.599 E267.72145
G0 F12000 X132.8 Y213.599
G1 F1800 X132.8 Y9.236 E290.55985
G0 F12000 X134.4 Y8.219
G1 F1800 X134.4 Y213.599 E313.51189
G0 F12000 X136 Y213.599
G1 F1800 X136 Y7.46 E336.54876
G0 F12000 X137.6 Y6.919
G1 F1800 X137.6 Y213.599 E359.64609
G0 F12000 X139.2 Y213.599
G1 F1800 X139.2 Y6.582 E382.78108
G0 F12000 X140.8 Y6.421
G1 F1800 X140.8 Y213.599 E405.93406
G0 F12000 X142.4 Y213.555
G1 F1800 X142.4 Y6.401 E429.08436
G0 F12000 X144 Y6.424
G1 F1800 X144 Y213.389 E452.21354
G0 F12000 X145.6 Y213.056
G1 F1800 X145.6 Y6.565 E475.28974
G0 F12000 X147.2 Y6.904
G1 F1800 X147.2 Y212.557 E498.2723
G0 F12000 X148.8 Y211.859
G1 F1800 X148.8 Y7.427 E521.11841
G0 F12000 X150.4 Y8.178
G1 F1800 X150.4 Y210.956 E543.77967
G0 F12000 X152 Y209.793
G1 F1800 X152 Y9.186 E566.19831
G0 F12000 X153.6 Y10.531
G1 F1800 X153.6 Y208.286 E588.29824
G0 F12000 X155.2 Y206.261
G1 F1800 X155.2 Y12.361 E609.96735
G0 F12000 X156.8 Y15.13
G1 F1800 X156.8 Y203.265 E630.9922
G1 F2700 E625.9922
G0 F300 X156.8 Y203.265 Z0.756
G0 F12000 X157.779 Y203.684
G0 X156.868 Y205.579
G0 X155.743 Y207.35
G0 X154.288 Y209.112
G0 X152.739 Y210.564
G0 X151.501 Y211.512
G0 X149.707 Y212.594
G0 X147.78 Y213.475
G0 X145.599 Y214.161
G0 X144.408 Y214.408
G0 X142.866 Y214.597
G0 X141.304 Y214.665
G0 X75.505 Y214.626
G0 X74.179 Y214.479
G0 X72.152 Y214.027
G0 X70.862 Y213.587
G0 X69.34 Y212.874
G0 X67.823 Y211.996
G0 X67.921 Y210.756
;TIME_ELAPSED:203.755962
;LAYER:-5
M140 S50
;TYPE:SUPPORT
G1 F2700 E630.9922
G1 F1800 X68.433 Y211.122 E631.08012
G1 X68.584 Y211.223 E631.10549
G1 X69.362 Y211.697 E631.23276
G1 X70.274 Y212.172 E631.3764
G1 X70.463 Y212.26 E631.40552
G1 X71.115 Y212.537 E631.50448
G1 X63.025 Y204.446 E633.1028
G1 X62.774 Y203.789 E633.20105
G1 X62.716 Y203.624 E633.22548
G1 X62.467 Y202.789 E633.3472
G1 X62.421 Y202.616 E633.37221
G1 X62.366 Y202.373 E633.40701
G1 X73.19 Y213.197 E635.54535
G1 X73.33 Y213.234 E635.56557
G1 X73.454 Y213.261 E635.5833
G1 X74.343 Y213.426 E635.70961
G1 X74.517 Y213.451 E635.73417
G1 X74.9 Y213.493 E635.78799
G1 X62.059 Y200.652 E638.32479
G1 X62.045 Y200.517 E638.34375
G1 X61.97 Y199.444 E638.49401
G1 X61.965 Y199.143 E638.53606
G1 X76.412 Y213.591 E641.39024
G1 X76.559 Y213.597 E641.41079
G1 X77.833 Y213.597 E641.58876
G1 X61.961 Y197.726 E644.72426
G1 X61.961 Y197.013 E644.82386
G1 X61.985 Y196.335 E644.91863
G1 X79.247 Y213.597 E648.32883
G1 X80.661 Y213.597 E648.52635
G1 X62.1 Y195.037 E652.19307
G1 X62.11 Y194.955 E652.20461
G1 X62.135 Y194.78 E652.22931
G1 X62.296 Y193.902 E652.354
G1 X62.311 Y193.833 E652.36387
G1 X82.076 Y213.597 E656.26844
G1 X83.49 Y213.597 E656.46597
G1 X62.607 Y192.715 E660.59141
G0 F12000 X62.609 Y192.711
G1 F1800 X62.897 Y191.869 E660.71573
G1 X62.96 Y191.703 E660.74053
G1 X62.974 Y191.667 E660.74592
G1 X84.904 Y213.597 E665.07831
G1 X86.318 Y213.597 E665.27583
G1 X63.403 Y190.682 E669.80281
G1 X63.863 Y189.8 E669.94177
G1 X63.889 Y189.754 E669.94915
G1 X87.732 Y213.597 E674.65946
G1 X89.147 Y213.597 E674.85712
G1 X64.43 Y188.88 E679.74009
G1 X64.437 Y188.87 E679.7418
G1 X64.948 Y188.156 E679.86445
G1 X65.022 Y188.059 E679.88149
G1 X90.561 Y213.597 E684.92675
G1 X91.975 Y213.597 E685.12428
G1 X65.664 Y187.286 E690.32215
G1 X65.739 Y187.204 E690.33767
G1 X66.355 Y186.563 E690.46186
G1 X93.389 Y213.597 E695.80257
G1 X94.803 Y213.597 E696.00009
G1 X67.096 Y185.89 E701.47375
G1 X67.16 Y185.832 E701.48582
G1 X67.276 Y185.736 E701.50685
G1 X67.885 Y185.265 E701.6144
G1 X96.218 Y213.597 E707.21163
G1 X97.632 Y213.597 E707.40916
G1 X68.724 Y184.689 E713.12008
G1 X68.884 Y184.583 E713.14689
G1 X69.011 Y184.507 E713.16756
G1 X69.616 Y184.168 E713.26444
G1 X99.046 Y213.597 E719.07839
G1 X100.46 Y213.597 E719.27592
G1 X70.561 Y183.698 E725.18262
G1 X70.77 Y183.6 E725.21486
G1 X70.912 Y183.54 E725.2364
G1 X71.566 Y183.289 E725.33425
G1 X101.874 Y213.597 E731.32175
G1 X103.289 Y213.597 E731.51942
G1 X72.636 Y182.944 E737.57508
G1 X72.771 Y182.903 E737.59478
G1 X72.945 Y182.857 E737.61993
G1 X73.777 Y182.671 E737.73902
G1 X104.703 Y213.597 E743.84861
G1 X106.117 Y213.597 E744.04613
G1 X75.006 Y182.486 E750.19227
G1 X75.044 Y182.482 E750.19761
G1 X76.116 Y182.407 E750.34773
G1 X76.338 Y182.404 E750.37874
G1 X107.531 Y213.597 E756.54108
G1 X108.946 Y213.598 E756.73874
G1 X77.747 Y182.399 E762.90226
G1 X79.162 Y182.399 E763.09993
G1 X110.36 Y213.598 E769.26335
G1 X111.775 Y213.598 E769.46102
G1 X80.576 Y182.399 E775.62454
G1 X81.99 Y182.399 E775.82207
G1 X113.189 Y213.598 E781.98559
G1 X114.603 Y213.598 E782.18311
G1 X83.404 Y182.399 E788.34664
G1 X84.818 Y182.399 E788.54416
G1 X116.017 Y213.598 E794.70768
G1 X117.432 Y213.598 E794.90535
G1 X86.233 Y182.399 E801.06887
G1 X87.647 Y182.399 E801.2664
G1 X118.846 Y213.598 E807.42992
G1 X120.26 Y213.598 E807.62744
G1 X89.061 Y182.399 E813.79097
G1 X90.475 Y182.399 E813.98849
G1 X121.674 Y213.598 E820.15201
G1 X123.088 Y213.598 E820.34954
G1 X91.889 Y182.399 E826.51306
G1 X93.304 Y182.399 E826.71073
G1 X124.503 Y213.598 E832.87425
G1 X125.917 Y213.598 E833.07177
G1 X94.718 Y182.399 E839.2353
G1 X96.132 Y182.399 E839.43282
G1 X127.331 Y213.598 E845.59634
G1 X128.745 Y213.598 E845.79387
G1 X97.546 Y182.399 E851.95739
G1 X98.961 Y182.399 E852.15506
G1 X130.159 Y213.598 E858.31848
G1 X131.574 Y213.598 E858.51614
G1 X100.375 Y182.399 E864.67967
G1 X101.789 Y182.399 E864.87719
G1 X132.988 Y213.598 E871.04071
G1 X134.402 Y213.598 E871.23824
G1 X103.203 Y182.399 E877.40176
G1 X104.617 Y182.399 E877.59929
G1 X135.816 Y213.598 E883.76281
G1 X137.231 Y213.598 E883.96047
G1 X106.032 Y182.399 E890.124
G1 X107.446 Y182.399 E890.32152
