;FLAVOR:Marlin
;TIME:928
;Filament used: 0.829001m
;Layer height: 0.2
;MINX:73.926
;MINY:76.887
;MINZ:0.2
;MAXX:146.074
;MAXY:143.114
;MAXZ:6.4
;Generated with Cura_SteamEngine 4.6.1
M140 S52
M105
M190 S52
M104 S203
M105
M109 S203
M82 ;absolute extrusion mode
M201 X500.00 Y500.00 Z100.00 E5000.00 ;Setup machine max acceleration
M203 X500.00 Y500.00 Z10.00 E50.00 ;Setup machine max feedrate
M204 P500.00 R1000.00 T500.00 ;Setup Print/Retract/Travel acceleration
M205 X8.00 Y8.00 Z0.40 E5.00 ;Setup Jerk
M220 S100 ;Reset Feedrate
M221 S100 ;Reset Flowrate

G28 ;Home

G92 E0 ;Reset Extruder
G1 Z2.0 F3000 ;Move Z Axis up
G1 X10.1 Y20 Z0.28 F5000.0 ;Move to start position
G1 X10.1 Y200.0 Z0.28 F1500.0 E15 ;Draw the first line
G1 X10.4 Y200.0 Z0.28 F5000.0 ;Move to side a little
G1 X10.4 Y20 Z0.28 F1500.0 E30 ;Draw the second line
G92 E0 ;Reset Extruder
G1 Z2.0 F3000 ;Move Z Axis up

G92 E0
G92 E0
G1 F2700 E-5
;LAYER_COUNT:33
;LAYER:0
M107
G0 F6000 X121.675 Y77.715 Z0.2
;TYPE:SKIRT
G1 F2700 E0
G1 F1200 X122.359 Y77.766 E0.02281
G1 X122.674 Y77.8 E0.03335
G1 X123.566 Y77.936 E0.06336
G1 X124.36 Y78.128 E0.09053
G1 X124.921 Y78.287 E0.10993
G1 X125.778 Y78.571 E0.13995
G1 X126.313 Y78.793 E0.15922
G1 X126.652 Y78.945 E0.17158
G1 X127.54 Y79.396 E0.2047
G1 X127.715 Y79.496 E0.21141
G1 X128.428 Y79.944 E0.23941
G1 X128.594 Y80.058 E0.24611
G1 X129.35 Y80.63 E0.27764
G1 X129.524 Y80.775 E0.28517
G1 X130.019 Y81.216 E0.30722
G1 X130.179 Y81.368 E0.31456
G1 X130.832 Y82.048 E0.34592
G1 X131.048 Y82.295 E0.35683
G1 X131.723 Y83.156 E0.39322
G1 X131.88 Y83.38 E0.40232
G1 X132.277 Y83.992 E0.42658
G1 X132.868 Y84.982 E0.46493
G1 X143.24 Y102.947 E1.15489
G1 X143.655 Y103.701 E1.18351
G1 X143.835 Y104.046 E1.19645
G1 X144.346 Y105.192 E1.23819
G1 X144.506 Y105.62 E1.25338
G1 X144.799 Y106.531 E1.28521
G1 X144.869 Y106.79 E1.29414
G1 X145.087 Y107.796 E1.32837
G1 X145.124 Y108.021 E1.33596
G1 X145.23 Y108.905 E1.36557
G1 X145.246 Y109.116 E1.37261
G1 X145.274 Y110.018 E1.40262
G1 X145.258 Y110.471 E1.4177
G1 X145.232 Y110.924 E1.43279
G1 X145.079 Y112.193 E1.4753
G1 X145.004 Y112.599 E1.48904
G1 X144.801 Y113.479 E1.51907
G1 X144.648 Y113.981 E1.53653
G1 X144.54 Y114.304 E1.54786
G1 X144.059 Y115.489 E1.59039
G1 X143.871 Y115.88 E1.60482
G1 X143.588 Y116.426 E1.62528
G1 X143.138 Y117.231 E1.65595
G1 X132.733 Y135.251 E2.34804
G1 X132.266 Y136.025 E2.3781
G1 X132.084 Y136.311 E2.38938
G1 X131.414 Y137.244 E2.42758
G1 X131.116 Y137.613 E2.44336
G1 X130.414 Y138.396 E2.47833
G1 X130.241 Y138.57 E2.4865
G1 X129.306 Y139.402 E2.52812
G1 X129.134 Y139.537 E2.5354
G1 X128.605 Y139.925 E2.55722
G1 X128.344 Y140.104 E2.56774
G1 X127.569 Y140.586 E2.5981
G1 X127.382 Y140.691 E2.60523
G1 X126.701 Y141.04 E2.63068
G1 X126.506 Y141.131 E2.63784
G1 X125.385 Y141.576 E2.67795
G1 X125.039 Y141.69 E2.69007
G1 X123.818 Y142.01 E2.73205
G1 X123.427 Y142.087 E2.74531
G1 X122.092 Y142.259 E2.79008
G1 X121.74 Y142.281 E2.80181
G1 X121.265 Y142.3 E2.81762
G1 X120.279 Y142.314 E2.85042
G1 X99.511 Y142.313 E3.54116
G1 X98.958 Y142.305 E3.55956
G1 X98.64 Y142.295 E3.57014
G1 X98.181 Y142.274 E3.58542
G1 X96.958 Y142.144 E3.62633
G1 X96.565 Y142.078 E3.63958
G1 X95.602 Y141.868 E3.67236
G1 X95.29 Y141.784 E3.68311
G1 X94.241 Y141.44 E3.71983
G1 X94.033 Y141.359 E3.72725
G1 X93.387 Y141.081 E3.75064
G1 X93.179 Y140.983 E3.75829
G1 X92.278 Y140.502 E3.79226
G1 X92.098 Y140.394 E3.79924
G1 X91.345 Y139.896 E3.82927
G1 X90.88 Y139.536 E3.84883
G1 X90.403 Y139.145 E3.86934
G1 X89.73 Y138.543 E3.89938
G1 X89.115 Y137.884 E3.92936
G1 X88.809 Y137.526 E3.94502
G1 X88.254 Y136.815 E3.97502
G1 X87.854 Y136.208 E3.9992
G1 X87.131 Y135.018 E4.04551
G1 X76.754 Y117.04 E4.73592
G1 X76.339 Y116.288 E4.76449
G1 X76.16 Y115.944 E4.77739
G1 X75.654 Y114.808 E4.81875
G1 X75.494 Y114.38 E4.83395
G1 X75.201 Y113.469 E4.86577
G1 X75.131 Y113.21 E4.8747
G1 X74.913 Y112.204 E4.90893
G1 X74.876 Y111.979 E4.91652
G1 X74.77 Y111.092 E4.94623
G1 X74.754 Y110.88 E4.9533
G1 X74.742 Y109.526 E4.99834
G1 X74.768 Y109.074 E5.0134
G1 X74.922 Y107.799 E5.05611
G1 X75.004 Y107.357 E5.07106
G1 X75.208 Y106.478 E5.10107
G1 X75.449 Y105.728 E5.12728
G1 X75.587 Y105.349 E5.14069
G1 X76.01 Y104.353 E5.17668
G1 X76.129 Y104.11 E5.18568
G1 X76.375 Y103.64 E5.20333
G1 X76.85 Y102.789 E5.23574
G1 X87.263 Y84.756 E5.92833
G1 X87.557 Y84.262 E5.94745
G1 X87.729 Y83.984 E5.95833
G1 X87.956 Y83.629 E5.97234
G1 X88.401 Y82.988 E5.9983
G1 X88.526 Y82.822 E6.00521
G1 X89.071 Y82.158 E6.03378
G1 X89.215 Y81.997 E6.04096
G1 X89.585 Y81.605 E6.05889
G1 X89.761 Y81.428 E6.06719
G1 X90.692 Y80.6 E6.10863
G1 X90.86 Y80.468 E6.11574
G1 X91.401 Y80.071 E6.13806
G1 X91.664 Y79.891 E6.14866
G1 X92.431 Y79.414 E6.1787
G1 X92.618 Y79.309 E6.18583
G1 X93.299 Y78.96 E6.21128
G1 X93.494 Y78.869 E6.21844
G1 X94.615 Y78.424 E6.25856
G1 X94.961 Y78.31 E6.27067
G1 X96.077 Y78.012 E6.30909
G1 X96.279 Y77.97 E6.31595
G1 X97.335 Y77.807 E6.35149
G1 X97.922 Y77.748 E6.37111
G1 X98.794 Y77.698 E6.40016
G1 X99.63 Y77.687 E6.42797
G1 X120.492 Y77.688 E7.12185
G1 X121.675 Y77.715 E7.1612
G0 F6000 X121.691 Y77.316
G1 F1200 X122.402 Y77.368 E7.18491
G1 X122.717 Y77.402 E7.19545
G1 X123.627 Y77.541 E7.22607
G1 X124.469 Y77.743 E7.25487
G1 X125.03 Y77.902 E7.27426
G1 X125.904 Y78.191 E7.30488
G1 X126.477 Y78.428 E7.3255
G1 X126.816 Y78.58 E7.33786
G1 X127.738 Y79.049 E7.37227
G1 X127.913 Y79.149 E7.37897
G1 X128.655 Y79.614 E7.40809
G1 X128.821 Y79.728 E7.41479
G1 X129.606 Y80.323 E7.44755
G1 X129.78 Y80.468 E7.45509
G1 X130.295 Y80.926 E7.47801
G1 X130.455 Y81.078 E7.48535
G1 X131.133 Y81.785 E7.51793
G1 X131.349 Y82.032 E7.52884
G1 X132.05 Y82.926 E7.56663
G1 X132.207 Y83.15 E7.57573
G1 X132.62 Y83.787 E7.60098
G1 X133.215 Y84.782 E7.63954
G1 X143.589 Y102.752 E8.32967
G1 X144.01 Y103.516 E8.35868
G1 X144.19 Y103.861 E8.37162
G1 X144.721 Y105.052 E8.41499
G1 X144.881 Y105.48 E8.43019
G1 X145.185 Y106.426 E8.46324
G1 X145.255 Y106.685 E8.47216
G1 X145.482 Y107.731 E8.50776
G1 X145.519 Y107.956 E8.51535
G1 X145.629 Y108.875 E8.54613
G1 X145.645 Y109.086 E8.55317
G1 X145.674 Y110.006 E8.58379
G1 X145.658 Y110.494 E8.60003
G1 X145.632 Y110.947 E8.61512
G1 X145.473 Y112.266 E8.6593
G1 X145.398 Y112.672 E8.67304
G1 X145.191 Y113.569 E8.70365
G1 X145.027 Y114.107 E8.72236
G1 X144.919 Y114.43 E8.73369
G1 X144.419 Y115.662 E8.77791
G1 X144.231 Y116.053 E8.79234
G1 X143.937 Y116.621 E8.81361
G1 X143.484 Y117.431 E8.84448
G1 X133.077 Y135.456 E9.53675
G1 X132.604 Y136.24 E9.5672
G1 X132.422 Y136.526 E9.57847
G1 X131.726 Y137.495 E9.61816
G1 X131.428 Y137.864 E9.63393
G1 X130.698 Y138.678 E9.6703
G1 X130.525 Y138.852 E9.67846
G1 X129.553 Y139.716 E9.72171
G1 X129.381 Y139.851 E9.72899
G1 X128.831 Y140.255 E9.75168
G1 X128.57 Y140.434 E9.76221
G1 X127.765 Y140.935 E9.79375
G1 X127.578 Y141.04 E9.80088
G1 X126.871 Y141.403 E9.82731
G1 X126.676 Y141.494 E9.83447
G1 X125.51 Y141.956 E9.87618
G1 X125.164 Y142.07 E9.8883
G1 X123.895 Y142.402 E9.93193
G1 X123.504 Y142.479 E9.94518
G1 X122.594 Y142.618 E9.9758
G1 X122.117 Y142.658 E9.99172
G1 X121.765 Y142.68 E10.00345
G1 X121.271 Y142.7 E10.0199
G1 X120.279 Y142.714 E10.05289
G1 X99.506 Y142.713 E10.74381
G1 X98.953 Y142.705 E10.7622
G1 X98.622 Y142.695 E10.77321
G1 X98.163 Y142.674 E10.7885
G1 X96.891 Y142.539 E10.83104
G1 X96.498 Y142.473 E10.8443
G1 X95.498 Y142.255 E10.87834
G1 X95.186 Y142.171 E10.88908
G1 X94.095 Y141.812 E10.92728
G1 X93.887 Y141.731 E10.93471
G1 X93.216 Y141.443 E10.959
G1 X93.008 Y141.345 E10.96664
G1 X92.072 Y140.845 E11.00194
G1 X91.892 Y140.737 E11.00892
G1 X91.124 Y140.23 E11.03953
G1 X90.626 Y139.846 E11.06044
G1 X90.149 Y139.455 E11.08096
G1 X89.463 Y138.841 E11.11158
G1 X88.811 Y138.144 E11.14332
G1 X88.505 Y137.786 E11.15899
G1 X87.938 Y137.061 E11.1896
G1 X87.512 Y136.416 E11.21531
G1 X86.785 Y135.218 E11.26192
G1 X76.405 Y117.235 E11.95252
G1 X75.984 Y116.473 E11.98148
G1 X75.805 Y116.129 E11.99437
G1 X75.279 Y114.948 E12.03737
G1 X75.119 Y114.52 E12.05257
G1 X74.815 Y113.574 E12.08562
G1 X74.745 Y113.315 E12.09454
G1 X74.518 Y112.269 E12.13014
G1 X74.481 Y112.044 E12.13773
G1 X74.371 Y111.122 E12.16861
G1 X74.355 Y110.91 E12.17568
G1 X74.326 Y109.99 E12.2063
G1 X74.342 Y109.503 E12.2225
G1 X74.368 Y109.051 E12.23756
G1 X74.529 Y107.726 E12.28196
G1 X74.611 Y107.284 E12.29691
G1 X74.818 Y106.387 E12.32753
G1 X75.073 Y105.591 E12.35533
G1 X75.211 Y105.212 E12.36874
G1 X75.651 Y104.177 E12.40615
G1 X75.77 Y103.934 E12.41515
G1 X76.025 Y103.446 E12.43346
G1 X76.503 Y102.589 E12.4661
G1 X86.919 Y84.552 E13.15886
G1 X87.213 Y84.058 E13.17798
G1 X87.392 Y83.769 E13.18928
G1 X87.619 Y83.414 E13.2033
G1 X88.081 Y82.748 E13.23026
G1 X88.206 Y82.582 E13.23717
G1 X88.773 Y81.891 E13.2669
G1 X88.917 Y81.73 E13.27408
G1 X89.301 Y81.323 E13.29269
G1 X89.477 Y81.146 E13.301
G1 X90.445 Y80.285 E13.34408
G1 X90.613 Y80.153 E13.35119
G1 X91.175 Y79.741 E13.37437
G1 X91.438 Y79.561 E13.38497
G1 X92.235 Y79.065 E13.41619
G1 X92.422 Y78.96 E13.42332
G1 X93.129 Y78.597 E13.44976
G1 X93.324 Y78.506 E13.45691
G1 X94.49 Y78.044 E13.49863
G1 X94.836 Y77.93 E13.51074
G1 X95.995 Y77.62 E13.55065
G1 X96.197 Y77.578 E13.55751
G1 X97.295 Y77.409 E13.59446
G1 X97.882 Y77.35 E13.61408
G1 X98.788 Y77.298 E13.64427
G1 X99.63 Y77.287 E13.67227
G1 X120.498 Y77.288 E14.36635
G1 X121.691 Y77.316 E14.40604
G0 F6000 X121.707 Y76.916
G1 F1200 X122.444 Y76.971 E14.43062
G1 X122.759 Y77.005 E14.44115
G1 X123.687 Y77.145 E14.47237
G1 X124.579 Y77.358 E14.50287
G1 X125.14 Y77.517 E14.52226
G1 X126.03 Y77.811 E14.55344
G1 X126.64 Y78.063 E14.57539
G1 X126.979 Y78.215 E14.58775
G1 X127.937 Y78.701 E14.62348
G1 X128.112 Y78.801 E14.63018
G1 X128.881 Y79.284 E14.66038
G1 X129.047 Y79.398 E14.66708
G1 X129.862 Y80.016 E14.7011
G1 X130.036 Y80.161 E14.70863
G1 X130.57 Y80.636 E14.73241
G1 X130.73 Y80.788 E14.73975
G1 X131.434 Y81.522 E14.77357
G1 X131.65 Y81.769 E14.78449
G1 X132.378 Y82.697 E14.82372
G1 X132.535 Y82.921 E14.83281
G1 X132.963 Y83.581 E14.85898
G1 X133.561 Y84.582 E14.89776
G1 X143.938 Y102.558 E15.58811
G1 X144.364 Y103.331 E15.61747
G1 X144.544 Y103.676 E15.63041
G1 X145.096 Y104.912 E15.67543
G1 X145.256 Y105.34 E15.69063
G1 X145.571 Y106.322 E15.72493
G1 X145.641 Y106.581 E15.73385
G1 X145.876 Y107.666 E15.77078
G1 X145.913 Y107.891 E15.77836
G1 X146.028 Y108.844 E15.81029
G1 X146.044 Y109.055 E15.81733
G1 X146.074 Y109.993 E15.84854
G1 X146.057 Y110.517 E15.86598
G1 X146.031 Y110.97 E15.88107
G1 X145.866 Y112.338 E15.9269
G1 X145.791 Y112.744 E15.94063
G1 X145.581 Y113.658 E15.97182
G1 X145.406 Y114.234 E15.99185
G1 X145.298 Y114.557 E16.00317
G1 X144.78 Y115.836 E16.04907
G1 X144.592 Y116.227 E16.0635
G1 X144.286 Y116.815 E16.08555
G1 X143.83 Y117.631 E16.11664
G1 X133.42 Y135.661 E16.8091
G1 X132.941 Y136.455 E16.83994
G1 X132.759 Y136.741 E16.85121
G1 X132.037 Y137.746 E16.89237
G1 X131.739 Y138.115 E16.90815
G1 X130.982 Y138.96 E16.94588
G1 X130.809 Y139.134 E16.95404
G1 X129.8 Y140.031 E16.99894
G1 X129.628 Y140.166 E17.00622
G1 X129.057 Y140.585 E17.02977
G1 X128.796 Y140.764 E17.0403
G1 X127.961 Y141.283 E17.073
G1 X127.774 Y141.388 E17.08013
G1 X127.04 Y141.765 E17.10758
G1 X126.845 Y141.856 E17.11473
G1 X125.635 Y142.336 E17.15803
G1 X125.289 Y142.45 E17.17015
G1 X123.972 Y142.795 E17.21543
G1 X123.581 Y142.872 E17.22868
G1 X122.654 Y143.014 E17.25987
G1 X122.142 Y143.058 E17.27697
G1 X121.79 Y143.08 E17.2887
G1 X121.277 Y143.1 E17.30577
G1 X120.279 Y143.114 E17.33897
G1 X99.5 Y143.113 E18.03008
G1 X98.947 Y143.105 E18.04848
G1 X98.603 Y143.095 E18.05992
G1 X98.144 Y143.074 E18.0752
G1 X96.825 Y142.933 E18.11932
G1 X96.432 Y142.867 E18.13258
G1 X95.394 Y142.641 E18.16791
G1 X95.082 Y142.557 E18.17866
G1 X93.95 Y142.185 E18.21829
G1 X93.742 Y142.104 E18.22571
G1 X93.046 Y141.805 E18.25091
G1 X92.838 Y141.707 E18.25856
G1 X91.867 Y141.188 E18.29518
G1 X91.687 Y141.08 E18.30216
G1 X90.904 Y140.564 E18.33335
G1 X90.373 Y140.155 E18.35564
G1 X89.896 Y139.764 E18.37615
G1 X89.196 Y139.139 E18.40736
G1 X88.507 Y138.404 E18.44087
G1 X88.201 Y138.046 E18.45654
G1 X87.623 Y137.308 E18.48771
G1 X87.171 Y136.624 E18.51498
G1 X86.439 Y135.418 E18.56191
G1 X76.055 Y117.43 E19.25272
G1 X75.629 Y116.658 E19.28205
G1 X75.45 Y116.314 E19.29494
G1 X74.904 Y115.088 E19.33958
G1 X74.744 Y114.66 E19.35478
G1 X74.429 Y113.678 E19.38908
G1 X74.359 Y113.419 E19.398
G1 X74.124 Y112.334 E19.43493
G1 X74.087 Y112.109 E19.44251
G1 X73.972 Y111.152 E19.47457
G1 X73.956 Y110.94 E19.48164
G1 X73.926 Y110.002 E19.51286
G1 X73.943 Y109.48 E19.53023
G1 X73.969 Y109.028 E19.54529
G1 X74.136 Y107.654 E19.59132
G1 X74.218 Y107.212 E19.60627
G1 X74.428 Y106.298 E19.63747
G1 X74.697 Y105.454 E19.66693
G1 X74.835 Y105.075 E19.68034
G1 X75.292 Y104.001 E19.71916
G1 X75.411 Y103.758 E19.72816
G1 X75.676 Y103.252 E19.74716
G1 X76.157 Y102.389 E19.78002
G1 X86.575 Y84.347 E20.47296
G1 X86.869 Y83.853 E20.49208
G1 X87.055 Y83.553 E20.50382
G1 X87.282 Y83.198 E20.51783
G1 X87.762 Y82.507 E20.54582
G1 X87.887 Y82.341 E20.55273
G1 X88.475 Y81.625 E20.58354
G1 X88.619 Y81.464 E20.59073
G1 X89.018 Y81.041 E20.61007
G1 X89.194 Y80.864 E20.61837
G1 X90.198 Y79.97 E20.66308
G1 X90.366 Y79.838 E20.67019
G1 X90.949 Y79.41 E20.69425
G1 X91.212 Y79.23 E20.70485
G1 X92.039 Y78.717 E20.73721
G1 X92.226 Y78.612 E20.74435
G1 X92.96 Y78.235 E20.77179
G1 X93.155 Y78.144 E20.77895
G1 X94.365 Y77.664 E20.82224
G1 X94.711 Y77.55 E20.83436
G1 X95.914 Y77.228 E20.87578
G1 X96.116 Y77.186 E20.88264
G1 X97.255 Y77.011 E20.92097
G1 X97.842 Y76.952 E20.94059
G1 X98.782 Y76.898 E20.97191
G1 X99.63 Y76.887 E21.00012
G1 X120.504 Y76.888 E21.69439
G1 X121.707 Y76.916 E21.73441
G1 F2700 E16.73441
;MESH:bottom.stl
G0 F6000 X123.935 Y88.634
G0 X123.592 Y89.356
G0 X134.527 Y108.554
G0 X134.689 Y111.001
;TYPE:WALL-OUTER
G1 F2700 E21.73441
G1 F1200 X134.689 Y109.003 E21.80087
G1 X134.794 Y109.302 E21.81141
G1 X134.864 Y109.642 E21.82295
G1 X134.872 Y109.714 E21.82536
G1 X134.889 Y110.004 E21.83502
G1 X134.886 Y110.078 E21.83749
G1 X134.865 Y110.349 E21.84653
G1 X134.792 Y110.704 E21.85858
G1 X134.773 Y110.764 E21.86067
G1 X134.689 Y111.001 E21.86904
G1 F2700 E16.86904
G0 F6000 X134.527 Y108.554
G0 X123.517 Y89.483
G0 X123.214 Y89.122
G1 F2700 E21.86904
G1 F1200 X121.474 Y88.117 E21.93587
G1 X121.784 Y88.178 E21.94638
G1 X122.124 Y88.289 E21.95827
G1 X122.376 Y88.408 E21.96754
G1 X122.505 Y88.484 E21.97252
G1 X122.683 Y88.602 E21.97963
G1 X122.788 Y88.684 E21.98406
G1 X123.007 Y88.885 E21.99394
G1 X123.214 Y89.122 E22.00441
G1 F2700 E17.00441
G0 F6000 X121.009 Y88.036
G0 X98.991 Y88.036
G0 X96.789 Y89.12
G1 F2700 E22.00441
G1 F1200 X96.996 Y88.882 E22.0149
G1 X97.041 Y88.838 E22.01699
G1 X97.202 Y88.691 E22.02424
G1 X97.328 Y88.596 E22.02949
G1 X97.562 Y88.441 E22.03883
G1 X97.805 Y88.319 E22.04787
G1 X97.866 Y88.294 E22.05007
G1 X98.214 Y88.179 E22.06226
G1 X98.512 Y88.125 E22.07233
G1 X96.789 Y89.12 E22.1385
G1 F2700 E17.1385
G0 F6000 X96.483 Y89.483
G0 X85.474 Y108.555
G0 X85.311 Y110.998
G1 F2700 E22.1385
G1 F1200 X85.191 Y110.637 E22.15116
G1 X85.136 Y110.354 E22.16075
G1 X85.127 Y110.275 E22.16339
G1 X85.111 Y109.993 E22.17279
G1 X85.114 Y109.922 E22.17515
G1 X85.135 Y109.651 E22.18419
G1 X85.208 Y109.296 E22.19624
G1 X85.227 Y109.236 E22.19834
G1 X85.312 Y109.006 E22.20649
G1 X85.311 Y110.998 E22.27275
G1 F2700 E17.27275
G0 F6000 X85.473 Y111.446
G0 X96.484 Y130.516
G0 X98.519 Y131.879
G1 F2700 E22.27275
G1 F1200 X98.206 Y131.82 E22.28334
G1 X98.148 Y131.803 E22.28535
G1 X97.877 Y131.711 E22.29487
G1 X97.802 Y131.678 E22.29759
G1 X97.628 Y131.595 E22.30401
G1 X97.494 Y131.516 E22.30918
G1 X97.268 Y131.361 E22.3183
G1 X96.99 Y131.114 E22.33066
G1 X96.949 Y131.07 E22.33266
G1 X96.793 Y130.881 E22.34082
G1 X98.519 Y131.879 E22.40713
G1 F2700 E17.40713
G0 F6000 X98.991 Y131.964
G0 X121.009 Y131.964
G0 X121.478 Y131.881
G1 F2700 E22.40713
G1 F1200 X123.211 Y130.88 E22.47369
G1 X123.004 Y131.118 E22.48418
G1 X122.959 Y131.162 E22.48628
G1 X122.798 Y131.309 E22.49353
G1 X122.672 Y131.404 E22.49878
G1 X122.438 Y131.559 E22.50811
