;FLAVOR:Marlin
;TIME:254
;Filament used: 0.120737m
;Layer height: 0.2
;MINX:95
;MINY:89
;MINZ:0.2
;MAXX:125
;MAXY:131
;MAXZ:3
;Generated with Cura_SteamEngine 4.6.1
M140 S70
M105
M190 S70
M104 S215
M105
M109 S215
M82 ;absolute extrusion mode
M201 X500.00 Y500.00 Z100.00 E5000.00 ;Setup machine max acceleration
M203 X500.00 Y500.00 Z10.00 E50.00 ;Setup machine max feedrate
M204 P500.00 R1000.00 T500.00 ;Setup Print/Retract/Travel acceleration
M205 X8.00 Y8.00 Z0.40 E5.00 ;Setup Jerk
M220 S100 ;Reset Feedrate
M221 S100 ;Reset Flowrate

G28 ;Home

G92 E0 ;Reset Extruder
G1 Z2.0 F3000 ;Move Z Axis up
G1 X10.1 Y20 Z0.28 F5000.0 ;Move to start position
G1 X10.1 Y200.0 Z0.28 F1500.0 E15 ;Draw the first line
G1 X10.4 Y200.0 Z0.28 F5000.0 ;Move to side a little
G1 X10.4 Y20 Z0.28 F1500.0 E30 ;Draw the second line
G92 E0 ;Reset Extruder
G1 Z2.0 F3000 ;Move Z Axis up

G92 E0
G92 E0
G1 F2700 E-5
;LAYER_COUNT:15
;LAYER:0
M107
G0 F6000 X114.137 Y89.811 Z0.2
;TYPE:SKIRT
G1 F2700 E0
G1 F1200 X115.039 Y89.864 E0.03005
G1 X115.932 Y89.996 E0.06008
G1 X116.81 Y90.207 E0.09011
G1 X117.666 Y90.495 E0.12015
G1 X118.493 Y90.857 E0.15018
G1 X119.285 Y91.292 E0.18023
G1 X120.036 Y91.794 E0.21027
G1 X120.739 Y92.361 E0.24031
G1 X121.389 Y92.988 E0.27035
G1 X121.981 Y93.67 E0.30039
G1 X122.511 Y94.401 E0.33042
G1 X122.973 Y95.177 E0.36046
G1 X123.366 Y95.99 E0.39049
G1 X123.684 Y96.835 E0.42052
G1 X123.927 Y97.705 E0.45056
G1 X124.092 Y98.593 E0.4806
G1 X124.187 Y99.723 E0.51832
G1 X124.2 Y100.33 E0.53851
G1 X124.199 Y119.39 E1.17245
G1 X124.19 Y120.117 E1.19663
G1 X124.139 Y121.019 E1.22668
G1 X124.008 Y121.913 E1.25674
G1 X123.799 Y122.791 E1.28675
G1 X123.513 Y123.648 E1.3168
G1 X123.152 Y124.476 E1.34685
G1 X122.72 Y125.268 E1.37685
G1 X122.219 Y126.02 E1.40691
G1 X121.653 Y126.724 E1.43695
G1 X121.028 Y127.375 E1.46697
G1 X120.347 Y127.969 E1.49702
G1 X119.616 Y128.5 E1.52707
G1 X118.842 Y128.964 E1.55709
G1 X118.029 Y129.358 E1.58714
G1 X117.185 Y129.678 E1.61716
G1 X116.315 Y129.923 E1.64722
G1 X115.428 Y130.089 E1.67723
G1 X114.277 Y130.187 E1.71565
G1 X113.67 Y130.2 E1.73585
G1 X106.575 Y130.199 E1.97183
G1 X105.877 Y130.19 E1.99505
G1 X104.976 Y130.139 E2.02506
G1 X104.082 Y130.007 E2.05512
G1 X103.204 Y129.798 E2.08514
G1 X102.347 Y129.511 E2.1152
G1 X101.52 Y129.15 E2.14521
G1 X100.727 Y128.717 E2.17526
G1 X99.976 Y128.216 E2.20529
G1 X99.272 Y127.65 E2.23533
G1 X98.621 Y127.024 E2.26537
G1 X98.028 Y126.343 E2.2954
G1 X97.498 Y125.612 E2.32543
G1 X97.034 Y124.837 E2.35548
G1 X96.64 Y124.024 E2.38553
G1 X96.32 Y123.18 E2.41555
G1 X96.076 Y122.31 E2.4456
G1 X95.91 Y121.422 E2.47565
G1 X95.813 Y120.267 E2.5142
G1 X95.8 Y119.658 E2.53446
G1 X95.801 Y117.591 E2.60321
G1 X95.808 Y117.111 E2.61917
G1 X95.801 Y111.561 E2.80377
G1 X95.811 Y110.864 E2.82695
G1 X95.891 Y109.726 E2.8649
G1 X96.031 Y108.629 E2.90168
G1 X96.146 Y107.82 E2.92886
G1 X96.429 Y105.338 E3.01194
G1 X96.643 Y102.823 E3.09589
G1 X96.793 Y100.173 E3.18417
G1 X96.819 Y99.572 E3.20418
G1 X96.898 Y98.673 E3.2342
G1 X97.056 Y97.784 E3.26423
G1 X97.292 Y96.912 E3.29428
G1 X97.604 Y96.064 E3.32433
G1 X97.989 Y95.248 E3.35434
G1 X98.446 Y94.469 E3.38438
G1 X98.97 Y93.733 E3.41443
G1 X99.556 Y93.046 E3.44446
G1 X100.201 Y92.414 E3.4745
G1 X100.9 Y91.842 E3.50454
G1 X101.646 Y91.333 E3.53457
G1 X102.435 Y90.893 E3.56462
G1 X103.259 Y90.524 E3.59465
G1 X104.113 Y90.229 E3.6247
G1 X104.989 Y90.011 E3.65472
G1 X105.881 Y89.872 E3.68475
G1 X106.723 Y89.813 E3.71282
G1 X107.33 Y89.8 E3.73302
G1 X113.439 Y89.801 E3.9362
G1 X114.137 Y89.811 E3.95942
G0 F6000 X114.143 Y89.411
G1 F1200 X115.062 Y89.464 E3.99004
G1 X115.973 Y89.597 E4.02066
G1 X116.869 Y89.808 E4.05128
G1 X117.743 Y90.096 E4.08188
G1 X118.59 Y90.459 E4.11253
G1 X119.401 Y90.894 E4.14314
G1 X120.171 Y91.398 E4.17375
G1 X120.895 Y91.967 E4.20438
G1 X121.567 Y92.597 E4.23501
G1 X122.182 Y93.282 E4.26563
G1 X122.735 Y94.018 E4.29625
G1 X123.222 Y94.799 E4.32687
G1 X123.639 Y95.62 E4.35749
G1 X123.984 Y96.474 E4.38813
G1 X124.253 Y97.354 E4.41873
G1 X124.445 Y98.255 E4.44937
G1 X124.558 Y99.168 E4.47997
G1 X124.587 Y99.712 E4.49809
G1 X124.6 Y100.33 E4.51865
G1 X124.599 Y119.395 E5.15275
G1 X124.59 Y120.122 E5.17694
G1 X124.539 Y121.041 E5.20755
G1 X124.408 Y121.953 E5.23819
G1 X124.198 Y122.849 E5.2688
G1 X123.912 Y123.724 E5.29942
G1 X123.551 Y124.571 E5.33004
G1 X123.117 Y125.383 E5.36067
G1 X122.615 Y126.155 E5.39129
G1 X122.047 Y126.88 E5.42193
G1 X121.419 Y127.553 E5.45254
G1 X120.735 Y128.169 E5.48316
G1 X120 Y128.723 E5.51377
G1 X119.22 Y129.212 E5.54439
G1 X118.4 Y129.631 E5.57502
G1 X117.547 Y129.977 E5.60563
G1 X116.667 Y130.248 E5.63626
G1 X115.767 Y130.441 E5.66687
G1 X114.853 Y130.556 E5.69751
G1 X114.288 Y130.587 E5.71633
G1 X113.67 Y130.6 E5.73689
G1 X106.57 Y130.599 E5.97304
G1 X105.872 Y130.59 E5.99626
G1 X104.953 Y130.538 E6.02687
G1 X104.042 Y130.407 E6.05748
G1 X103.146 Y130.197 E6.08809
G1 X102.271 Y129.91 E6.11872
G1 X101.424 Y129.548 E6.14936
G1 X100.612 Y129.114 E6.17998
G1 X99.841 Y128.612 E6.21058
G1 X99.116 Y128.044 E6.24121
G1 X98.443 Y127.415 E6.27185
G1 X97.828 Y126.731 E6.30245
G1 X97.274 Y125.996 E6.33306
G1 X96.786 Y125.215 E6.36369
G1 X96.367 Y124.395 E6.39432
G1 X96.021 Y123.542 E6.42493
G1 X95.751 Y122.662 E6.45555
G1 X95.558 Y121.761 E6.48619
G1 X95.444 Y120.848 E6.5168
G1 X95.413 Y120.277 E6.53582
G1 X95.4 Y119.658 E6.55641
G1 X95.401 Y117.585 E6.62536
G1 X95.408 Y117.106 E6.64129
G1 X95.401 Y111.555 E6.82592
G1 X95.411 Y110.858 E6.8491
G1 X95.494 Y109.676 E6.88851
G1 X95.635 Y108.573 E6.9255
G1 X95.746 Y107.791 E6.95177
G1 X96.03 Y105.295 E7.03532
G1 X96.246 Y102.765 E7.11977
G1 X96.395 Y100.135 E7.20739
G1 X96.42 Y99.555 E7.2267
G1 X96.499 Y98.638 E7.25731
G1 X96.658 Y97.731 E7.28794
G1 X96.894 Y96.842 E7.31853
G1 X97.207 Y95.976 E7.34916
G1 X97.594 Y95.14 E7.3798
G1 X98.052 Y94.342 E7.4104
G1 X98.578 Y93.586 E7.44103
G1 X99.167 Y92.878 E7.47166
G1 X99.815 Y92.225 E7.50226
G1 X100.518 Y91.63 E7.53289
G1 X101.269 Y91.098 E7.5635
G1 X102.064 Y90.633 E7.59414
G1 X102.897 Y90.24 E7.62477
G1 X103.76 Y89.92 E7.65538
G1 X104.647 Y89.676 E7.68598
G1 X105.553 Y89.51 E7.71662
G1 X106.712 Y89.413 E7.7553
G1 X107.33 Y89.4 E7.77586
G1 X113.445 Y89.401 E7.97924
G1 X114.143 Y89.411 E8.00246
G0 F6000 X114.149 Y89.011
G1 F1200 X115.085 Y89.065 E8.03365
G1 X116.013 Y89.197 E8.06482
G1 X116.927 Y89.409 E8.09603
G1 X117.819 Y89.698 E8.12722
G1 X118.684 Y90.061 E8.15842
G1 X119.514 Y90.497 E8.1896
G1 X120.305 Y91.002 E8.22081
G1 X121.049 Y91.573 E8.25201
G1 X121.742 Y92.205 E8.2832
G1 X122.379 Y92.893 E8.31439
G1 X122.954 Y93.634 E8.34558
G1 X123.465 Y94.42 E8.37676
G1 X123.907 Y95.248 E8.40798
G1 X124.276 Y96.11 E8.43917
G1 X124.571 Y97 E8.47035
G1 X124.789 Y97.912 E8.50154
G1 X124.929 Y98.84 E8.53275
G1 X124.987 Y99.701 E8.56146
G1 X125 Y100.33 E8.58238
G1 X124.999 Y119.4 E9.21665
G1 X124.99 Y120.127 E9.24083
G1 X124.939 Y121.064 E9.27205
G1 X124.807 Y121.992 E9.30322
G1 X124.598 Y122.906 E9.33441
G1 X124.311 Y123.799 E9.3656
G1 X123.949 Y124.665 E9.39682
G1 X123.515 Y125.496 E9.428
G1 X123.011 Y126.287 E9.4592
G1 X122.442 Y127.032 E9.49038
G1 X121.811 Y127.727 E9.5216
G1 X121.124 Y128.365 E9.55278
G1 X120.385 Y128.942 E9.58397
G1 X119.599 Y129.454 E9.61517
G1 X118.773 Y129.897 E9.64634
G1 X117.911 Y130.269 E9.67757
G1 X117.022 Y130.565 E9.70873
G1 X116.11 Y130.785 E9.73993
G1 X115.183 Y130.926 E9.77112
G1 X114.299 Y130.987 E9.80059
G1 X113.67 Y131 E9.82152
G1 X106.565 Y130.999 E10.05783
G1 X105.867 Y130.99 E10.08105
G1 X104.931 Y130.938 E10.11223
G1 X104.002 Y130.806 E10.14344
G1 X103.088 Y130.596 E10.17463
G1 X102.195 Y130.309 E10.20583
G1 X101.33 Y129.946 E10.23703
G1 X100.499 Y129.512 E10.26821
G1 X99.708 Y129.008 E10.2994
G1 X98.963 Y128.438 E10.3306
G1 X98.269 Y127.807 E10.3618
G1 X97.632 Y127.12 E10.39296
G1 X97.055 Y126.38 E10.42417
G1 X96.543 Y125.594 E10.45537
G1 X96.1 Y124.767 E10.48658
G1 X95.729 Y123.906 E10.51776
G1 X95.433 Y123.016 E10.54895
G1 X95.214 Y122.104 E10.58015
G1 X95.073 Y121.177 E10.61134
G1 X95.013 Y120.288 E10.64097
G1 X95 Y119.658 E10.66193
G1 X95.001 Y117.579 E10.73108
G1 X95.008 Y117.1 E10.74701
G1 X95.001 Y111.549 E10.93164
G1 X95.011 Y110.852 E10.95482
G1 X95.097 Y109.626 E10.9957
G1 X95.239 Y108.517 E11.03289
G1 X95.351 Y107.73 E11.05933
G1 X95.633 Y105.248 E11.14241
G1 X95.847 Y102.744 E11.226
G1 X95.993 Y100.165 E11.31191
G1 X96.02 Y99.538 E11.33278
G1 X96.1 Y98.604 E11.36396
G1 X96.259 Y97.68 E11.39515
G1 X96.497 Y96.772 E11.42637
G1 X96.811 Y95.888 E11.45757
G1 X97.199 Y95.035 E11.48874
G1 X97.658 Y94.217 E11.51993
G1 X98.186 Y93.441 E11.55115
G1 X98.777 Y92.714 E11.58231
G1 X99.429 Y92.039 E11.61353
G1 X100.135 Y91.422 E11.64471
G1 X100.892 Y90.868 E11.67591
G1 X101.692 Y90.38 E11.70708
G1 X102.532 Y89.962 E11.73829
G1 X103.404 Y89.617 E11.76948
G1 X104.303 Y89.347 E11.8007
G1 X105.221 Y89.156 E11.83189
G1 X106.152 Y89.043 E11.86308
G1 X106.701 Y89.013 E11.88136
G1 X107.33 Y89 E11.90229
G1 X113.451 Y89.001 E12.10588
G1 X114.149 Y89.011 E12.12909
G1 F2700 E7.12909
;MESH:E.stl
G0 F6000 X113.586 Y99.335
G0 X113.586 Y100.414
G0 X107.782 Y100.782
G0 X107.782 Y102.218
G0 X111.782 Y102.218
G0 X111.428 Y111.428
G0 X106.782 Y111.782
G0 X106.782 Y113.218
G0 X111.428 Y113.572
G0 X111.428 Y117.428
G0 X106.782 Y117.782
G0 X106.6 Y119.4
;TYPE:WALL-INNER
G1 F2700 E12.12909
G1 F1200 X106.6 Y117.6 E12.18896
G1 X111.6 Y117.6 E12.35526
G1 X111.6 Y113.4 E12.49495
G1 X106.6 Y113.4 E12.66126
G1 X106.6 Y111.6 E12.72112
G1 X111.6 Y111.6 E12.88742
G1 X111.6 Y102.4 E13.19342
G1 X107.6 Y102.4 E13.32646
G1 X107.6 Y100.6 E13.38633
G1 X113.4 Y100.6 E13.57924
G1 X113.4 Y119.4 E14.20453
G1 X106.6 Y119.4 E14.43069
G0 F6000 X106.2 Y119.8
;TYPE:WALL-OUTER
G1 F1200 X106.2 Y117.2 E14.51717
G1 X111.2 Y117.2 E14.68347
G1 X111.2 Y113.8 E14.79656
G1 X106.2 Y113.8 E14.96286
G1 X106.2 Y111.2 E15.04933
G1 X111.2 Y111.2 E15.21563
G1 X111.2 Y102.8 E15.49502
G1 X107.2 Y102.8 E15.62806
G1 X107.2 Y100.2 E15.71454
G1 X113.8 Y100.2 E15.93405
G1 X113.8 Y119.8 E16.58595
G1 X106.2 Y119.8 E16.83873
G0 F6000 X106.47 Y119.53
G0 X106.71 Y119.01
G0 X106.99 Y119.01
;TYPE:SKIN
G1 F1200 X106.99 Y117.99 E16.87265
G1 X111.99 Y117.99 E17.03895
G1 X111.99 Y113.01 E17.20459
G1 X106.99 Y113.01 E17.37089
G1 X106.99 Y111.99 E17.40482
G1 X111.99 Y111.99 E17.57112
G1 X111.99 Y102.01 E17.90305
G1 X107.99 Y102.01 E18.03609
G1 X107.99 Y100.99 E18.07002
G1 X113.01 Y100.99 E18.23698
G1 X113.01 Y119.01 E18.83633
G1 X106.99 Y119.01 E19.03656
G0 F6000 X107.535 Y118.849
G1 F1200 X107.15 Y118.463 E19.05469
G0 F6000 X107.401 Y118.149
G1 F1200 X108.101 Y118.849 E19.08762
G0 F6000 X108.666 Y118.849
G1 F1200 X107.967 Y118.149 E19.12052
G0 F6000 X108.533 Y118.149
G1 F1200 X109.232 Y118.849 E19.15342
G0 F6000 X109.798 Y118.849
G1 F1200 X109.098 Y118.149 E19.18635
G0 F6000 X109.664 Y118.149
G1 F1200 X110.363 Y118.849 E19.21925
G0 F6000 X110.929 Y118.849
G1 F1200 X110.23 Y118.149 E19.25215
G0 F6000 X110.795 Y118.149
G1 F1200 X111.495 Y118.849 E19.28508
G0 F6000 X112.06 Y118.849
G1 F1200 X111.361 Y118.149 E19.31798
G0 F6000 X111.927 Y118.149
G1 F1200 X112.626 Y118.849 E19.35088
G0 F6000 X112.849 Y118.506
G1 F1200 X112.149 Y117.806 E19.38381
G0 F6000 X112.149 Y117.241
G1 F1200 X112.849 Y117.941 E19.41673
G0 F6000 X112.849 Y117.375
G1 F1200 X112.149 Y116.675 E19.44966
G0 F6000 X112.149 Y116.109
G1 F1200 X112.849 Y116.809 E19.48259
G0 F6000 X112.849 Y116.244
G1 F1200 X112.149 Y115.544 E19.51551
G0 F6000 X112.149 Y114.978
G1 F1200 X112.849 Y115.678 E19.54844
G0 F6000 X112.849 Y115.112
G1 F1200 X112.149 Y114.412 E19.58136
G0 F6000 X112.149 Y113.847
G1 F1200 X112.849 Y114.547 E19.61429
G0 F6000 X112.849 Y113.981
G1 F1200 X112.149 Y113.281 E19.64722
G0 F6000 X111.717 Y112.849
G1 F1200 X111.018 Y112.149 E19.68012
G0 F6000 X110.452 Y112.149
G1 F1200 X111.152 Y112.849 E19.71304
G0 F6000 X110.586 Y112.849
G1 F1200 X109.887 Y112.149 E19.74595
G0 F6000 X109.321 Y112.149
G1 F1200 X110.02 Y112.849 E19.77885
G0 F6000 X109.455 Y112.849
G1 F1200 X108.755 Y112.149 E19.81177
G0 F6000 X108.19 Y112.149
G1 F1200 X108.889 Y112.849 E19.84468
G0 F6000 X108.323 Y112.849
G1 F1200 X107.624 Y112.149 E19.87758
G0 F6000 X107.15 Y112.241
G1 F1200 X107.758 Y112.849 E19.90618
G0 F6000 X107.758 Y113.29
G0 X106.782 Y113.218
G0 X106.782 Y111.782
G0 X111.584 Y111.71
G0 X111.584 Y112.149
G1 F1200 X112.849 Y113.415 E19.9657
G0 F6000 X112.849 Y112.849
G1 F1200 X112.149 Y112.149 E19.99863
G0 F6000 X112.149 Y111.583
G1 F1200 X112.849 Y112.284 E20.03158
G0 F6000 X112.849 Y111.718
G1 F1200 X112.149 Y111.017 E20.06453
G0 F6000 X112.149 Y110.452
G1 F1200 X112.849 Y111.152 E20.09745
G0 F6000 X112.849 Y110.587
G1 F1200 X112.149 Y109.886 E20.1304
G0 F6000 X112.149 Y109.32
G1 F1200 X112.849 Y110.021 E20.16335
G0 F6000 X112.849 Y109.455
G1 F1200 X112.149 Y108.755 E20.19628
G0 F6000 X112.149 Y108.189
G1 F1200 X112.849 Y108.89 E20.22923
G0 F6000 X112.849 Y108.324
G1 F1200 X112.149 Y107.623 E20.26218
G0 F6000 X112.149 Y107.058
G1 F1200 X112.849 Y107.758 E20.2951
G0 F6000 X112.849 Y107.193
G1 F1200 X112.149 Y106.492 E20.32805
G0 F6000 X112.149 Y105.926
G1 F1200 X112.849 Y106.627 E20.361
G0 F6000 X112.849 Y106.061
G1 F1200 X112.149 Y105.361 E20.39393
G0 F6000 X112.149 Y104.795
G1 F1200 X112.849 Y105.496 E20.42688
G0 F6000 X112.849 Y104.93
G1 F1200 X112.149 Y104.229 E20.45983
G0 F6000 X112.149 Y103.663
G1 F1200 X112.849 Y104.364 E20.49277
G0 F6000 X112.849 Y103.799
G1 F1200 X112.149 Y103.098 E20.52572
G0 F6000 X112.149 Y102.532
G1 F1200 X112.849 Y103.233 E20.55867
G0 F6000 X112.849 Y102.667
G1 F1200 X112.149 Y101.966 E20.59162
G0 F6000 X112.031 Y101.849
G1 F1200 X111.332 Y101.15 E20.6245
G0 F6000 X110.766 Y101.15
G1 F1200 X111.466 Y101.849 E20.6574
G0 F6000 X110.9 Y101.849
G1 F1200 X110.201 Y101.15 E20.69028
G0 F6000 X109.635 Y101.15
G1 F1200 X110.334 Y101.849 E20.72316
G0 F6000 X109.769 Y101.849
G1 F1200 X109.069 Y101.15 E20.75606
G0 F6000 X108.504 Y101.15
G1 F1200 X109.203 Y101.849 E20.78894
G0 F6000 X108.637 Y101.849
G1 F1200 X108.149 Y101.36 E20.81192
G0 F6000 X107.71 Y101.36
G0 X107.782 Y100.782
G0 X111.898 Y100.71
G0 X111.898 Y101.15
G1 F1200 X112.849 Y102.101 E20.85665
G0 F6000 X112.849 Y101.536
G1 F1200 X112.463 Y101.15 E20.87481
G0 F6000 X112.463 Y100.8
G1 F2700 E15.87481
;MESH:NONMESH
G0 F300 X112.463 Y100.8 Z0.4
G0 F6000 X112.463 Y100.71
G0 X107.782 Y100.782
G0 X107.782 Y102.218
G0 X111.782 Y102.218
G0 X111.428 Y111.428
G0 X106.782 Y111.782
G0 X106.782 Y113.218
G0 X111.428 Y113.572
G0 X111.428 Y117.428
G0 X106.782 Y117.782
G0 X106.6 Y119.4
;TIME_ELAPSED:45.027512
;LAYER:1
M140 S70
M106 S85
;TYPE:WALL-INNER
;MESH:E.stl
G1 F2700 E20.87481
G1 F1672.6 X106.6 Y117.6 E20.93468
G1 X111.6 Y117.6 E21.10098
G1 X111.6 Y113.4 E21.24067
G1 X106.6 Y113.4 E21.40697
G1 X106.6 Y111.6 E21.46684
G1 X111.6 Y111.6 E21.63314
G1 X111.6 Y102.4 E21.93913
G1 X107.6 Y102.4 E22.07217
G1 X107.6 Y100.6 E22.13204
G1 X113.4 Y100.6 E22.32495
G1 X113.4 Y119.4 E22.95024
G1 X106.6 Y119.4 E23.17641
G0 F9000 X106.2 Y119.8
;TYPE:WALL-OUTER
G1 F1672.6 X106.2 Y117.2 E23.26289
G1 X111.2 Y117.2 E23.42919
G1 X111.2 Y113.8 E23.54227
G1 X106.2 Y113.8 E23.70857
G1 X106.2 Y111.2 E23.79505
G1 X111.2 Y111.2 E23.96135
G1 X111.2 Y102.8 E24.24073
G1 X107.2 Y102.8 E24.37377
G1 X107.2 Y100.2 E24.46025
G1 X113.8 Y100.2 E24.67977
G1 X113.8 Y119.8 E25.33167
G1 X106.2 Y119.8 E25.58444
G0 F9000 X106.47 Y119.53
G0 X106.71 Y119.01
G0 X106.99 Y119.01
;TYPE:SKIN
G1 F1672.6 X106.99 Y117.99 E25.61837
G1 X111.99 Y117.99 E25.78467
G1 X111.99 Y113.01 E25.95031
G1 X106.99 Y113.01 E26.11661
G1 X106.99 Y111.99 E26.15053
G1 X111.99 Y111.99 E26.31683
G1 X111.99 Y102.01 E26.64877
G1 X107.99 Y102.01 E26.78181
G1 X107.99 Y100.99 E26.81573
G1 X113.01 Y100.99 E26.9827
G1 X113.01 Y119.01 E27.58205
G1 X106.99 Y119.01 E27.78227
G0 F9000 X106.71 Y119.01
G0 X106.782 Y119.218
G0 X113.218 Y119.218
G0 X113.29 Y118.516
G0 X112.849 Y118.516
G1 F1672.6 X112.515 Y118.849 E27.79796
G0 F9000 X111.949 Y118.849
G1 F1672.6 X112.849 Y117.95 E27.84027
G0 F9000 X112.849 Y117.384
G1 F1672.6 X112.15 Y118.083 E27.87315
G0 F9000 X112.084 Y118.149
