;FLAVOR:Marlin
;TIME:1775
;Filament used: 1.26381m
;Layer height: 0.2
;MINX:85.155
;MINY:87
;MINZ:0.2
;MAXX:134.844
;MAXY:133
;MAXZ:20
;Generated with Cura_SteamEngine 4.6.1
M140 S50
M105
M190 S50
M104 S200
M105
M109 S200
M82 ;absolute extrusion mode
M201 X500.00 Y500.00 Z100.00 E5000.00 ;Setup machine max acceleration
M203 X500.00 Y500.00 Z10.00 E50.00 ;Setup machine max feedrate
M204 P500.00 R1000.00 T500.00 ;Setup Print/Retract/Travel acceleration
M205 X8.00 Y8.00 Z0.40 E5.00 ;Setup Jerk
M220 S100 ;Reset Feedrate
M221 S100 ;Reset Flowrate

G28 ;Home

G92 E0 ;Reset Extruder
G1 Z2.0 F3000 ;Move Z Axis up
G1 X10.1 Y20 Z0.28 F5000.0 ;Move to start position
G1 X10.1 Y200.0 Z0.28 F1500.0 E15 ;Draw the first line
G1 X10.4 Y200.0 Z0.28 F5000.0 ;Move to side a little
G1 X10.4 Y20 Z0.28 F1500.0 E30 ;Draw the second line
G92 E0 ;Reset Extruder
G1 Z2.0 F3000 ;Move Z Axis up

G92 E0
G92 E0
G1 F2700 E-5
;LAYER_COUNT:100
;LAYER:0
M107
G0 F6000 X117.067 Y87.811 Z0.2
;TYPE:SKIRT
G1 F2700 E0
G1 F1200 X117.968 Y87.864 E0.03002
G1 X118.862 Y87.996 E0.06008
G1 X119.74 Y88.207 E0.09011
G1 X120.596 Y88.495 E0.12015
G1 X121.423 Y88.857 E0.15017
G1 X122.215 Y89.291 E0.18021
G1 X122.965 Y89.794 E0.21025
G1 X123.668 Y90.361 E0.24029
G1 X124.319 Y90.987 E0.27033
G1 X124.911 Y91.669 E0.30036
G1 X125.679 Y92.781 E0.34531
G1 X126.124 Y93.528 E0.37423
G1 X132.446 Y104.48 E0.79483
G1 X132.74 Y105.004 E0.81481
G1 X133.146 Y105.81 E0.84483
G1 X133.48 Y106.65 E0.8749
G1 X133.738 Y107.515 E0.90492
G1 X133.919 Y108.4 E0.93496
G1 X134.02 Y109.297 E0.96499
G1 X134.042 Y110.2 E0.99503
G1 X133.984 Y111.101 E1.02506
G1 X133.846 Y111.994 E1.05511
G1 X133.63 Y112.871 E1.08515
G1 X133.337 Y113.725 E1.11518
G1 X132.763 Y114.944 E1.16
G1 X132.324 Y115.733 E1.19003
G1 X126.042 Y126.613 E1.60789
G1 X125.696 Y127.196 E1.63044
G1 X125.201 Y127.951 E1.66046
G1 X124.641 Y128.66 E1.69051
G1 X124.021 Y129.316 E1.72053
G1 X123.345 Y129.915 E1.75057
G1 X122.619 Y130.452 E1.78061
G1 X121.848 Y130.923 E1.81066
G1 X121.038 Y131.323 E1.84071
G1 X120.197 Y131.651 E1.87073
G1 X119.329 Y131.902 E1.90078
G1 X118.443 Y132.076 E1.93081
G1 X117.545 Y132.171 E1.96085
G1 X117.072 Y132.189 E1.97659
G1 X116.237 Y132.2 E2.00437
G1 X108.216 Y132.199 E2.27115
G1 X107.505 Y132.189 E2.2948
G1 X106.926 Y132.164 E2.31407
G1 X106.029 Y132.1 E2.34398
G1 X103.202 Y131.941 E2.43816
G1 X102.51 Y131.912 E2.46119
G1 X101.611 Y131.835 E2.4912
G1 X100.721 Y131.678 E2.52126
G1 X99.849 Y131.443 E2.5513
G1 X99.001 Y131.132 E2.58134
G1 X98.184 Y130.748 E2.61137
G1 X97.404 Y130.292 E2.64142
G1 X96.668 Y129.769 E2.67145
G1 X95.981 Y129.184 E2.70146
G1 X95.348 Y128.539 E2.73152
G1 X94.774 Y127.842 E2.76155
G1 X94.211 Y127.007 E2.79504
G1 X93.614 Y126.019 E2.83344
G1 X87.578 Y115.561 E3.23505
G1 X87.252 Y114.978 E3.25727
G1 X86.847 Y114.171 E3.2873
G1 X86.514 Y113.332 E3.31732
G1 X86.258 Y112.466 E3.34736
G1 X86.078 Y111.581 E3.3774
G1 X85.978 Y110.683 E3.40745
G1 X85.957 Y109.78 E3.43749
G1 X86.017 Y108.879 E3.46752
G1 X86.156 Y107.987 E3.49755
G1 X86.373 Y107.11 E3.5276
G1 X86.667 Y106.256 E3.55764
G1 X87.237 Y105.049 E3.60203
G1 X87.634 Y104.338 E3.62912
G1 X93.826 Y93.615 E4.04096
G1 X94.165 Y93.048 E4.06293
G1 X94.663 Y92.294 E4.09299
G1 X95.225 Y91.587 E4.12302
G1 X95.847 Y90.933 E4.15304
G1 X96.525 Y90.336 E4.18309
G1 X97.253 Y89.801 E4.21314
G1 X98.025 Y89.333 E4.24317
G1 X98.836 Y88.935 E4.27321
G1 X99.679 Y88.611 E4.30325
G1 X100.547 Y88.362 E4.33328
G1 X101.434 Y88.191 E4.36333
G1 X102.467 Y88.092 E4.39784
G1 X103.407 Y88.05 E4.42914
G1 X106.152 Y87.892 E4.52059
G1 X106.899 Y87.838 E4.5455
G1 X107.492 Y87.812 E4.56524
G1 X108.404 Y87.8 E4.59558
G1 X116.367 Y87.801 E4.86043
G1 X117.067 Y87.811 E4.88371
G0 F6000 X107.486 Y87.412
G1 F1200 X108.252 Y87.401 E4.90919
G1 X108.404 Y87.4 E4.91425
G1 X116.372 Y87.401 E5.17927
G1 X117.072 Y87.411 E5.20255
G1 X117.992 Y87.464 E5.2332
G1 X118.903 Y87.597 E5.26382
G1 X119.799 Y87.808 E5.29444
G1 X120.673 Y88.096 E5.32504
G1 X121.519 Y88.459 E5.35566
G1 X122.331 Y88.894 E5.3863
G1 X123.101 Y89.398 E5.41691
G1 X123.825 Y89.967 E5.44754
G1 X124.497 Y90.596 E5.47815
G1 X125.112 Y91.282 E5.5088
G1 X125.665 Y92.018 E5.53941
G1 X126.022 Y92.576 E5.56145
G1 X126.47 Y93.328 E5.59056
G1 X132.794 Y104.284 E6.01131
G1 X133.088 Y104.808 E6.03129
G1 X133.504 Y105.63 E6.06193
G1 X133.846 Y106.485 E6.09256
G1 X134.113 Y107.366 E6.12318
G1 X134.302 Y108.267 E6.1538
G1 X134.413 Y109.181 E6.18442
G1 X134.443 Y110.101 E6.21504
G1 X134.394 Y111.02 E6.24565
G1 X134.266 Y111.932 E6.27628
G1 X134.058 Y112.829 E6.3069
G1 X133.774 Y113.704 E6.3375
G1 X133.414 Y114.552 E6.36814
G1 X133.113 Y115.138 E6.39005
G1 X132.67 Y115.933 E6.42032
G1 X126.386 Y126.817 E6.83833
G1 X126.04 Y127.4 E6.86088
G1 X125.536 Y128.17 E6.89149
G1 X124.967 Y128.894 E6.92211
G1 X124.338 Y129.566 E6.95273
G1 X123.652 Y130.181 E6.98337
G1 X122.916 Y130.734 E7.01399
G1 X122.135 Y131.221 E7.0446
G1 X121.314 Y131.638 E7.07523
G1 X120.46 Y131.983 E7.10586
G1 X119.58 Y132.252 E7.13647
G1 X118.679 Y132.444 E7.16711
G1 X117.766 Y132.557 E7.19771
G1 X117.078 Y132.589 E7.22062
G1 X116.237 Y132.6 E7.24859
G1 X108.21 Y132.599 E7.51557
G1 X107.499 Y132.589 E7.53922
G1 X106.897 Y132.563 E7.55926
G1 X105.973 Y132.497 E7.59007
G1 X103.23 Y132.343 E7.68145
G1 X102.494 Y132.312 E7.70595
G1 X101.576 Y132.234 E7.73659
G1 X100.669 Y132.076 E7.76721
G1 X99.779 Y131.841 E7.79783
G1 X98.913 Y131.529 E7.82845
G1 X98.077 Y131.143 E7.85907
G1 X97.278 Y130.686 E7.88969
G1 X96.521 Y130.161 E7.92033
G1 X95.813 Y129.573 E7.95094
G1 X95.159 Y128.926 E7.98154
G1 X94.563 Y128.224 E8.01216
G1 X93.869 Y127.214 E8.05292
G1 X93.268 Y126.219 E8.09158
G1 X87.229 Y115.756 E8.49339
G1 X86.903 Y115.173 E8.51561
G1 X86.489 Y114.351 E8.54622
G1 X86.148 Y113.496 E8.57683
G1 X85.882 Y112.614 E8.60748
G1 X85.694 Y111.713 E8.63809
G1 X85.585 Y110.799 E8.6687
G1 X85.556 Y109.879 E8.69932
G1 X85.606 Y108.96 E8.72993
G1 X85.736 Y108.048 E8.76057
G1 X85.945 Y107.152 E8.79117
G1 X86.231 Y106.276 E8.82182
G1 X86.591 Y105.429 E8.85243
G1 X86.887 Y104.855 E8.87391
G1 X87.287 Y104.138 E8.90122
G1 X93.483 Y93.41 E9.31327
G1 X93.822 Y92.843 E9.33524
G1 X94.328 Y92.074 E9.36586
G1 X94.9 Y91.351 E9.39652
G1 X95.531 Y90.682 E9.42711
G1 X96.219 Y90.069 E9.45776
G1 X96.956 Y89.519 E9.48834
G1 X97.739 Y89.034 E9.51898
G1 X98.561 Y88.62 E9.54959
G1 X99.416 Y88.278 E9.58022
G1 X100.297 Y88.012 E9.61082
G1 X101.199 Y87.823 E9.64148
G1 X102.449 Y87.692 E9.68328
G1 X103.439 Y87.648 E9.71624
G1 X106.1 Y87.495 E9.80489
G1 X106.87 Y87.439 E9.83057
G1 X107.486 Y87.412 E9.85108
G0 F6000 X117.078 Y87.011
G1 F1200 X118.014 Y87.064 E9.88226
G1 X118.943 Y87.197 E9.91347
G1 X119.857 Y87.409 E9.94468
G1 X120.749 Y87.698 E9.97586
G1 X121.613 Y88.061 E10.00703
G1 X122.444 Y88.497 E10.03825
G1 X123.234 Y89.002 E10.06943
G1 X123.979 Y89.573 E10.10065
G1 X124.672 Y90.204 E10.13182
G1 X125.308 Y90.893 E10.16301
G1 X125.884 Y91.633 E10.1942
G1 X126.366 Y92.371 E10.22352
G1 X126.816 Y93.128 E10.25281
G1 X133.143 Y104.089 E10.67375
G1 X133.437 Y104.613 E10.69373
G1 X133.861 Y105.449 E10.72491
G1 X134.212 Y106.319 E10.75611
G1 X134.487 Y107.216 E10.78732
G1 X134.685 Y108.132 E10.81849
G1 X134.804 Y109.063 E10.84971
G1 X134.844 Y110 E10.8809
G1 X134.804 Y110.937 E10.91209
G1 X134.684 Y111.867 E10.94328
G1 X134.485 Y112.783 E10.97446
G1 X134.209 Y113.68 E11.00567
G1 X133.857 Y114.549 E11.03686
G1 X133.463 Y115.332 E11.06601
G1 X133.016 Y116.133 E11.09652
G1 X126.73 Y127.021 E11.51467
G1 X126.384 Y127.604 E11.53722
G1 X125.871 Y128.389 E11.56841
G1 X125.293 Y129.128 E11.59962
G1 X124.655 Y129.815 E11.6308
G1 X123.96 Y130.445 E11.662
G1 X123.214 Y131.014 E11.69321
G1 X122.423 Y131.517 E11.72438
G1 X121.591 Y131.951 E11.75559
G1 X120.726 Y132.312 E11.78677
G1 X119.833 Y132.598 E11.81796
G1 X118.918 Y132.808 E11.84918
G1 X117.99 Y132.938 E11.88035
G1 X117.084 Y132.989 E11.91053
G1 X116.237 Y133 E11.9387
G1 X108.204 Y132.999 E12.20588
G1 X107.493 Y132.989 E12.22953
G1 X106.869 Y132.962 E12.25031
G1 X105.994 Y132.9 E12.27948
G1 X103.19 Y132.742 E12.37289
G1 X102.477 Y132.712 E12.39663
G1 X101.543 Y132.633 E12.4278
G1 X100.618 Y132.474 E12.45902
G1 X99.711 Y132.238 E12.49019
G1 X98.826 Y131.925 E12.52141
G1 X97.972 Y131.538 E12.5526
G1 X97.154 Y131.08 E12.58378
G1 X96.378 Y130.554 E12.61496
G1 X95.649 Y129.963 E12.64617
G1 X94.974 Y129.313 E12.67734
G1 X94.356 Y128.607 E12.70855
G1 X93.8 Y127.851 E12.73976
G1 X93.527 Y127.422 E12.75667
G1 X92.922 Y126.419 E12.79563
G1 X86.88 Y115.952 E13.1976
G1 X86.554 Y115.369 E13.21982
G1 X86.132 Y114.531 E13.25103
G1 X85.782 Y113.661 E13.28222
G1 X85.508 Y112.764 E13.31341
G1 X85.311 Y111.847 E13.34461
G1 X85.193 Y110.917 E13.37579
G1 X85.155 Y109.98 E13.40698
G1 X85.197 Y109.043 E13.43817
G1 X85.318 Y108.113 E13.46936
G1 X85.518 Y107.196 E13.50058
G1 X85.796 Y106.3 E13.53178
G1 X86.149 Y105.431 E13.56298
G1 X86.538 Y104.661 E13.59167
G1 X86.941 Y103.938 E13.6192
G1 X93.14 Y93.204 E14.03148
G1 X93.479 Y92.637 E14.05345
G1 X93.994 Y91.854 E14.08462
G1 X94.574 Y91.117 E14.11581
G1 X95.215 Y90.432 E14.14702
G1 X95.911 Y89.804 E14.1782
G1 X96.659 Y89.238 E14.20939
G1 X97.452 Y88.737 E14.24059
G1 X98.285 Y88.306 E14.27179
G1 X99.152 Y87.948 E14.30298
G1 X100.046 Y87.664 E14.33418
G1 X100.961 Y87.458 E14.36538
G1 X101.89 Y87.33 E14.39657
G1 X102.432 Y87.293 E14.41464
G1 X103.324 Y87.253 E14.44434
G1 X106.115 Y87.093 E14.53732
G1 X106.841 Y87.04 E14.56153
G1 X107.48 Y87.012 E14.5828
G1 X108.404 Y87 E14.61354
G1 X116.378 Y87.001 E14.87875
G1 X117.078 Y87.011 E14.90204
G1 F2700 E9.90204
;MESH:mid-2.stl
G0 F6000 X116.688 Y97.335
G0 X116.688 Y98.417
G0 X109.021 Y98.79
G0 X115.074 Y109.99
G0 X108.69 Y121.4
;TYPE:WALL-INNER
G1 F2700 E14.90204
G1 F1200 X108.862 Y121.102 E14.91348
G1 X115.081 Y110.333 E15.3271
G1 X115.263 Y109.986 E15.34013
G1 X108.863 Y98.898 E15.76594
G1 X108.691 Y98.6 E15.77738
G1 X109.035 Y98.6 E15.78388
G1 X109.036 Y98.6 E15.78391
G1 X116.582 Y98.6 E16.03489
G1 X123.164 Y110 E16.47272
G1 X116.582 Y121.4 E16.91054
G1 X109.035 Y121.4 E17.16156
G1 X109.034 Y121.4 E17.16159
G1 X108.69 Y121.4 E17.16809
G0 F6000 X107.998 Y121.8
;TYPE:WALL-OUTER
G1 F1200 X114.731 Y110.14 E17.61591
G1 X114.807 Y109.995 E17.62136
G1 X107.999 Y98.2 E18.07432
G1 X116.813 Y98.2 E18.36747
G1 X123.579 Y109.92 E18.81758
G1 X123.625 Y110 E18.82065
G1 X123.475 Y110.26 E18.83063
G1 X116.813 Y121.8 E19.27382
G1 X107.998 Y121.8 E19.56701
G0 F6000 X108.43 Y121.55
G0 X109.366 Y121.29
G0 X109.366 Y121.01
;TYPE:SKIN
G1 F1200 X115.422 Y110.521 E19.96985
G1 X115.708 Y109.977 E19.99029
G1 X109.366 Y98.99 E20.41223
G1 X116.357 Y98.99 E20.64475
G1 X122.713 Y110 E21.06758
G1 X116.357 Y121.01 E21.49042
G1 X109.366 Y121.01 E21.72294
G0 F6000 X109.81 Y120.558
G1 F1200 X110.101 Y120.849 E21.73663
G0 F6000 X110.667 Y120.849
G1 F1200 X110.018 Y120.2 E21.76715
G0 F6000 X110.224 Y119.841
G1 F1200 X111.232 Y120.849 E21.81457
G0 F6000 X111.798 Y120.849
G1 F1200 X110.431 Y119.482 E21.87887
G0 F6000 X110.638 Y119.124
G1 F1200 X112.364 Y120.849 E21.96003
G0 F6000 X112.929 Y120.849
G1 F1200 X110.846 Y118.765 E22.05803
G0 F6000 X111.053 Y118.407
G1 F1200 X113.495 Y120.849 E22.17289
G0 F6000 X114.061 Y120.849
G1 F1200 X111.259 Y118.047 E22.30469
G0 F6000 X111.466 Y117.689
G1 F1200 X114.626 Y120.849 E22.45333
G0 F6000 X115.192 Y120.849
G1 F1200 X111.674 Y117.33 E22.61883
G0 F6000 X111.881 Y116.972
G1 F1200 X115.758 Y120.849 E22.80119
G0 F6000 X116.286 Y120.812
G1 F1200 X112.088 Y116.613 E22.99867
G0 F6000 X112.294 Y116.254
G1 F1200 X116.493 Y120.453 E23.19618
G0 F6000 X116.7 Y120.095
G1 F1200 X112.502 Y115.896 E23.39367
G0 F6000 X112.709 Y115.537
G1 F1200 X116.908 Y119.736 E23.59117
G0 F6000 X117.114 Y119.377
G1 F1200 X112.916 Y115.179 E23.78864
G0 F6000 X113.123 Y114.82
G1 F1200 X117.321 Y119.018 E23.9861
G0 F6000 X117.528 Y118.66
G1 F1200 X113.33 Y114.461 E24.18358
G0 F6000 X113.537 Y114.102
G1 F1200 X117.736 Y118.301 E24.38109
G0 F6000 X117.943 Y117.943
G1 F1200 X113.744 Y113.744 E24.5786
G0 F6000 X113.951 Y113.385
G1 F1200 X118.149 Y117.584 E24.77608
G0 F6000 X118.356 Y117.225
G1 F1200 X114.158 Y113.027 E24.97354
G0 F6000 X114.366 Y112.668
G1 F1200 X118.564 Y116.867 E25.17103
G0 F6000 X118.771 Y116.508
G1 F1200 X114.572 Y112.309 E25.36854
G0 F6000 X114.779 Y111.951
G1 F1200 X118.978 Y116.15 E25.56604
G0 F6000 X119.184 Y115.79
G1 F1200 X114.986 Y111.592 E25.7635
G0 F6000 X115.194 Y111.234
G1 F1200 X119.392 Y115.432 E25.96097
G0 F6000 X119.599 Y115.073
G1 F1200 X115.401 Y110.875 E26.15843
G0 F6000 X115.604 Y110.513
G1 F1200 X119.806 Y114.715 E26.35608
G0 F6000 X120.013 Y114.356
G1 F1200 X115.8 Y110.143 E26.55424
G0 F6000 X115.469 Y109.247
G1 F1200 X120.22 Y113.997 E26.77769
G0 F6000 X120.427 Y113.639
G1 F1200 X114.697 Y107.909 E27.04721
G0 F6000 X114.318 Y108.126
G0 X113.546 Y106.788
G0 X113.925 Y106.571
G1 F1200 X120.634 Y113.28 E27.36278
G0 F6000 X120.841 Y112.922
G1 F1200 X113.153 Y105.233 E27.72443
G0 F6000 X112.774 Y105.451
G0 X112.001 Y104.113
G0 X112.381 Y103.895
G1 F1200 X121.048 Y112.562 E28.1321
G0 F6000 X121.255 Y112.204
G1 F1200 X111.609 Y102.558 E28.58582
G0 F6000 X111.229 Y102.776
G0 X110.457 Y101.437
G0 X110.836 Y101.22
G1 F1200 X121.462 Y111.845 E29.08561
G0 F6000 X121.669 Y111.487
G1 F1200 X110.063 Y99.881 E29.63152
G0 F6000 X109.897 Y99.149
G1 F1200 X121.876 Y111.128 E30.19497
G0 F6000 X122.083 Y110.769
G1 F1200 X110.463 Y99.149 E30.74154
G0 F6000 X111.029 Y99.149
G1 F1200 X122.29 Y110.411 E31.27125
G0 F6000 X122.497 Y110.052
G1 F1200 X111.594 Y99.149 E31.78409
G0 F6000 X112.16 Y99.149
G1 F1200 X121.867 Y108.856 E32.24068
G0 F6000 X122.249 Y108.636
G0 X121.477 Y107.299
G0 X121.095 Y107.519
G1 F1200 X112.726 Y99.149 E32.63435
G0 F6000 X113.291 Y99.149
G1 F1200 X120.323 Y106.181 E32.96512
G0 F6000 X120.704 Y105.961
G0 X119.931 Y104.622
G0 X119.55 Y104.842
G1 F1200 X113.857 Y99.149 E33.2329
G0 F6000 X114.423 Y99.149
G1 F1200 X118.778 Y103.504 E33.43775
G0 F6000 X119.159 Y103.284
G0 X118.387 Y101.947
G0 X118.006 Y102.167
G1 F1200 X114.988 Y99.149 E33.5797
G0 F6000 X115.554 Y99.149
G1 F1200 X117.234 Y100.829 E33.65872
G0 F6000 X117.615 Y100.61
G0 X116.842 Y99.271
G0 X116.461 Y99.491
G1 F1200 X116.12 Y99.149 E33.67479
G1 F2700 E28.67479
G0 F6000 X116.12 Y98.71
G0 X109.021 Y98.79
G0 X115.074 Y109.99
G0 X109.07 Y120.965
G0 X109.11 Y120.989
;TYPE:SKIN
G1 F2700 E33.67479
G1 F1200 X109.211 Y121.091 E33.67718
G0 F6000 X109.076 Y121.239
G1 F1200 X109.006 Y121.169 E33.67882
G0 F6000 X108.598 Y121.608
G1 F1200 X108.415 Y121.425 E33.68313
G0 F6000 X108.783 Y121.2
G1 F2700 E28.68313
G0 F6000 X108.361 Y121.59
G0 X107.431 Y121.053
G0 X104.914 Y119.598
G0 X103.975 Y119.056
G0 X102.916 Y120.531
;TYPE:WALL-INNER
G1 F2700 E33.68313
G1 F1200 X102.744 Y120.233 E33.69457
G1 X96.836 Y110 E34.08757
G1 X96.905 Y109.88 E34.09218
G1 X102.744 Y99.767 E34.48058
G1 X102.916 Y99.469 E34.49202
G1 X103.088 Y99.767 E34.49851
G1 X106.844 Y106.275 E34.74843
G1 X108.996 Y110 E34.89151
G1 X108.836 Y110.277 E34.90215
G1 X103.088 Y120.233 E35.28451
G1 X102.916 Y120.531 E35.291
G0 F6000 X102.916 Y121.33
;TYPE:WALL-OUTER
G1 F1200 X96.374 Y110 E35.72614
G1 X96.559 Y109.68 E35.73844
G1 X102.916 Y98.67 E36.16129
G1 X107.19 Y106.075 E36.44566
G1 X109.458 Y110 E36.59643
G1 X109.182 Y110.477 E36.61476
G1 X102.916 Y121.33 E37.03158
G0 F6000 X102.916 Y120.83
G0 X103.158 Y119.891
G0 X102.916 Y119.75
;TYPE:SKIN
G1 F1200 X97.287 Y110 E37.40603
G1 X102.916 Y100.25 E37.78048
G1 X106.506 Y106.47 E38.01934
G1 X108.545 Y110 E38.15493
G1 X108.498 Y110.082 E38.15807
G1 X102.916 Y119.75 E38.52938
G0 F6000 X102.956 Y119.361
G1 F1200 X102.766 Y119.171 E38.53832
G0 F6000 X103.163 Y119.002
G1 F1200 X101.994 Y117.833 E38.5933
G0 F6000 X101.613 Y118.053
G0 X100.84 Y116.715
G0 X101.221 Y116.495
G1 F1200 X103.37 Y118.644 E38.69439
G0 F6000 X103.577 Y118.284
G1 F1200 X100.449 Y115.157 E38.8415
G0 F6000 X100.067 Y115.377
G0 X99.294 Y114.038
G0 X99.676 Y113.818
G1 F1200 X103.784 Y117.926 E39.03472
G0 F6000 X103.991 Y117.567
G1 F1200 X98.904 Y112.48 E39.274
G0 F6000 X98.522 Y112.7
G0 X97.75 Y111.363
G0 X98.132 Y111.143
G1 F1200 X104.198 Y117.209 E39.55933
