;FLAVOR:Marlin
;TIME:1592
;Filament used: 0.806669m
;Layer height: 0.2
;MINX:92.163
;MINY:90.34
;MINZ:0.2
;MAXX:130.983
;MAXY:129.66
;MAXZ:22
;Generated with Cura_SteamEngine 4.6.1
M140 S50
M105
M190 S50
M104 S200
M105
M109 S200
M82 ;absolute extrusion mode
M201 X500.00 Y500.00 Z100.00 E5000.00 ;Setup machine max acceleration
M203 X500.00 Y500.00 Z10.00 E50.00 ;Setup machine max feedrate
M204 P500.00 R1000.00 T500.00 ;Setup Print/Retract/Travel acceleration
M205 X8.00 Y8.00 Z0.40 E5.00 ;Setup Jerk
M220 S100 ;Reset Feedrate
M221 S100 ;Reset Flowrate

G28 ;Home

G92 E0 ;Reset Extruder
G1 Z2.0 F3000 ;Move Z Axis up
G1 X10.1 Y20 Z0.28 F5000.0 ;Move to start position
G1 X10.1 Y200.0 Z0.28 F1500.0 E15 ;Draw the first line
G1 X10.4 Y200.0 Z0.28 F5000.0 ;Move to side a little
G1 X10.4 Y20 Z0.28 F1500.0 E30 ;Draw the second line
G92 E0 ;Reset Extruder
G1 Z2.0 F3000 ;Move Z Axis up

G92 E0
G92 E0
G1 F2700 E-5
;LAYER_COUNT:110
;LAYER:0
M107
G0 F6000 X115.139 Y91.151 Z0.2
;TYPE:SKIRT
G1 F2700 E0
G1 F1200 X116.041 Y91.204 E0.03005
G1 X116.934 Y91.336 E0.06008
G1 X117.813 Y91.547 E0.09014
G1 X118.669 Y91.835 E0.12018
G1 X119.496 Y92.197 E0.15021
G1 X120.288 Y92.631 E0.18025
G1 X121.038 Y93.134 E0.21028
G1 X121.741 Y93.701 E0.24032
G1 X122.391 Y94.327 E0.27033
G1 X122.984 Y95.009 E0.30039
G1 X123.751 Y96.119 E0.34527
G1 X124.184 Y96.846 E0.37341
G1 X128.561 Y104.43 E0.66465
G1 X128.881 Y105.001 E0.68642
G1 X129.287 Y105.808 E0.71647
G1 X129.62 Y106.647 E0.74649
G1 X129.878 Y107.513 E0.77655
G1 X130.058 Y108.398 E0.80659
G1 X130.159 Y109.295 E0.83661
G1 X130.181 Y110.198 E0.86665
G1 X130.122 Y111.099 E0.89668
G1 X129.984 Y111.992 E0.92674
G1 X129.768 Y112.869 E0.95678
G1 X129.475 Y113.723 E0.98681
G1 X128.962 Y114.827 E1.0273
G1 X128.477 Y115.717 E1.06101
G1 X124.141 Y123.226 E1.34941
G1 X123.758 Y123.869 E1.3743
G1 X123.262 Y124.623 E1.40432
G1 X122.701 Y125.331 E1.43436
G1 X122.08 Y125.987 E1.46441
G1 X121.403 Y126.585 E1.49445
G1 X120.676 Y127.12 E1.52447
G1 X119.905 Y127.59 E1.5545
G1 X119.095 Y127.989 E1.58454
G1 X118.252 Y128.315 E1.6146
G1 X117.385 Y128.565 E1.64461
G1 X116.498 Y128.738 E1.67467
G1 X115.158 Y128.848 E1.71938
G1 X114.307 Y128.86 E1.74769
G1 X105.561 Y128.859 E2.03859
G1 X104.861 Y128.849 E2.06187
G1 X103.96 Y128.796 E2.09189
G1 X103.066 Y128.664 E2.12195
G1 X102.188 Y128.453 E2.15198
G1 X101.332 Y128.165 E2.18202
G1 X100.505 Y127.803 E2.21204
G1 X99.713 Y127.369 E2.24208
G1 X98.963 Y126.866 E2.27212
G1 X98.26 Y126.299 E2.30216
G1 X97.609 Y125.673 E2.3322
G1 X97.017 Y124.991 E2.36223
G1 X96.252 Y123.884 E2.40699
G1 X95.786 Y123.102 E2.43727
G1 X94.58 Y121.009 E2.51761
G1 X94.258 Y120.435 E2.5395
G1 X93.852 Y119.629 E2.56952
G1 X93.518 Y118.79 E2.59955
G1 X93.26 Y117.924 E2.6296
G1 X93.079 Y117.039 E2.65965
G1 X92.978 Y116.142 E2.68967
G1 X92.963 Y115.024 E2.72686
G1 X93.065 Y112.557 E2.80898
G1 X93.101 Y110 E2.89404
G1 X93.065 Y107.45 E2.97886
G1 X92.962 Y104.984 E3.06095
G1 X92.964 Y104.081 E3.09098
G1 X93.046 Y103.182 E3.12101
G1 X93.208 Y102.293 E3.15106
G1 X93.447 Y101.422 E3.18111
G1 X93.763 Y100.576 E3.21114
G1 X94.245 Y99.59 E3.24765
G1 X94.648 Y98.87 E3.27509
G1 X95.919 Y96.671 E3.35957
G1 X96.249 Y96.119 E3.38096
G1 X96.746 Y95.365 E3.41099
G1 X97.308 Y94.658 E3.44103
G1 X97.931 Y94.004 E3.47107
G1 X98.609 Y93.407 E3.50112
G1 X99.336 Y92.872 E3.53114
G1 X100.109 Y92.404 E3.5612
G1 X100.92 Y92.007 E3.59123
G1 X101.762 Y91.682 E3.62125
G1 X102.63 Y91.433 E3.65128
G1 X103.517 Y91.262 E3.68133
G1 X104.813 Y91.155 E3.72458
G1 X105.697 Y91.14 E3.75398
G1 X114.438 Y91.141 E4.04471
G1 X115.139 Y91.151 E4.06803
G0 F6000 X115.145 Y90.751
G1 F1200 X116.064 Y90.804 E4.09865
G1 X116.975 Y90.937 E4.12927
G1 X117.871 Y91.148 E4.15988
G1 X118.746 Y91.436 E4.19052
G1 X119.592 Y91.799 E4.22114
G1 X120.403 Y92.234 E4.25175
G1 X121.174 Y92.738 E4.28239
G1 X121.898 Y93.307 E4.31301
G1 X122.57 Y93.936 E4.34363
G1 X123.185 Y94.621 E4.37425
G1 X123.738 Y95.357 E4.40487
G1 X124.094 Y95.914 E4.42685
G1 X124.53 Y96.646 E4.45519
G1 X128.91 Y104.235 E4.74662
G1 X129.23 Y104.806 E4.7684
G1 X129.645 Y105.628 E4.79902
G1 X129.987 Y106.483 E4.82965
G1 X130.253 Y107.364 E4.86026
G1 X130.442 Y108.265 E4.89088
G1 X130.552 Y109.179 E4.9215
G1 X130.582 Y110.099 E4.95211
G1 X130.533 Y111.018 E4.98272
G1 X130.404 Y111.93 E5.01336
G1 X130.196 Y112.827 E5.04398
G1 X129.911 Y113.702 E5.07459
G1 X129.551 Y114.55 E5.10523
G1 X129.314 Y115.017 E5.12265
G1 X128.824 Y115.917 E5.15673
G1 X124.485 Y123.43 E5.4453
G1 X124.102 Y124.073 E5.47019
G1 X123.597 Y124.843 E5.50082
G1 X123.027 Y125.566 E5.53144
G1 X122.396 Y126.237 E5.56207
G1 X121.71 Y126.851 E5.59269
G1 X120.973 Y127.402 E5.6233
G1 X120.191 Y127.888 E5.65392
G1 X119.37 Y128.304 E5.68453
G1 X118.515 Y128.647 E5.71518
G1 X117.634 Y128.915 E5.7458
G1 X116.734 Y129.105 E5.7764
G1 X115.82 Y129.217 E5.80702
G1 X115.164 Y129.248 E5.82887
G1 X114.307 Y129.26 E5.85737
G1 X105.556 Y129.259 E6.14843
G1 X104.856 Y129.249 E6.17172
G1 X103.936 Y129.196 E6.20237
G1 X103.025 Y129.063 E6.23299
G1 X102.129 Y128.852 E6.26361
G1 X101.255 Y128.564 E6.29421
G1 X100.409 Y128.201 E6.32483
G1 X99.597 Y127.766 E6.35547
G1 X98.827 Y127.262 E6.38608
G1 X98.103 Y126.693 E6.41671
G1 X97.431 Y126.064 E6.44732
G1 X96.816 Y125.378 E6.47796
G1 X96.263 Y124.642 E6.50858
G1 X95.909 Y124.089 E6.53042
G1 X95.44 Y123.302 E6.56089
G1 X94.231 Y121.205 E6.6414
G1 X93.909 Y120.631 E6.66329
G1 X93.494 Y119.809 E6.69392
G1 X93.152 Y118.955 E6.72451
G1 X92.885 Y118.074 E6.75513
G1 X92.696 Y117.173 E6.78575
G1 X92.585 Y116.259 E6.81637
G1 X92.563 Y115.008 E6.85799
G1 X92.665 Y112.536 E6.94028
G1 X92.701 Y110 E7.02463
G1 X92.665 Y107.473 E7.10869
G1 X92.562 Y105.001 E7.19098
G1 X92.564 Y104.08 E7.22161
G1 X92.645 Y103.163 E7.25223
G1 X92.806 Y102.257 E7.28284
G1 X93.045 Y101.368 E7.31346
G1 X93.36 Y100.503 E7.34408
G1 X93.896 Y99.395 E7.38501
G1 X94.302 Y98.67 E7.41265
G1 X95.576 Y96.466 E7.49732
G1 X95.906 Y95.914 E7.51871
G1 X96.412 Y95.145 E7.54933
G1 X96.983 Y94.423 E7.57994
G1 X97.615 Y93.753 E7.61058
G1 X98.302 Y93.14 E7.6412
G1 X99.04 Y92.59 E7.67182
G1 X99.823 Y92.105 E7.70245
G1 X100.645 Y91.691 E7.73306
G1 X101.5 Y91.349 E7.76369
G1 X102.381 Y91.083 E7.7943
G1 X103.282 Y90.894 E7.82492
G1 X104.196 Y90.784 E7.85554
G1 X104.805 Y90.755 E7.87581
G1 X105.697 Y90.74 E7.90549
G1 X114.444 Y90.741 E8.19641
G1 X115.145 Y90.751 E8.21973
G0 F6000 X115.151 Y90.351
G1 F1200 X116.087 Y90.404 E8.25091
G1 X117.016 Y90.537 E8.28213
G1 X117.929 Y90.749 E8.3133
G1 X118.822 Y91.037 E8.34451
G1 X119.686 Y91.401 E8.37569
G1 X120.517 Y91.837 E8.4069
G1 X121.307 Y92.342 E8.43809
G1 X122.051 Y92.912 E8.46926
G1 X122.744 Y93.544 E8.50046
G1 X123.381 Y94.233 E8.53167
G1 X123.957 Y94.973 E8.56286
G1 X124.438 Y95.709 E8.5921
G1 X124.876 Y96.446 E8.62061
G1 X129.259 Y104.039 E8.91221
G1 X129.579 Y104.61 E8.93398
G1 X130.002 Y105.447 E8.96518
G1 X130.352 Y106.317 E8.99637
G1 X130.627 Y107.214 E9.02757
G1 X130.825 Y108.131 E9.05877
G1 X130.944 Y109.061 E9.08996
G1 X130.983 Y109.998 E9.12115
G1 X130.942 Y110.935 E9.15234
G1 X130.822 Y111.865 E9.18353
G1 X130.622 Y112.782 E9.21475
G1 X130.346 Y113.678 E9.24593
G1 X129.994 Y114.547 E9.27712
G1 X129.666 Y115.207 E9.30163
G1 X129.17 Y116.117 E9.3361
G1 X124.829 Y123.635 E9.62484
G1 X124.446 Y124.278 E9.64973
G1 X123.932 Y125.063 E9.68094
G1 X123.353 Y125.801 E9.71214
G1 X122.713 Y126.487 E9.74334
G1 X122.018 Y127.116 E9.77452
G1 X121.271 Y127.683 E9.80571
G1 X120.478 Y128.185 E9.83693
G1 X119.646 Y128.617 E9.86811
G1 X118.78 Y128.977 E9.8993
G1 X117.887 Y129.262 E9.93048
G1 X116.972 Y129.47 E9.96169
G1 X116.043 Y129.599 E9.99288
G1 X115.171 Y129.648 E10.02193
G1 X114.307 Y129.66 E10.05067
G1 X105.55 Y129.659 E10.34193
G1 X104.85 Y129.649 E10.36522
G1 X103.914 Y129.596 E10.3964
G1 X102.985 Y129.463 E10.42761
G1 X102.071 Y129.251 E10.45882
G1 X101.179 Y128.962 E10.49
G1 X100.315 Y128.599 E10.52117
G1 X99.484 Y128.163 E10.55239
G1 X98.694 Y127.658 E10.58357
G1 X97.949 Y127.087 E10.61479
G1 X97.256 Y126.456 E10.64596
G1 X96.62 Y125.767 E10.67715
G1 X96.044 Y125.027 E10.70834
G1 X95.566 Y124.294 E10.73745
G1 X95.093 Y123.502 E10.76813
G1 X93.882 Y121.401 E10.84878
G1 X93.56 Y120.827 E10.87067
G1 X93.137 Y119.99 E10.90187
G1 X92.786 Y119.12 E10.93307
G1 X92.511 Y118.224 E10.96424
G1 X92.313 Y117.307 E10.99544
G1 X92.194 Y116.377 E11.02663
G1 X92.163 Y114.991 E11.07274
G1 X92.265 Y112.514 E11.15519
G1 X92.301 Y109.998 E11.23888
G1 X92.265 Y107.459 E11.32334
G1 X92.163 Y105.018 E11.4046
G1 X92.163 Y104.08 E11.4358
G1 X92.244 Y103.145 E11.46701
G1 X92.404 Y102.221 E11.4982
G1 X92.642 Y101.314 E11.52939
G1 X92.957 Y100.431 E11.56057
G1 X93.547 Y99.2 E11.60597
G1 X93.955 Y98.47 E11.63379
G1 X95.233 Y96.261 E11.71867
G1 X95.563 Y95.709 E11.74006
G1 X96.078 Y94.925 E11.77126
G1 X96.658 Y94.188 E11.80245
G1 X97.298 Y93.503 E11.83363
G1 X97.995 Y92.875 E11.86484
G1 X98.743 Y92.309 E11.89604
G1 X99.536 Y91.808 E11.92723
G1 X100.369 Y91.377 E11.95843
G1 X101.235 Y91.019 E11.9896
G1 X102.129 Y90.735 E12.02079
G1 X103.044 Y90.529 E12.05199
G1 X103.973 Y90.401 E12.08318
G1 X104.798 Y90.355 E12.11066
G1 X105.697 Y90.34 E12.14057
G1 X114.45 Y90.341 E12.43169
G1 X115.151 Y90.351 E12.45501
G1 F2700 E7.45501
;MESH:Mid-1.stl
G0 F6000 X114.76 Y100.675
G0 X114.76 Y101.757
G0 X119.105 Y110
G0 X114.553 Y117.884
G0 X105.346 Y118.06
;TYPE:WALL-INNER
G1 F2700 E12.45501
G1 F1200 X103.835 Y115.443 E12.55552
G1 X106.983 Y109.994 E12.76482
G1 X106.765 Y109.631 E12.77891
G1 X103.835 Y104.556 E12.97381
G1 X105.346 Y101.94 E13.07429
G1 X114.654 Y101.94 E13.38388
G1 X119.308 Y110 E13.69344
G1 X114.654 Y118.06 E14.00299
G1 X105.346 Y118.06 E14.31258
G0 F6000 X105.115 Y118.46
;TYPE:WALL-OUTER
G1 F1200 X103.374 Y115.444 E14.42841
G1 X103.385 Y115.423 E14.42919
G1 X106.519 Y109.998 E14.63758
G1 X106.422 Y109.837 E14.64383
G1 X103.374 Y104.556 E14.84663
G1 X105.115 Y101.54 E14.96246
G1 X114.885 Y101.54 E15.28741
G1 X119.769 Y110 E15.61231
G1 X114.885 Y118.46 E15.93722
G1 X105.115 Y118.46 E16.26217
G0 F6000 X105.335 Y118.02
G0 X105.571 Y117.67
;TYPE:SKIN
G1 F1200 X104.286 Y115.443 E16.34768
G1 X107.436 Y109.99 E16.55714
G1 X107.099 Y109.43 E16.57888
G1 X104.286 Y104.556 E16.76605
G1 X105.571 Y102.33 E16.85154
G1 X114.429 Y102.33 E17.14615
G1 X118.857 Y110 E17.44072
G1 X114.429 Y117.67 E17.73529
G1 X105.571 Y117.67 E18.0299
G0 F6000 X106.195 Y117.509
G1 F1200 X104.936 Y116.25 E18.08912
G0 F6000 X104.555 Y116.468
G0 X104.038 Y115.443
G0 X104.173 Y115.08
G0 X104.552 Y115.3
G1 F1200 X106.761 Y117.509 E18.19303
G0 F6000 X107.326 Y117.509
G1 F1200 X104.759 Y114.941 E18.31379
G0 F6000 X104.966 Y114.583
G1 F1200 X107.892 Y117.509 E18.45142
G0 F6000 X108.458 Y117.509
G1 F1200 X105.173 Y114.224 E18.60594
G0 F6000 X105.38 Y113.866
G1 F1200 X109.023 Y117.509 E18.7773
G0 F6000 X109.589 Y117.509
G1 F1200 X105.587 Y113.506 E18.96556
G0 F6000 X105.794 Y113.148
G1 F1200 X110.155 Y117.509 E19.17069
G0 F6000 X110.72 Y117.509
G1 F1200 X106.001 Y112.789 E19.39268
G0 F6000 X106.208 Y112.431
G1 F1200 X111.286 Y117.509 E19.63153
G0 F6000 X111.852 Y117.509
G1 F1200 X106.416 Y112.072 E19.88725
G0 F6000 X106.623 Y111.714
G1 F1200 X112.417 Y117.509 E20.15981
G0 F6000 X112.983 Y117.509
G1 F1200 X106.83 Y111.355 E20.44925
G0 F6000 X107.036 Y110.996
G1 F1200 X113.549 Y117.509 E20.7556
G0 F6000 X114.115 Y117.509
G1 F1200 X107.244 Y110.638 E21.07879
G0 F6000 X107.451 Y110.279
G1 F1200 X114.462 Y117.291 E21.40859
G0 F6000 X114.67 Y116.932
G1 F1200 X107.464 Y109.727 E21.74751
G0 F6000 X107.087 Y109.953
G0 X106.289 Y108.585
G0 X106.67 Y108.367
G1 F1200 X114.877 Y116.574 E22.13355
G0 F6000 X115.084 Y116.215
G1 F1200 X105.898 Y107.029 E22.56563
G0 F6000 X105.517 Y107.247
G0 X104.745 Y105.91
G0 X105.126 Y105.691
G1 F1200 X115.29 Y115.856 E23.04373
G0 F6000 X115.498 Y115.498
G1 F1200 X104.501 Y104.501 E23.561
G0 F6000 X104.708 Y104.142
G1 F1200 X115.705 Y115.139 E24.07827
G0 F6000 X115.912 Y114.781
G1 F1200 X104.915 Y103.784 E24.59553
G0 F6000 X105.122 Y103.424
G1 F1200 X116.119 Y114.422 E25.11282
G0 F6000 X116.326 Y114.063
G1 F1200 X105.329 Y103.066 E25.63008
G0 F6000 X105.536 Y102.707
G1 F1200 X116.533 Y113.704 E26.14735
G0 F6000 X116.74 Y113.346
G1 F1200 X105.884 Y102.49 E26.65798
G0 F6000 X106.449 Y102.49
G1 F1200 X116.947 Y112.987 E27.15175
G0 F6000 X117.154 Y112.628
G1 F1200 X107.015 Y102.49 E27.62864
G0 F6000 X107.581 Y102.49
G1 F1200 X117.361 Y112.27 E28.08866
G0 F6000 X117.568 Y111.911
G1 F1200 X108.147 Y102.49 E28.53179
G0 F6000 X108.712 Y102.49
G1 F1200 X117.775 Y111.553 E28.95809
G0 F6000 X117.982 Y111.194
G1 F1200 X109.278 Y102.49 E29.3675
G0 F6000 X109.844 Y102.49
G1 F1200 X118.189 Y110.835 E29.76002
G0 F6000 X118.396 Y110.476
G1 F1200 X110.409 Y102.49 E30.13568
G0 F6000 X110.975 Y102.49
G1 F1200 X118.603 Y110.118 E30.49448
G0 F6000 X118.984 Y110.339
G0 X119.092 Y110.034
G0 X118.535 Y108.883
G0 X118.154 Y109.103
G1 F1200 X111.541 Y102.49 E30.80553
G0 F6000 X112.106 Y102.49
G1 F1200 X117.381 Y107.765 E31.05365
G0 F6000 X117.763 Y107.545
G0 X116.99 Y106.207
G0 X116.609 Y106.427
G1 F1200 X112.672 Y102.49 E31.23884
G0 F6000 X113.238 Y102.49
G1 F1200 X115.836 Y105.088 E31.36104
G0 F6000 X116.217 Y104.868
G0 X115.445 Y103.53
G0 X115.064 Y103.75
G1 F1200 X113.803 Y102.49 E31.42033
G0 F6000 X113.803 Y102.14
;MESH:NONMESH
G0 F300 X113.803 Y102.14 Z0.4
G0 F6000 X113.803 Y102.05
G0 X105.447 Y102.116
G0 X104.038 Y104.556
G0 X107.187 Y109.992
G0 X104.038 Y115.443
G0 X105.346 Y118.06
;TIME_ELAPSED:57.869774
;LAYER:1
M140 S50
M106 S85
;TYPE:WALL-INNER
;MESH:Mid-1.stl
G1 F1800 X103.939 Y115.624 E31.5139
G1 X103.974 Y115.562 E31.51626
G1 X107.187 Y109.998 E31.72996
G1 X106.908 Y109.518 E31.74843
G1 X103.938 Y104.377 E31.9459
G1 X105.346 Y101.94 E32.03951
G1 X114.654 Y101.94 E32.3491
G1 X119.308 Y110 E32.65866
G1 X114.654 Y118.06 E32.96821
G1 X105.346 Y118.06 E33.2778
G0 F9000 X105.115 Y118.46
;TYPE:WALL-OUTER
G1 F1800 X103.478 Y115.624 E33.38671
G1 X103.628 Y115.362 E33.39675
G1 X106.725 Y109.999 E33.60273
G1 X106.562 Y109.719 E33.61351
G1 X103.477 Y104.377 E33.81868
G1 X105.115 Y101.54 E33.92764
G1 X114.885 Y101.54 E34.25259
G1 X119.769 Y110 E34.5775
G1 X114.885 Y118.46 E34.9024
G1 X105.115 Y118.46 E35.22735
G0 F9000 X105.335 Y118.02
G0 X105.571 Y117.67
;TYPE:SKIN
G1 F1800 X104.389 Y115.623 E35.30597
G1 X107.638 Y109.998 E35.52202
G1 X107.245 Y109.322 E35.54803
G1 X104.388 Y104.378 E35.73795
G1 X105.571 Y102.33 E35.81662
G1 X114.429 Y102.33 E36.11123
G1 X118.857 Y110 E36.4058
G1 X114.429 Y117.67 E36.70036
G1 X105.571 Y117.67 E36.99498
G0 F9000 X105.571 Y117.95
G0 X113.855 Y117.95
G0 X113.855 Y117.509
G1 F1800 X114.993 Y116.372 E37.04849
G0 F9000 X115.373 Y116.593
G0 X116.146 Y115.255
G0 X115.765 Y115.034
G1 F1800 X113.289 Y117.509 E37.16493
G0 F9000 X112.724 Y117.509
G1 F1800 X116.537 Y113.696 E37.34428
G0 F9000 X116.918 Y113.917
G0 X117.691 Y112.579
G0 X117.309 Y112.358
G1 F1800 X112.158 Y117.509 E37.58657
G0 F9000 X111.592 Y117.509
G1 F1800 X118.082 Y111.02 E37.89181
G0 F9000 X118.463 Y111.241
G0 X119.105 Y110
G0 X119.004 Y109.694
G0 X118.622 Y109.914
G1 F1800 X111.027 Y117.509 E38.24906
G0 F9000 X110.461 Y117.509
G1 F1800 X118.414 Y109.556 E38.62314
G0 F9000 X118.207 Y109.197
G1 F1800 X109.895 Y117.509 E39.01411
G0 F9000 X109.33 Y117.509
G1 F1800 X118.001 Y108.838 E39.42197
G0 F9000 X117.794 Y108.48
G1 F1800 X108.764 Y117.509 E39.84669
G0 F9000 X108.198 Y117.509
G1 F1800 X117.586 Y108.121 E40.28827
G0 F9000 X117.379 Y107.763
G1 F1800 X107.632 Y117.509 E40.74672
G0 F9000 X107.067 Y117.509
G1 F1800 X117.172 Y107.404 E41.22203
G0 F9000 X116.966 Y107.045
G1 F1800 X106.501 Y117.509 E41.71425
G0 F9000 X105.935 Y117.509
G1 F1800 X116.758 Y106.686 E42.22333
G0 F9000 X116.551 Y106.328
G1 F1800 X105.556 Y117.323 E42.7405
G0 F9000 X105.349 Y116.965
G1 F1800 X116.344 Y105.969 E43.25769
G0 F9000 X116.137 Y105.611
G1 F1800 X105.142 Y116.606 E43.77486
G0 F9000 X104.935 Y116.247
G1 F1800 X115.93 Y105.252 E44.29203
G0 F9000 X115.723 Y104.893
G1 F1800 X104.728 Y115.888 E44.80921
G0 F9000 X104.771 Y115.28
G1 F1800 X115.516 Y104.535 E45.31462
G0 F9000 X115.309 Y104.176
