;FLAVOR:Marlin
;TIME:4206
;Filament used: 2.06865m
;Layer height: 0.12
;MINX:59.031
;MINY:61.387
;MINZ:0.12
;MAXX:160.986
;MAXY:158.613
;MAXZ:3.96
;Generated with Cura_SteamEngine 4.6.1
M140 S52
M105
M190 S52
M104 S203
M105
M109 S203
M82 ;absolute extrusion mode
M201 X500.00 Y500.00 Z100.00 E5000.00 ;Setup machine max acceleration
M203 X500.00 Y500.00 Z10.00 E50.00 ;Setup machine max feedrate
M204 P500.00 R1000.00 T500.00 ;Setup Print/Retract/Travel acceleration
M205 X8.00 Y8.00 Z0.40 E5.00 ;Setup Jerk
M220 S100 ;Reset Feedrate
M221 S100 ;Reset Flowrate

G28 ;Home

G92 E0 ;Reset Extruder
G1 Z2.0 F3000 ;Move Z Axis up
G1 X10.1 Y20 Z0.28 F5000.0 ;Move to start position
G1 X10.1 Y200.0 Z0.28 F1500.0 E15 ;Draw the first line
G1 X10.4 Y200.0 Z0.28 F5000.0 ;Move to side a little
G1 X10.4 Y20 Z0.28 F1500.0 E30 ;Draw the second line
G92 E0 ;Reset Extruder
G1 Z2.0 F3000 ;Move Z Axis up

G92 E0
G92 E0
G1 F2700 E-5
;LAYER_COUNT:33
;LAYER:0
M107
G0 F6000 X121.139 Y62.198 Z0.12
;TYPE:SKIRT
G1 F2700 E0
G1 F1200 X122.041 Y62.251 E0.01803
G1 X122.934 Y62.383 E0.03605
G1 X123.813 Y62.594 E0.05409
G1 X124.669 Y62.882 E0.07211
G1 X125.496 Y63.244 E0.09012
G1 X126.288 Y63.678 E0.10815
G1 X127.038 Y64.181 E0.12617
G1 X127.741 Y64.748 E0.14419
G1 X128.391 Y65.374 E0.1622
G1 X128.984 Y66.056 E0.18024
G1 X129.513 Y66.788 E0.19826
G1 X129.976 Y67.563 E0.21628
G1 X130.411 Y68.478 E0.23649
G1 X130.635 Y69.026 E0.24831
G1 X152.217 Y125.009 E1.44565
G1 X159.299 Y143.382 E1.8386
G1 X159.545 Y144.042 E1.85266
G1 X159.822 Y144.901 E1.87067
G1 X160.023 Y145.782 E1.8887
G1 X160.145 Y146.676 E1.90671
G1 X160.187 Y147.578 E1.92473
G1 X160.149 Y148.481 E1.94276
G1 X160.032 Y149.376 E1.96078
G1 X159.836 Y150.258 E1.97881
G1 X159.562 Y151.119 E1.99684
G1 X159.214 Y151.952 E2.01485
G1 X158.793 Y152.751 E2.03288
G1 X158.303 Y153.51 E2.05091
G1 X157.749 Y154.222 E2.06891
G1 X157.133 Y154.883 E2.08694
G1 X156.461 Y155.486 E2.10496
G1 X155.738 Y156.028 E2.12299
G1 X154.971 Y156.504 E2.141
G1 X154.164 Y156.91 E2.15903
G1 X153.324 Y157.243 E2.17706
G1 X152.459 Y157.5 E2.19507
G1 X151.574 Y157.68 E2.2131
G1 X150.254 Y157.8 E2.23955
G1 X149.682 Y157.812 E2.25096
G1 X70.707 Y157.813 E3.82699
G1 X70.557 Y157.812 E3.82999
G1 X69.879 Y157.802 E3.84352
G1 X68.977 Y157.749 E3.86155
G1 X68.084 Y157.616 E3.87957
G1 X67.206 Y157.404 E3.89759
G1 X66.35 Y157.116 E3.91562
G1 X65.523 Y156.754 E3.93363
G1 X64.731 Y156.319 E3.95167
G1 X63.981 Y155.816 E3.96969
G1 X63.278 Y155.249 E3.98771
G1 X62.628 Y154.622 E4.00573
G1 X62.036 Y153.94 E4.02376
G1 X61.507 Y153.208 E4.04178
G1 X61.045 Y152.432 E4.0598
G1 X60.653 Y151.619 E4.07781
G1 X60.334 Y150.774 E4.09584
G1 X60.092 Y149.904 E4.11386
G1 X59.927 Y149.016 E4.13188
G1 X59.842 Y148.117 E4.1499
G1 X59.836 Y147.214 E4.16792
G1 X59.911 Y146.314 E4.18595
G1 X60.065 Y145.424 E4.20397
G1 X60.244 Y144.723 E4.21841
G1 X60.322 Y144.458 E4.22392
G1 X60.59 Y143.669 E4.24055
G1 X82.233 Y87.524 E5.44135
G1 X89.285 Y69.235 E5.83252
G1 X89.544 Y68.591 E5.84637
G1 X89.917 Y67.769 E5.86438
G1 X90.362 Y66.983 E5.88241
G1 X90.875 Y66.24 E5.90043
G1 X91.452 Y65.545 E5.91845
G1 X92.087 Y64.903 E5.93647
G1 X92.777 Y64.32 E5.9545
G1 X93.516 Y63.801 E5.97252
G1 X94.298 Y63.349 E5.99055
G1 X95.117 Y62.968 E6.00857
G1 X95.966 Y62.661 E6.02659
G1 X96.839 Y62.43 E6.04461
G1 X97.729 Y62.277 E6.06263
G1 X98.702 Y62.202 E6.08211
G1 X99.341 Y62.187 E6.09486
G1 X120.438 Y62.188 E6.51588
G1 X121.139 Y62.198 E6.52987
G0 F6000 X121.145 Y61.798
G1 F1200 X122.064 Y61.851 E6.54824
G1 X122.975 Y61.984 E6.56661
G1 X123.871 Y62.195 E6.58498
G1 X124.746 Y62.483 E6.60336
G1 X125.592 Y62.846 E6.62173
G1 X126.403 Y63.281 E6.6401
G1 X127.174 Y63.785 E6.65848
G1 X127.898 Y64.354 E6.67686
G1 X128.57 Y64.983 E6.69523
G1 X129.185 Y65.668 E6.7136
G1 X129.738 Y66.404 E6.73197
G1 X130.225 Y67.186 E6.75035
G1 X130.781 Y68.325 E6.77565
G1 X131.008 Y68.882 E6.78765
G1 X152.59 Y124.865 E7.98499
G1 X159.673 Y143.242 E8.37802
G1 X159.919 Y143.902 E8.39208
G1 X160.203 Y144.778 E8.41046
G1 X160.41 Y145.675 E8.42883
G1 X160.538 Y146.587 E8.44721
G1 X160.587 Y147.506 E8.46557
G1 X160.555 Y148.426 E8.48394
G1 X160.444 Y149.34 E8.50232
G1 X160.254 Y150.241 E8.52069
G1 X159.986 Y151.122 E8.53907
G1 X159.643 Y151.976 E8.55744
G1 X159.228 Y152.798 E8.57581
G1 X158.742 Y153.58 E8.59419
G1 X158.19 Y154.317 E8.61256
G1 X157.577 Y155.003 E8.63092
G1 X156.906 Y155.634 E8.6493
G1 X156.183 Y156.204 E8.66767
G1 X155.414 Y156.709 E8.68603
G1 X154.603 Y157.146 E8.70442
G1 X153.758 Y157.511 E8.72279
G1 X152.884 Y157.8 E8.74116
G1 X151.988 Y158.013 E8.75954
G1 X151.078 Y158.148 E8.7779
G1 X150.265 Y158.2 E8.79415
G1 X149.682 Y158.212 E8.80579
G1 X70.707 Y158.213 E10.38182
G1 X70.551 Y158.212 E10.38493
G1 X69.873 Y158.202 E10.39847
G1 X68.954 Y158.148 E10.41684
G1 X68.043 Y158.015 E10.43521
G1 X67.147 Y157.804 E10.45358
G1 X66.272 Y157.515 E10.47197
G1 X65.426 Y157.152 E10.49034
G1 X64.615 Y156.716 E10.50872
G1 X63.845 Y156.212 E10.52708
G1 X63.121 Y155.643 E10.54546
G1 X62.45 Y155.013 E10.56382
G1 X61.835 Y154.328 E10.5822
G1 X61.283 Y153.591 E10.60057
G1 X60.796 Y152.81 E10.61894
G1 X60.379 Y151.989 E10.63731
G1 X60.035 Y151.135 E10.65569
G1 X59.766 Y150.255 E10.67405
G1 X59.575 Y149.354 E10.69243
G1 X59.462 Y148.44 E10.71081
G1 X59.429 Y147.52 E10.72918
G1 X59.476 Y146.601 E10.74755
G1 X59.603 Y145.689 E10.76592
G1 X59.86 Y144.61 E10.78806
G1 X59.938 Y144.345 E10.79357
G1 X60.216 Y143.525 E10.81085
G1 X81.859 Y87.38 E12.01165
G1 X88.914 Y69.086 E12.40293
G1 X89.173 Y68.442 E12.41678
G1 X89.553 Y67.603 E12.43516
G1 X90.004 Y66.801 E12.45352
G1 X90.524 Y66.041 E12.4719
G1 X91.107 Y65.329 E12.49027
G1 X91.751 Y64.67 E12.50865
G1 X92.448 Y64.07 E12.52701
G1 X93.196 Y63.532 E12.54539
G1 X93.987 Y63.061 E12.56377
G1 X94.816 Y62.661 E12.58213
G1 X95.677 Y62.334 E12.60051
G1 X96.562 Y62.083 E12.61887
G1 X97.467 Y61.91 E12.63726
G1 X98.69 Y61.802 E12.66176
G1 X99.341 Y61.787 E12.67476
G1 X120.444 Y61.788 E13.09589
G1 X121.145 Y61.798 E13.10988
G0 F6000 X121.151 Y61.398
G1 F1200 X122.087 Y61.451 E13.12859
G1 X123.016 Y61.584 E13.14732
G1 X123.929 Y61.796 E13.16602
G1 X124.822 Y62.084 E13.18475
G1 X125.686 Y62.448 E13.20345
G1 X126.517 Y62.884 E13.22218
G1 X127.307 Y63.389 E13.24089
G1 X128.051 Y63.959 E13.2596
G1 X128.744 Y64.591 E13.27831
G1 X129.381 Y65.28 E13.29704
G1 X129.957 Y66.02 E13.31575
G1 X130.468 Y66.807 E13.33448
G1 X130.909 Y67.634 E13.35318
G1 X131.15 Y68.171 E13.36493
G1 X131.382 Y68.738 E13.37715
G1 X152.964 Y124.721 E14.5745
G1 X160.048 Y143.102 E14.96761
G1 X160.294 Y143.762 E14.98167
G1 X160.584 Y144.654 E15.00039
G1 X160.797 Y145.568 E15.01911
G1 X160.931 Y146.496 E15.03783
G1 X160.986 Y147.432 E15.05654
G1 X160.96 Y148.37 E15.07526
G1 X160.855 Y149.302 E15.09398
G1 X160.671 Y150.221 E15.11268
G1 X160.409 Y151.122 E15.13141
G1 X160.072 Y151.997 E15.15012
G1 X159.661 Y152.84 E15.16884
G1 X159.18 Y153.645 E15.18755
G1 X158.632 Y154.406 E15.20626
G1 X158.021 Y155.118 E15.22499
G1 X157.352 Y155.775 E15.2437
G1 X156.629 Y156.372 E15.26241
G1 X155.858 Y156.906 E15.28113
G1 X155.044 Y157.373 E15.29985
G1 X154.194 Y157.768 E15.31856
G1 X153.313 Y158.089 E15.33727
G1 X152.407 Y158.334 E15.356
G1 X151.484 Y158.502 E15.37472
G1 X150.275 Y158.6 E15.39893
G1 X149.682 Y158.612 E15.41077
G1 X70.707 Y158.613 E16.9868
G1 X70.545 Y158.612 E16.99003
G1 X69.867 Y158.602 E17.00356
G1 X68.93 Y158.548 E17.02229
G1 X68.002 Y158.415 E17.041
G1 X67.089 Y158.203 E17.0597
G1 X66.196 Y157.914 E17.07844
G1 X65.332 Y157.55 E17.09715
G1 X64.502 Y157.113 E17.11586
G1 X63.712 Y156.608 E17.13458
G1 X62.968 Y156.037 E17.15329
G1 X62.275 Y155.405 E17.17201
G1 X61.638 Y154.716 E17.19073
G1 X61.063 Y153.976 E17.20944
G1 X60.553 Y153.189 E17.22815
G1 X60.111 Y152.361 E17.24688
G1 X59.742 Y151.499 E17.26559
G1 X59.448 Y150.609 E17.2843
G1 X59.23 Y149.696 E17.30303
G1 X59.091 Y148.769 E17.32174
G1 X59.031 Y147.833 E17.34045
G1 X59.052 Y146.895 E17.35918
G1 X59.152 Y145.963 E17.37788
G1 X59.331 Y145.042 E17.39661
G1 X59.477 Y144.497 E17.40787
G1 X59.555 Y144.232 E17.41338
G1 X59.843 Y143.381 E17.43131
G1 X81.486 Y87.236 E18.63211
G1 X88.542 Y68.937 E19.02349
G1 X88.801 Y68.293 E19.03734
G1 X89.188 Y67.438 E19.05607
G1 X89.646 Y66.62 E19.07478
G1 X90.172 Y65.843 E19.0935
G1 X90.763 Y65.115 E19.11222
G1 X91.413 Y64.439 E19.13093
G1 X92.119 Y63.821 E19.14966
G1 X92.874 Y63.265 E19.16837
G1 X93.674 Y62.776 E19.18708
G1 X94.513 Y62.357 E19.20579
G1 X95.385 Y62.01 E19.22452
G1 X96.283 Y61.74 E19.24324
G1 X97.2 Y61.546 E19.26194
G1 X98.131 Y61.432 E19.28066
G1 X98.678 Y61.402 E19.29159
G1 X99.341 Y61.387 E19.30482
G1 X120.45 Y61.388 E19.72608
G1 X121.151 Y61.398 E19.74007
G1 F2700 E14.74007
;MESH:SideBottom.stl
G0 F6000 X120.655 Y86.35
G0 X121.998 Y85.098
G0 X119.225 Y83.706
G0 X118.759 Y83.949
G0 X118.754 Y97.534
G0 X119.706 Y110.712
G0 X118.754 Y115.206
G0 X118.48 Y131.82
;TYPE:WALL-INNER
G1 F2700 E19.74007
G1 F1200 X119.3 Y132.228 E19.75835
G1 X120.996 Y130.953 E19.80069
G1 X121.784 Y130.298 E19.82114
G1 X122.544 Y129.616 E19.84152
G1 X123.249 Y128.932 E19.86112
G1 X123.978 Y128.161 E19.88229
G1 X124.65 Y127.39 E19.9027
G1 X125.282 Y126.603 E19.92285
G1 X125.87 Y125.807 E19.94259
G1 X126.468 Y124.926 E19.96384
G1 X127.005 Y124.056 E19.98425
G1 X127.51 Y123.168 E20.00463
G1 X127.977 Y122.262 E20.02497
G1 X128.409 Y121.338 E20.04533
G1 X128.806 Y120.4 E20.06566
G1 X129.184 Y119.403 E20.08693
G1 X129.492 Y118.473 E20.10648
G1 X129.776 Y117.492 E20.12686
G1 X130.018 Y116.497 E20.1473
G1 X130.217 Y115.496 E20.16767
G1 X130.376 Y114.489 E20.18801
G1 X130.495 Y113.475 E20.20839
G1 X130.577 Y112.461 E20.22869
G1 X130.623 Y111.448 E20.24892
G1 X130.636 Y110.437 E20.2691
G1 X130.622 Y109.459 E20.28862
G1 X130.576 Y108.418 E20.30941
G1 X130.506 Y107.413 E20.32952
G1 X130.411 Y106.414 E20.34955
G1 X130.293 Y105.416 E20.3696
G1 X130.154 Y104.423 E20.38961
G1 X129.992 Y103.434 E20.40961
G1 X129.811 Y102.446 E20.42965
G1 X129.608 Y101.465 E20.44965
G1 X129.385 Y100.488 E20.46964
G1 X129.143 Y99.515 E20.48965
G1 X128.878 Y98.546 E20.5097
G1 X128.602 Y97.62 E20.52898
G1 X128.286 Y96.63 E20.54972
G1 X127.955 Y95.679 E20.56982
G1 X127.602 Y94.736 E20.58991
G1 X127.204 Y93.762 E20.61091
G1 X126.812 Y92.875 E20.63026
G1 X126.376 Y91.963 E20.65043
G1 X125.916 Y91.065 E20.67057
G1 X125.426 Y90.18 E20.69076
G1 X124.911 Y89.309 E20.71095
G1 X124.367 Y88.453 E20.73119
G1 X123.796 Y87.615 E20.75142
G1 X123.219 Y86.827 E20.77092
G1 X122.556 Y85.993 E20.79218
G1 X121.873 Y85.214 E20.81285
G1 X121.129 Y84.463 E20.83395
G1 X120.317 Y83.773 E20.85521
G1 X119.268 Y83.046 E20.88068
G1 X118.484 Y83.453 E20.89831
G1 X118.193 Y83.604 E20.90485
G1 X118.193 Y83.277 E20.90859
G1 X118.193 Y83.276 E20.90861
G1 X118.193 Y82.598 E20.92214
G1 X116.297 Y82.259 E20.96058
G1 X115.179 Y82.067 E20.98321
G1 X113.903 Y82.071 E21.00868
G1 X112.632 Y82.64 E21.03647
G1 X111.758 Y83.602 E21.06241
G1 X111.217 Y84.576 E21.08464
G1 X110.79 Y85.591 E21.10662
G1 X110.787 Y85.602 E21.10684
G1 X110.448 Y86.563 E21.12718
G1 X110.147 Y87.532 E21.14743
G1 X109.876 Y88.5 E21.16749
G1 X109.624 Y89.465 E21.18739
G1 X109.387 Y90.433 E21.20728
G1 X109.166 Y91.402 E21.22711
G1 X108.955 Y92.372 E21.24692
G1 X108.755 Y93.343 E21.26671
G1 X108.565 Y94.318 E21.28653
G1 X108.385 Y95.294 E21.30634
G1 X108.218 Y96.27 E21.3261
G1 X108.057 Y97.248 E21.34588
G1 X107.909 Y98.231 E21.36571
G1 X107.773 Y99.214 E21.38552
G1 X107.648 Y100.2 E21.40535
G1 X107.533 Y101.192 E21.42528
G1 X107.432 Y102.173 E21.44496
G1 X107.34 Y103.163 E21.4648
G1 X107.262 Y104.153 E21.48462
G1 X107.195 Y105.143 E21.50442
G1 X107.139 Y106.135 E21.52425
G1 X107.093 Y107.126 E21.54405
G1 X107.059 Y108.119 E21.56388
G1 X107.037 Y109.111 E21.58368
G1 X107.026 Y110.104 E21.6035
G1 X107.025 Y111.094 E21.62325
G1 X107.031 Y112.082 E21.64297
G1 X107.045 Y113.072 E21.66273
G1 X107.153 Y117.974 E21.76058
G1 X107.168 Y118.945 E21.77996
G1 X107.174 Y119.917 E21.79935
G1 X107.169 Y120.878 E21.81853
G1 X107.142 Y121.851 E21.83796
G1 X107.092 Y122.76 E21.85612
G1 X106.992 Y123.722 E21.87542
G1 X106.842 Y124.539 E21.892
G1 X106.597 Y125.264 E21.90727
G1 X106.27 Y125.711 E21.91833
G1 X105.868 Y125.892 E21.92712
G1 X105.329 Y125.841 E21.93793
G1 X104.631 Y125.533 E21.95315
G1 X103.994 Y125.089 E21.96865
G1 X103.36 Y124.516 E21.9857
G1 X102.736 Y123.818 E22.00439
G1 X102.197 Y123.095 E22.02238
G1 X101.728 Y122.357 E22.03983
G1 X101.289 Y121.553 E22.05811
G1 X100.88 Y120.692 E22.07714
G1 X100.524 Y119.834 E22.09567
G1 X100.221 Y119.008 E22.11323
G1 X99.907 Y118.051 E22.13333
G1 X99.643 Y117.147 E22.15212
G1 X99.395 Y116.213 E22.17141
G1 X99.169 Y115.283 E22.19051
G1 X98.962 Y114.358 E22.20942
G1 X98.765 Y113.397 E22.229
G1 X98.58 Y112.446 E22.24834
G1 X98.409 Y111.493 E22.26766
G1 X98.253 Y110.541 E22.28691
G1 X98.119 Y109.591 E22.30605
G1 X98.007 Y108.64 E22.32516
G1 X97.916 Y107.66 E22.34481
G1 X97.857 Y106.752 E22.36296
G1 X97.815 Y105.776 E22.38246
G1 X97.797 Y104.841 E22.40112
G1 X97.8 Y103.884 E22.42022
G1 X97.827 Y102.921 E22.43944
G1 X97.872 Y101.944 E22.45896
G1 X97.934 Y100.995 E22.47794
G1 X98.015 Y100.013 E22.4976
G1 X98.105 Y99.08 E22.51631
G1 X98.212 Y98.094 E22.5361
G1 X98.325 Y97.134 E22.55539
G1 X98.447 Y96.167 E22.57484
G1 X98.575 Y95.196 E22.59439
G1 X99.396 Y89.321 E22.71277
G1 X99.516 Y88.356 E22.73217
G1 X99.622 Y87.359 E22.75218
G1 X99.659 Y86.376 E22.77181
G1 X99.767 Y85.527 E22.78889
G1 X99.795 Y85.307 E22.79332
G1 X99.574 Y85.305 E22.79608
G1 X99.573 Y85.304 E22.79611
G1 X97.581 Y85.272 E22.83587
G1 X96.792 Y86.616 E22.86697
G1 X96.317 Y87.57 E22.88824
G1 X95.875 Y88.51 E22.90897
G1 X95.482 Y89.378 E22.92798
G1 X95.08 Y90.283 E22.94774
G1 X93.906 Y92.993 E23.00668
G1 X92.769 Y95.694 E23.06516
G1 X91.639 Y98.446 E23.12453
G1 X91.275 Y99.352 E23.14402
G1 X90.549 Y101.199 E23.18362
G1 X89.846 Y103.041 E23.22297
G1 X89.499 Y103.967 E23.2427
G1 X88.825 Y105.817 E23.28199
G1 X88.492 Y106.749 E23.30174
G1 X87.844 Y108.61 E23.34107
G1 X87.209 Y110.476 E23.3804
G1 X85.974 Y114.213 E23.45895
G1 X85.371 Y116.092 E23.49833
G1 X85.08 Y117.039 E23.5181
G1 X84.797 Y117.989 E23.53788
G1 X84.525 Y118.945 E23.55771
G1 X84.264 Y119.907 E23.57761
G1 X84.02 Y120.879 E23.59761
G1 X83.789 Y121.885 E23.6182
G1 X83.595 Y122.851 E23.63787
G1 X83.429 Y123.857 E23.65821
G1 X83.308 Y124.868 E23.67853
G1 X83.306 Y124.878 E23.67874
G1 X83.235 Y125.92 E23.69958
G1 X83.239 Y126.988 E23.72089
G1 X83.353 Y128.073 E23.74266
G1 X83.604 Y129.157 E23.76487
G1 X84.012 Y130.221 E23.78761
G1 X84.552 Y131.185 E23.80966
G1 X85.226 Y132.071 E23.83188
G1 X85.994 Y132.855 E23.85378
G1 X86.826 Y133.54 E23.87528
G1 X87.725 Y134.155 E23.89702
G1 X88.59 Y134.67 E23.91711
G1 X89.502 Y135.155 E23.93772
G1 X90.402 Y135.597 E23.95773
G1 X91.329 Y136.013 E23.97801
G1 X92.272 Y136.396 E23.99832
G1 X93.234 Y136.744 E24.01874
G1 X94.209 Y137.052 E24.03914
G1 X95.199 Y137.318 E24.0596
G1 X96.201 Y137.541 E24.08008
G1 X97.214 Y137.716 E24.1006
G1 X98.232 Y137.844 E24.12107
G1 X99.256 Y137.926 E24.14157
G1 X100.276 Y137.964 E24.16194
G1 X101.294 Y137.965 E24.18226
G1 X102.298 Y137.926 E24.20231
G1 X103.325 Y137.85 E24.22286
G1 X104.372 Y137.739 E24.24387
G1 X105.337 Y137.604 E24.26332
G1 X106.332 Y137.434 E24.28346
G1 X107.362 Y137.229 E24.30442
G1 X108.28 Y137.019 E24.32321
G1 X109.284 Y136.76 E24.3439
G1 X110.29 Y136.467 E24.36481
G1 X111.217 Y136.169 E24.38425
G1 X112.167 Y135.834 E24.40435
G1 X113.111 Y135.471 E24.42453
G1 X114.043 Y135.081 E24.44469
G1 X114.964 Y134.664 E24.46487
G1 X115.874 Y134.217 E24.4851
G1 X116.962 Y133.637 E24.50971
G1 X118.193 Y132.934 E24.538
G1 X118.193 Y132 E24.55664
G1 X118.193 Y131.679 E24.56304
G1 X118.191 Y116.927 E24.85743
G1 X118.101 Y116.488 E24.86638
G1 X118.032 Y116.084 E24.87456
G1 X117.957 Y115.581 E24.8847
G1 X117.903 Y115.169 E24.893
G1 X117.89 Y115.073 E24.89493
G1 X117.864 Y114.838 E24.89965
G1 X117.771 Y113.995 E24.91657
G1 X117.575 Y111.876 E24.95904
G1 X117.424 Y109.969 E24.99722
G1 X117.359 Y109.071 E25.01518
G1 X117.19 Y106.381 E25.06897
G1 X117.087 Y104.504 E25.10648
G1 X117.004 Y102.639 E25.14374
