;FLAVOR:Marlin
;TIME:5123
;Filament used: 3.47077m
;Layer height: 0.12
;MINX:59.012
;MINY:22.746
;MINZ:0.12
;MAXX:160.981
;MAXY:197.255
;MAXZ:3.96
;Generated with Cura_SteamEngine 4.6.1
M140 S52
M105
M190 S52
M104 S203
M105
M109 S203
M82 ;absolute extrusion mode
M201 X500.00 Y500.00 Z100.00 E5000.00 ;Setup machine max acceleration
M203 X500.00 Y500.00 Z10.00 E50.00 ;Setup machine max feedrate
M204 P500.00 R1000.00 T500.00 ;Setup Print/Retract/Travel acceleration
M205 X8.00 Y8.00 Z0.40 E5.00 ;Setup Jerk
M220 S100 ;Reset Feedrate
M221 S100 ;Reset Flowrate

G28 ;Home

G92 E0 ;Reset Extruder
G1 Z2.0 F3000 ;Move Z Axis up
G1 X10.1 Y20 Z0.28 F5000.0 ;Move to start position
G1 X10.1 Y200.0 Z0.28 F1500.0 E15 ;Draw the first line
G1 X10.4 Y200.0 Z0.28 F5000.0 ;Move to side a little
G1 X10.4 Y20 Z0.28 F1500.0 E30 ;Draw the second line
G92 E0 ;Reset Extruder
G1 Z2.0 F3000 ;Move Z Axis up

G92 E0
G92 E0
G1 F2700 E-5
;LAYER_COUNT:33
;LAYER:0
M107
G0 F6000 X150.131 Y23.557 Z0.12
;TYPE:SKIRT
G1 F2700 E0
G1 F1200 X151.032 Y23.61 E0.01801
G1 X151.926 Y23.743 E0.03605
G1 X152.804 Y23.954 E0.05407
G1 X153.66 Y24.242 E0.07209
G1 X154.487 Y24.604 E0.09011
G1 X155.279 Y25.038 E0.10813
G1 X156.029 Y25.541 E0.12615
G1 X156.732 Y26.108 E0.14418
G1 X157.382 Y26.735 E0.1622
G1 X157.974 Y27.417 E0.18022
G1 X158.503 Y28.149 E0.19824
G1 X158.966 Y28.924 E0.21626
G1 X159.358 Y29.738 E0.23429
G1 X159.677 Y30.583 E0.25231
G1 X159.92 Y31.453 E0.27034
G1 X160.084 Y32.341 E0.28836
G1 X160.17 Y33.24 E0.30638
G1 X160.176 Y34.143 E0.3244
G1 X160.035 Y35.488 E0.35139
G1 X159.865 Y36.463 E0.37114
G1 X150.844 Y83.899 E1.33474
G1 X142.553 Y127.512 E2.22068
G1 X131.124 Y187.613 E3.44155
G1 X130.989 Y188.277 E3.45507
G1 X130.77 Y189.153 E3.47309
G1 X130.474 Y190.007 E3.49113
G1 X130.104 Y190.831 E3.50915
G1 X129.663 Y191.619 E3.52718
G1 X129.153 Y192.364 E3.54519
G1 X128.58 Y193.062 E3.56321
G1 X127.947 Y193.707 E3.58125
G1 X127.26 Y194.292 E3.59926
G1 X126.524 Y194.815 E3.61727
G1 X125.744 Y195.271 E3.6353
G1 X124.927 Y195.656 E3.65333
G1 X124.079 Y195.967 E3.67135
G1 X123.207 Y196.202 E3.68938
G1 X122.318 Y196.359 E3.70739
G1 X121.155 Y196.444 E3.73066
G1 X120.362 Y196.455 E3.74649
G1 X99.561 Y196.454 E4.1616
G1 X98.863 Y196.444 E4.17553
G1 X97.961 Y196.391 E4.19356
G1 X97.068 Y196.259 E4.21157
G1 X96.19 Y196.048 E4.22959
G1 X95.334 Y195.76 E4.24762
G1 X94.507 Y195.398 E4.26563
G1 X93.715 Y194.963 E4.28366
G1 X92.964 Y194.461 E4.30169
G1 X92.261 Y193.894 E4.31971
G1 X91.611 Y193.267 E4.33774
G1 X91.019 Y192.585 E4.35576
G1 X90.489 Y191.854 E4.37378
G1 X90.027 Y191.078 E4.3918
G1 X89.634 Y190.265 E4.40982
G1 X89.316 Y189.42 E4.42784
G1 X89.019 Y188.303 E4.4509
G1 X88.859 Y187.519 E4.46687
G1 X71.07 Y93.96 E6.36739
G1 X70.847 Y92.796 E6.39104
G1 X60.07 Y36.12 E7.54234
G1 X59.965 Y35.521 E7.55448
G1 X59.849 Y34.626 E7.57249
G1 X59.812 Y33.723 E7.59052
G1 X59.855 Y32.821 E7.60854
G1 X59.978 Y31.926 E7.62657
G1 X60.18 Y31.046 E7.64459
G1 X60.458 Y30.187 E7.66261
G1 X60.812 Y29.356 E7.68063
G1 X61.237 Y28.559 E7.69866
G1 X61.732 Y27.804 E7.71667
G1 X62.291 Y27.095 E7.73469
G1 X62.911 Y26.438 E7.75272
G1 X63.586 Y25.838 E7.77074
G1 X64.312 Y25.301 E7.78876
G1 X65.083 Y24.83 E7.80679
G1 X65.892 Y24.429 E7.82481
G1 X66.734 Y24.101 E7.84284
G1 X67.601 Y23.849 E7.86086
G1 X68.487 Y23.675 E7.87888
G1 X69.385 Y23.579 E7.8969
G1 X69.841 Y23.561 E7.90601
G1 X70.845 Y23.546 E7.92605
G1 X149.293 Y23.546 E9.49156
G1 X149.441 Y23.547 E9.49452
G1 X150.131 Y23.557 E9.50829
G0 F6000 X150.137 Y23.157
G1 F1200 X151.056 Y23.21 E9.52666
G1 X151.967 Y23.343 E9.54503
G1 X152.863 Y23.555 E9.56341
G1 X153.737 Y23.843 E9.58177
G1 X154.583 Y24.206 E9.60014
G1 X155.394 Y24.641 E9.61851
G1 X156.165 Y25.145 E9.63689
G1 X156.889 Y25.714 E9.65526
G1 X157.561 Y26.344 E9.67365
G1 X158.175 Y27.029 E9.692
G1 X158.728 Y27.765 E9.71038
G1 X159.215 Y28.547 E9.72876
G1 X159.632 Y29.368 E9.74714
G1 X159.976 Y30.221 E9.76549
G1 X160.245 Y31.102 E9.78387
G1 X160.437 Y32.002 E9.80224
G1 X160.55 Y32.916 E9.82062
G1 X160.583 Y33.836 E9.83899
G1 X160.536 Y34.756 E9.85737
G1 X160.429 Y35.556 E9.87348
G1 X160.258 Y36.537 E9.89335
G1 X151.237 Y83.973 E10.85695
G1 X142.946 Y127.586 E11.74289
G1 X131.515 Y187.693 E12.96388
G1 X131.38 Y188.357 E12.97741
G1 X131.158 Y189.25 E12.99577
G1 X130.859 Y190.121 E13.01415
G1 X130.485 Y190.962 E13.03252
G1 X130.04 Y191.768 E13.05089
G1 X129.527 Y192.533 E13.06927
G1 X128.949 Y193.249 E13.08763
G1 X128.311 Y193.913 E13.10601
G1 X127.618 Y194.519 E13.12438
G1 X126.875 Y195.063 E13.14276
G1 X126.088 Y195.54 E13.16112
G1 X125.262 Y195.947 E13.1795
G1 X124.404 Y196.281 E13.19787
G1 X123.52 Y196.539 E13.21625
G1 X122.618 Y196.72 E13.23461
G1 X121.703 Y196.821 E13.25298
G1 X121.161 Y196.844 E13.26381
G1 X120.362 Y196.855 E13.27975
G1 X99.555 Y196.854 E13.69498
G1 X98.857 Y196.844 E13.70891
G1 X97.938 Y196.791 E13.72728
G1 X97.027 Y196.658 E13.74565
G1 X96.131 Y196.447 E13.76402
G1 X95.257 Y196.159 E13.78239
G1 X94.41 Y195.796 E13.80078
G1 X93.599 Y195.361 E13.81914
G1 X92.829 Y194.857 E13.83751
G1 X92.105 Y194.288 E13.85588
G1 X91.433 Y193.658 E13.87426
G1 X90.818 Y192.973 E13.89264
G1 X90.265 Y192.237 E13.91101
G1 X89.778 Y191.456 E13.92937
G1 X89.361 Y190.635 E13.94775
G1 X89.016 Y189.781 E13.96613
G1 X88.747 Y188.901 E13.98449
G1 X88.627 Y188.384 E13.99509
G1 X88.466 Y187.594 E14.01118
G1 X70.677 Y94.035 E15.9117
G1 X70.454 Y92.871 E15.93535
G1 X59.676 Y36.189 E17.08677
G1 X59.571 Y35.59 E17.0989
G1 X59.452 Y34.677 E17.11728
G1 X59.412 Y33.758 E17.13563
G1 X59.452 Y32.838 E17.15401
G1 X59.572 Y31.925 E17.17239
G1 X59.771 Y31.026 E17.19076
G1 X60.047 Y30.148 E17.20913
G1 X60.398 Y29.297 E17.2275
G1 X60.821 Y28.479 E17.24588
G1 X61.314 Y27.701 E17.26426
G1 X61.873 Y26.97 E17.28262
G1 X62.492 Y26.289 E17.30099
G1 X63.169 Y25.665 E17.31936
G1 X63.897 Y25.101 E17.33774
G1 X64.672 Y24.603 E17.35612
G1 X65.486 Y24.175 E17.37447
G1 X66.335 Y23.818 E17.39285
G1 X67.212 Y23.537 E17.41123
G1 X68.109 Y23.332 E17.42959
G1 X69.021 Y23.206 E17.44797
G1 X69.834 Y23.161 E17.46422
G1 X70.845 Y23.146 E17.48439
G1 X149.293 Y23.146 E19.04991
G1 X149.447 Y23.147 E19.05298
G1 X150.137 Y23.157 E19.06675
G0 F6000 X150.142 Y22.757
G1 F1200 X151.079 Y22.811 E19.08548
G1 X152.007 Y22.944 E19.10419
G1 X152.921 Y23.156 E19.12291
G1 X153.813 Y23.444 E19.14162
G1 X154.678 Y23.808 E19.16035
G1 X155.508 Y24.244 E19.17906
G1 X156.298 Y24.749 E19.19777
G1 X157.042 Y25.32 E19.21649
G1 X157.735 Y25.952 E19.2352
G1 X158.372 Y26.641 E19.25393
G1 X158.947 Y27.381 E19.27263
G1 X159.458 Y28.168 E19.29136
G1 X159.899 Y28.995 E19.31006
G1 X160.269 Y29.857 E19.32878
G1 X160.564 Y30.748 E19.34751
G1 X160.781 Y31.66 E19.36622
G1 X160.921 Y32.587 E19.38493
G1 X160.981 Y33.523 E19.40364
G1 X160.96 Y34.461 E19.42237
G1 X160.823 Y35.624 E19.44574
G1 X160.651 Y36.612 E19.46575
G1 X151.63 Y84.048 E20.42935
G1 X143.339 Y127.661 E21.31528
G1 X131.907 Y187.773 E22.53638
G1 X131.772 Y188.437 E22.54991
G1 X131.547 Y189.347 E22.56861
G1 X131.244 Y190.235 E22.58734
G1 X130.867 Y191.093 E22.60604
G1 X130.418 Y191.917 E22.62477
G1 X129.901 Y192.699 E22.64347
G1 X129.318 Y193.434 E22.6622
G1 X128.676 Y194.117 E22.6809
G1 X127.977 Y194.743 E22.69963
G1 X127.228 Y195.307 E22.71834
G1 X126.433 Y195.805 E22.73706
G1 X125.599 Y196.234 E22.75578
G1 X124.732 Y196.59 E22.77448
G1 X123.837 Y196.871 E22.7932
G1 X122.921 Y197.075 E22.81193
G1 X121.992 Y197.2 E22.83063
G1 X121.167 Y197.244 E22.84712
G1 X120.362 Y197.255 E22.86319
G1 X99.549 Y197.254 E23.27853
G1 X98.851 Y197.244 E23.29246
G1 X97.915 Y197.19 E23.31117
G1 X96.987 Y197.058 E23.32988
G1 X96.073 Y196.846 E23.3486
G1 X95.181 Y196.557 E23.36731
G1 X94.316 Y196.194 E23.38604
G1 X93.486 Y195.758 E23.40474
G1 X92.695 Y195.253 E23.42347
G1 X91.951 Y194.682 E23.44219
G1 X91.258 Y194.05 E23.46091
G1 X90.621 Y193.362 E23.47962
G1 X90.046 Y192.621 E23.49833
G1 X89.535 Y191.835 E23.51704
G1 X89.093 Y191.007 E23.53577
G1 X88.724 Y190.145 E23.55449
G1 X88.429 Y189.255 E23.5732
G1 X88.235 Y188.465 E23.58943
G1 X88.073 Y187.669 E23.60564
G1 X70.284 Y94.11 E25.50616
G1 X70.061 Y92.946 E25.52981
G1 X59.282 Y36.258 E26.68135
G1 X59.177 Y35.659 E26.69349
G1 X59.055 Y34.729 E26.71221
G1 X59.012 Y33.793 E26.73091
G1 X59.049 Y32.855 E26.74964
G1 X59.166 Y31.925 E26.76834
G1 X59.362 Y31.008 E26.78706
G1 X59.635 Y30.11 E26.80579
G1 X59.984 Y29.24 E26.82449
G1 X60.405 Y28.402 E26.84321
G1 X60.897 Y27.603 E26.86193
G1 X61.454 Y26.849 E26.88064
G1 X62.074 Y26.145 E26.89936
G1 X62.751 Y25.497 E26.91806
G1 X63.482 Y24.908 E26.9368
G1 X64.26 Y24.384 E26.95552
G1 X65.079 Y23.928 E26.97422
G1 X65.935 Y23.544 E26.99295
G1 X66.82 Y23.233 E27.01167
G1 X67.728 Y23 E27.03037
G1 X68.653 Y22.844 E27.04909
G1 X69.827 Y22.762 E27.07258
G1 X70.845 Y22.746 E27.0929
G1 X149.293 Y22.746 E28.65841
G1 X149.452 Y22.747 E28.66158
G1 X150.142 Y22.757 E28.67536
G1 F2700 E23.67536
;MESH:SideTop.stl
G0 F6000 X130.295 Y90.326
G0 X132.132 Y90.579
G0 X122.557 Y132.821
;TYPE:WALL-INNER
G1 F2700 E28.67536
G1 F1200 X123.49 Y129.386 E28.74639
G1 X124.065 Y127.244 E28.79065
G1 X124.624 Y125.118 E28.83452
G1 X125.529 Y121.609 E28.90683
G1 X126.075 Y119.437 E28.95153
G1 X126.781 Y116.571 E29.01043
G1 X127.466 Y113.707 E29.0692
G1 X127.807 Y112.25 E29.09906
G1 X128.135 Y110.814 E29.12845
G1 X128.769 Y107.965 E29.1867
G1 X129.076 Y106.523 E29.21612
G1 X129.384 Y105.083 E29.24551
G1 X129.68 Y103.637 E29.27496
G1 X129.977 Y102.145 E29.30532
G1 X130.25 Y100.744 E29.33381
G1 X130.523 Y99.296 E29.36321
G1 X130.787 Y97.844 E29.39266
G1 X131.04 Y96.391 E29.42209
G1 X131.284 Y94.936 E29.45154
G1 X131.517 Y93.476 E29.48104
G1 X131.738 Y92.016 E29.51051
G1 X131.943 Y90.553 E29.53999
G1 X132.141 Y89.063 E29.56999
G1 X132.319 Y87.595 E29.5995
G1 X132.479 Y86.147 E29.62857
G1 X132.622 Y84.675 E29.65808
G1 X132.75 Y83.2 E29.68763
G1 X132.859 Y81.691 E29.71782
G1 X132.947 Y80.219 E29.74725
G1 X133.017 Y78.739 E29.77682
G1 X133.064 Y77.282 E29.80591
G1 X133.094 Y75.8 E29.83549
G1 X133.104 Y74.319 E29.86504
G1 X133.097 Y72.837 E29.89462
G1 X133.068 Y71.333 E29.92464
G1 X133.023 Y69.854 E29.95417
G1 X132.962 Y68.399 E29.98323
G1 X132.881 Y66.919 E30.01281
G1 X132.785 Y65.444 E30.04231
G1 X132.67 Y63.933 E30.07255
G1 X132.532 Y62.462 E30.10203
G1 X132.365 Y60.982 E30.13175
G1 X132.168 Y59.523 E30.16113
G1 X131.92 Y58.042 E30.1911
G1 X131.62 Y56.566 E30.22116
G1 X131.255 Y55.092 E30.25146
G1 X130.804 Y53.632 E30.28195
G1 X130.244 Y52.166 E30.31327
G1 X129.559 Y50.757 E30.34454
G1 X128.716 Y49.422 E30.37605
G1 X127.642 Y48.154 E30.40921
G1 X126.426 Y47.119 E30.44107
G1 X125.052 Y46.277 E30.47323
G1 X123.615 Y45.646 E30.50455
G1 X122.118 Y45.178 E30.53585
G1 X120.58 Y44.844 E30.56726
G1 X120.566 Y44.843 E30.56754
G1 X119.019 Y44.624 E30.59872
G1 X117.575 Y44.502 E30.62764
G1 X116.074 Y44.433 E30.65762
G1 X114.564 Y44.408 E30.68776
G1 X113.077 Y44.412 E30.71744
G1 X111.619 Y44.433 E30.74654
G1 X110.135 Y44.473 E30.77616
G1 X108.644 Y44.545 E30.80595
G1 X107.154 Y44.651 E30.83576
G1 X105.665 Y44.804 E30.86563
G1 X104.131 Y45.012 E30.89652
G1 X102.687 Y45.263 E30.92577
G1 X101.26 Y45.569 E30.9549
G1 X99.751 Y45.957 E30.98599
G1 X98.303 Y46.398 E31.0162
G1 X96.88 Y46.897 E31.04629
G1 X95.477 Y47.454 E31.07641
G1 X94.095 Y48.071 E31.10662
G1 X92.721 Y48.756 E31.13726
G1 X91.394 Y49.502 E31.16764
G1 X90.081 Y50.345 E31.19877
G1 X88.873 Y51.248 E31.22887
G1 X87.697 Y52.341 E31.26091
G1 X86.692 Y53.64 E31.29369
G1 X86.036 Y55.54 E31.3338
G1 X86.522 Y57.392 E31.37201
G1 X87.777 Y58.776 E31.40929
G1 X89.084 Y59.704 E31.44128
G1 X90.451 Y60.479 E31.47264
G1 X91.766 Y61.133 E31.50195
G1 X93.141 Y61.766 E31.53216
G1 X94.511 Y62.367 E31.56201
G1 X95.854 Y62.958 E31.59129
G1 X97.193 Y63.553 E31.62053
G1 X98.512 Y64.161 E31.64952
G1 X99.834 Y64.81 E31.67891
G1 X101.048 Y65.462 E31.70641
G1 X102.26 Y66.187 E31.73459
G1 X103.485 Y67.003 E31.76396
G1 X104.575 Y67.812 E31.79105
G1 X105.692 Y68.726 E31.81985
G1 X106.783 Y69.709 E31.84916
G1 X107.772 Y70.681 E31.87683
G1 X108.745 Y71.715 E31.90517
G1 X109.709 Y72.807 E31.93424
G1 X110.628 Y73.9 E31.96273
G1 X111.56 Y75.054 E31.99234
G1 X112.461 Y76.2 E32.02143
G1 X113.346 Y77.349 E32.05037
G1 X114.181 Y78.469 E32.07825
G1 X115.048 Y79.689 E32.10812
G1 X115.832 Y80.857 E32.13619
G1 X116.622 Y82.115 E32.16583
G1 X117.324 Y83.328 E32.1938
G1 X117.986 Y84.584 E32.22214
G1 X118.609 Y85.892 E32.25105
G1 X119.149 Y87.166 E32.27866
G1 X119.645 Y88.499 E32.30704
G1 X120.081 Y89.857 E32.33551
G1 X120.473 Y91.288 E32.36512
G1 X120.782 Y92.653 E32.39305
G1 X121.04 Y94.053 E32.42146
G1 X121.243 Y95.538 E32.45137
G1 X121.357 Y96.842 E32.47749
G1 X121.406 Y98.285 E32.5063
G1 X121.358 Y99.678 E32.53412
G1 X121.199 Y100.994 E32.56057
G1 X120.868 Y102.292 E32.5873
G1 X120.374 Y103.273 E32.60922
G1 X119.579 Y103.96 E32.63019
G1 X118.467 Y104.264 E32.65319
G1 X117.246 Y104.271 E32.67756
G1 X115.89 Y104.104 E32.70483
G1 X114.465 Y103.845 E32.73373
G1 X113.034 Y103.562 E32.76284
G1 X111.55 Y103.295 E32.79293
G1 X110.091 Y103.103 E32.8223
G1 X108.447 Y103.025 E32.85514
G1 X106.867 Y103.123 E32.88673
G1 X105.272 Y103.416 E32.91909
G1 X103.805 Y103.878 E32.94979
G1 X102.358 Y104.548 E32.98161
G1 X101.01 Y105.392 E33.01335
G1 X99.754 Y106.407 E33.04557
G1 X98.67 Y107.495 E33.07622
G1 X97.68 Y108.694 E33.10725
G1 X96.821 Y109.929 E33.13727
G1 X96.021 Y111.302 E33.16899
G1 X95.333 Y112.712 E33.20029
G1 X94.766 Y114.107 E33.23035
G1 X94.282 Y115.559 E33.26089
G1 X93.904 Y116.972 E33.29008
G1 X93.9 Y116.984 E33.29033
G1 X93.58 Y118.528 E33.3218
G1 X93.354 Y120.032 E33.35215
G1 X93.204 Y121.568 E33.38295
G1 X93.132 Y123.081 E33.41317
G1 X93.126 Y124.565 E33.44279
G1 X93.168 Y126.064 E33.47272
G1 X93.257 Y127.559 E33.5026
G1 X93.382 Y129.043 E33.53232
G1 X93.542 Y130.586 E33.56328
G1 X93.809 Y132.821 E33.6082
G1 X94.328 Y136.38 E33.67997
G1 X95.228 Y142.181 E33.79712
G1 X95.897 Y146.539 E33.88511
G1 X96.134 Y148.041 E33.91546
G1 X96.365 Y149.452 E33.94399
G1 X96.61 Y150.907 E33.97343
G1 X96.864 Y152.36 E34.00287
G1 X97.131 Y153.81 E34.03229
G1 X97.412 Y155.261 E34.06179
G1 X97.704 Y156.712 E34.09132
G1 X98.012 Y158.158 E34.12083
G1 X98.347 Y159.655 E34.15144
G1 X98.675 Y161.044 E34.17992
G1 X99.012 Y162.41 E34.208
G1 X99.399 Y163.907 E34.23886
G1 X99.776 Y165.288 E34.26742
G1 X100.186 Y166.707 E34.2969
G1 X100.625 Y168.144 E34.32688
G1 X101.112 Y169.609 E34.35769
G1 X101.633 Y171.025 E34.3878
G1 X102.233 Y172.444 E34.41855
G1 X103.026 Y173.917 E34.45193
G1 X104.395 Y175.4 E34.49221
G1 X106.629 Y175.375 E34.53679
G1 X108.046 Y174.106 E34.57475
G1 X108.991 Y172.788 E34.60712
G1 X109.77 Y171.447 E34.63807
G1 X110.453 Y170.102 E34.66817
G1 X111.084 Y168.737 E34.69818
G1 X111.67 Y167.362 E34.72801
G1 X112.222 Y165.978 E34.75774
G1 X112.746 Y164.591 E34.78733
G1 X113.25 Y163.197 E34.81691
G1 X113.736 Y161.798 E34.84647
G1 X114.201 Y160.416 E34.87557
G1 X114.666 Y158.998 E34.90535
G1 X115.793 Y155.488 E34.97891
G1 X116.462 Y153.369 E35.02326
G1 X117.119 Y151.263 E35.06728
G1 X118.393 Y147.116 E35.15386
G1 X119.663 Y142.89 E35.24192
G1 X120.299 Y140.734 E35.28678
G1 X120.891 Y138.698 E35.32909
G1 X121.522 Y136.496 E35.3748
G1 X122.567 Y132.821 E35.45105
G1 X122.557 Y132.821 E35.45125
G0 F6000 X122.251 Y132.421
G1 F1200 X123.104 Y129.282 E35.51616
G1 X123.678 Y127.141 E35.5604
G1 X124.237 Y125.017 E35.60423
G1 X125.141 Y121.51 E35.6765
G1 X125.687 Y119.34 E35.72116
G1 X126.392 Y116.477 E35.78
G1 X127.077 Y113.615 E35.83872
G1 X127.417 Y112.16 E35.86854
G1 X127.745 Y110.726 E35.8979
G1 X128.378 Y107.879 E35.9561
G1 X128.688 Y106.44 E35.98548
G1 X128.992 Y105.001 E36.01483
G1 X129.288 Y103.558 E36.04422
G1 X129.585 Y102.068 E36.07454
G1 X129.857 Y100.669 E36.10298
G1 X130.13 Y99.223 E36.13235
G1 X130.393 Y97.774 E36.16174
G1 X130.646 Y96.324 E36.19111
G1 X130.889 Y94.871 E36.22051
G1 X131.122 Y93.415 E36.24994
G1 X131.342 Y91.958 E36.27934
G1 X131.547 Y90.499 E36.30875
G1 X131.744 Y89.013 E36.33866
G1 X131.922 Y87.549 E36.36809
G1 X132.081 Y86.106 E36.39706
G1 X132.224 Y84.638 E36.4265
G1 X132.351 Y83.168 E36.45594
G1 X132.46 Y81.665 E36.48601
