;FLAVOR:Marlin
;TIME:2606
;Filament used: 2.18441m
;Layer height: 0.16
;MINX:59.031
;MINY:61.387
;MINZ:0.2
;MAXX:160.986
;MAXY:158.613
;MAXZ:3.88
;Generated with Cura_SteamEngine 4.6.1
M140 S55
M105
M190 S55
M104 S205
M105
M109 S205
M82 ;absolute extrusion mode
M201 X500.00 Y500.00 Z100.00 E5000.00 ;Setup machine max acceleration
M203 X500.00 Y500.00 Z10.00 E50.00 ;Setup machine max feedrate
M204 P500.00 R1000.00 T500.00 ;Setup Print/Retract/Travel acceleration
M205 X8.00 Y8.00 Z0.40 E5.00 ;Setup Jerk
M220 S100 ;Reset Feedrate
M221 S100 ;Reset Flowrate

G28 ;Home

G92 E0 ;Reset Extruder
G1 Z2.0 F3000 ;Move Z Axis up
G1 X10.1 Y20 Z0.28 F5000.0 ;Move to start position
G1 X10.1 Y200.0 Z0.28 F1500.0 E15 ;Draw the first line
G1 X10.4 Y200.0 Z0.28 F5000.0 ;Move to side a little
G1 X10.4 Y20 Z0.28 F1500.0 E30 ;Draw the second line
G92 E0 ;Reset Extruder
G1 Z2.0 F3000 ;Move Z Axis up

G92 E0
G92 E0
G1 F2700 E-5
;LAYER_COUNT:21
;LAYER:0
M107
G0 F6000 X121.139 Y62.198 Z0.2
;TYPE:SKIRT
G1 F2700 E0
G1 F1200 X122.041 Y62.251 E0.03005
G1 X122.934 Y62.383 E0.06008
G1 X123.813 Y62.594 E0.09014
G1 X124.669 Y62.882 E0.12018
G1 X125.496 Y63.244 E0.15021
G1 X126.288 Y63.678 E0.18025
G1 X127.038 Y64.181 E0.21028
G1 X127.741 Y64.748 E0.24032
G1 X128.391 Y65.374 E0.27033
G1 X128.984 Y66.056 E0.30039
G1 X129.513 Y66.788 E0.33043
G1 X129.976 Y67.563 E0.36046
G1 X130.411 Y68.478 E0.39416
G1 X130.635 Y69.026 E0.41385
G1 X152.217 Y125.009 E2.40942
G1 X159.299 Y143.382 E3.06433
G1 X159.545 Y144.042 E3.08776
G1 X159.822 Y144.901 E3.11778
G1 X160.023 Y145.782 E3.14784
G1 X160.145 Y146.676 E3.17785
G1 X160.187 Y147.578 E3.20788
G1 X160.149 Y148.481 E3.23794
G1 X160.032 Y149.376 E3.26796
G1 X159.836 Y150.258 E3.29801
G1 X159.562 Y151.119 E3.32806
G1 X159.214 Y151.952 E3.35809
G1 X158.793 Y152.751 E3.38813
G1 X158.303 Y153.51 E3.41818
G1 X157.749 Y154.222 E3.44818
G1 X157.133 Y154.883 E3.47823
G1 X156.461 Y155.486 E3.50826
G1 X155.738 Y156.028 E3.53832
G1 X154.971 Y156.504 E3.56834
G1 X154.164 Y156.91 E3.59839
G1 X153.324 Y157.243 E3.62844
G1 X152.459 Y157.5 E3.65845
G1 X151.574 Y157.68 E3.68849
G1 X150.254 Y157.8 E3.73258
G1 X149.682 Y157.812 E3.75161
G1 X70.707 Y157.813 E6.37832
G1 X70.557 Y157.812 E6.38331
G1 X69.879 Y157.802 E6.40587
G1 X68.977 Y157.749 E6.43592
G1 X68.084 Y157.616 E6.46595
G1 X67.206 Y157.404 E6.49599
G1 X66.35 Y157.116 E6.52603
G1 X65.523 Y156.754 E6.55605
G1 X64.731 Y156.319 E6.58611
G1 X63.981 Y155.816 E6.61614
G1 X63.278 Y155.249 E6.64618
G1 X62.628 Y154.622 E6.67622
G1 X62.036 Y153.94 E6.70626
G1 X61.507 Y153.208 E6.7363
G1 X61.045 Y152.432 E6.76633
G1 X60.653 Y151.619 E6.79635
G1 X60.334 Y150.774 E6.8264
G1 X60.092 Y149.904 E6.85643
G1 X59.927 Y149.016 E6.88647
G1 X59.842 Y148.117 E6.91651
G1 X59.836 Y147.214 E6.94654
G1 X59.911 Y146.314 E6.97658
G1 X60.065 Y145.424 E7.00662
G1 X60.244 Y144.723 E7.03068
G1 X60.322 Y144.458 E7.03987
G1 X60.59 Y143.669 E7.06758
G1 X82.233 Y87.524 E9.06892
G1 X89.285 Y69.235 E9.72086
G1 X89.544 Y68.591 E9.74395
G1 X89.917 Y67.769 E9.77397
G1 X90.362 Y66.983 E9.80402
G1 X90.875 Y66.24 E9.83405
G1 X91.452 Y65.545 E9.86409
G1 X92.087 Y64.903 E9.89412
G1 X92.777 Y64.32 E9.92417
G1 X93.516 Y63.801 E9.9542
G1 X94.298 Y63.349 E9.98425
G1 X95.117 Y62.968 E10.01429
G1 X95.966 Y62.661 E10.04432
G1 X96.839 Y62.43 E10.07435
G1 X97.729 Y62.277 E10.10439
G1 X98.702 Y62.202 E10.13685
G1 X99.341 Y62.187 E10.1581
G1 X120.438 Y62.188 E10.85979
G1 X121.139 Y62.198 E10.88311
G0 F6000 X121.145 Y61.798
G1 F1200 X122.064 Y61.851 E10.91373
G1 X122.975 Y61.984 E10.94435
G1 X123.871 Y62.195 E10.97497
G1 X124.746 Y62.483 E11.0056
G1 X125.592 Y62.846 E11.03622
G1 X126.403 Y63.281 E11.06683
G1 X127.174 Y63.785 E11.09747
G1 X127.898 Y64.354 E11.1281
G1 X128.57 Y64.983 E11.15871
G1 X129.185 Y65.668 E11.18933
G1 X129.738 Y66.404 E11.21995
G1 X130.225 Y67.186 E11.25059
G1 X130.781 Y68.325 E11.29274
G1 X131.008 Y68.882 E11.31275
G1 X152.59 Y124.865 E13.30832
G1 X159.673 Y143.242 E13.96337
G1 X159.919 Y143.902 E13.9868
G1 X160.203 Y144.778 E14.01743
G1 X160.41 Y145.675 E14.04805
G1 X160.538 Y146.587 E14.07868
G1 X160.587 Y147.506 E14.10929
G1 X160.555 Y148.426 E14.13991
G1 X160.444 Y149.34 E14.17053
G1 X160.254 Y150.241 E14.20116
G1 X159.986 Y151.122 E14.23178
G1 X159.643 Y151.976 E14.26239
G1 X159.228 Y152.798 E14.29302
G1 X158.742 Y153.58 E14.32364
G1 X158.19 Y154.317 E14.35427
G1 X157.577 Y155.003 E14.38487
G1 X156.906 Y155.634 E14.4155
G1 X156.183 Y156.204 E14.44612
G1 X155.414 Y156.709 E14.47672
G1 X154.603 Y157.146 E14.50736
G1 X153.758 Y157.511 E14.53798
G1 X152.884 Y157.8 E14.5686
G1 X151.988 Y158.013 E14.59923
G1 X151.078 Y158.148 E14.62983
G1 X150.265 Y158.2 E14.65692
G1 X149.682 Y158.212 E14.67632
G1 X70.707 Y158.213 E17.30304
G1 X70.551 Y158.212 E17.30822
G1 X69.873 Y158.202 E17.33078
G1 X68.954 Y158.148 E17.3614
G1 X68.043 Y158.015 E17.39202
G1 X67.147 Y157.804 E17.42263
G1 X66.272 Y157.515 E17.45328
G1 X65.426 Y157.152 E17.4839
G1 X64.615 Y156.716 E17.51453
G1 X63.845 Y156.212 E17.54513
G1 X63.121 Y155.643 E17.57576
G1 X62.45 Y155.013 E17.60637
G1 X61.835 Y154.328 E17.63699
G1 X61.283 Y153.591 E17.66762
G1 X60.796 Y152.81 E17.69823
G1 X60.379 Y151.989 E17.72886
G1 X60.035 Y151.135 E17.75948
G1 X59.766 Y150.255 E17.79009
G1 X59.575 Y149.354 E17.82072
G1 X59.462 Y148.44 E17.85135
G1 X59.429 Y147.52 E17.88197
G1 X59.476 Y146.601 E17.91258
G1 X59.603 Y145.689 E17.9432
G1 X59.86 Y144.61 E17.98009
G1 X59.938 Y144.345 E17.98928
G1 X60.216 Y143.525 E18.01808
G1 X81.859 Y87.38 E20.01941
G1 X88.914 Y69.086 E20.67155
G1 X89.173 Y68.442 E20.69464
G1 X89.553 Y67.603 E20.72527
G1 X90.004 Y66.801 E20.75587
G1 X90.524 Y66.041 E20.7865
G1 X91.107 Y65.329 E20.81711
G1 X91.751 Y64.67 E20.84776
G1 X92.448 Y64.07 E20.87834
G1 X93.196 Y63.532 E20.90899
G1 X93.987 Y63.061 E20.93961
G1 X94.816 Y62.661 E20.97022
G1 X95.677 Y62.334 E21.00086
G1 X96.562 Y62.083 E21.03145
G1 X97.467 Y61.91 E21.0621
G1 X98.69 Y61.802 E21.10293
G1 X99.341 Y61.787 E21.12459
G1 X120.444 Y61.788 E21.82648
G1 X121.145 Y61.798 E21.8498
G0 F6000 X121.151 Y61.398
G1 F1200 X122.087 Y61.451 E21.88098
G1 X123.016 Y61.584 E21.91219
G1 X123.929 Y61.796 E21.94337
G1 X124.822 Y62.084 E21.97458
G1 X125.686 Y62.448 E22.00576
G1 X126.517 Y62.884 E22.03697
G1 X127.307 Y63.389 E22.06816
G1 X128.051 Y63.959 E22.09933
G1 X128.744 Y64.591 E22.13052
G1 X129.381 Y65.28 E22.16173
G1 X129.957 Y66.02 E22.19292
G1 X130.468 Y66.807 E22.22413
G1 X130.909 Y67.634 E22.25531
G1 X131.15 Y68.171 E22.27488
G1 X131.382 Y68.738 E22.29526
G1 X152.964 Y124.721 E24.29083
G1 X160.048 Y143.102 E24.94602
G1 X160.294 Y143.762 E24.96945
G1 X160.584 Y144.654 E25.00064
G1 X160.797 Y145.568 E25.03186
G1 X160.931 Y146.496 E25.06304
G1 X160.986 Y147.432 E25.09423
G1 X160.96 Y148.37 E25.12544
G1 X160.855 Y149.302 E25.15663
G1 X160.671 Y150.221 E25.1878
G1 X160.409 Y151.122 E25.21901
G1 X160.072 Y151.997 E25.2502
G1 X159.661 Y152.84 E25.28139
G1 X159.18 Y153.645 E25.31258
G1 X158.632 Y154.406 E25.34377
G1 X158.021 Y155.118 E25.37498
G1 X157.352 Y155.775 E25.40617
G1 X156.629 Y156.372 E25.43735
G1 X155.858 Y156.906 E25.46854
G1 X155.044 Y157.373 E25.49976
G1 X154.194 Y157.768 E25.53093
G1 X153.313 Y158.089 E25.56212
G1 X152.407 Y158.334 E25.59333
G1 X151.484 Y158.502 E25.62454
G1 X150.275 Y158.6 E25.66488
G1 X149.682 Y158.612 E25.68461
G1 X70.707 Y158.613 E28.31133
G1 X70.545 Y158.612 E28.31672
G1 X69.867 Y158.602 E28.33927
G1 X68.93 Y158.548 E28.37049
G1 X68.002 Y158.415 E28.40167
G1 X67.089 Y158.203 E28.43284
G1 X66.196 Y157.914 E28.46406
G1 X65.332 Y157.55 E28.49524
G1 X64.502 Y157.113 E28.52644
G1 X63.712 Y156.608 E28.55763
G1 X62.968 Y156.037 E28.58882
G1 X62.275 Y155.405 E28.62001
G1 X61.638 Y154.716 E28.65122
G1 X61.063 Y153.976 E28.68239
G1 X60.553 Y153.189 E28.71358
G1 X60.111 Y152.361 E28.7448
G1 X59.742 Y151.499 E28.77599
G1 X59.448 Y150.609 E28.80716
G1 X59.23 Y149.696 E28.83838
G1 X59.091 Y148.769 E28.86956
G1 X59.031 Y147.833 E28.90076
G1 X59.052 Y146.895 E28.93196
G1 X59.152 Y145.963 E28.96314
G1 X59.331 Y145.042 E28.99434
G1 X59.477 Y144.497 E29.01311
G1 X59.555 Y144.232 E29.0223
G1 X59.843 Y143.381 E29.05218
G1 X81.486 Y87.236 E31.05351
G1 X88.542 Y68.937 E31.70582
G1 X88.801 Y68.293 E31.7289
G1 X89.188 Y67.438 E31.76012
G1 X89.646 Y66.62 E31.7913
G1 X90.172 Y65.843 E31.82251
G1 X90.763 Y65.115 E31.85369
G1 X91.413 Y64.439 E31.88489
G1 X92.119 Y63.821 E31.91609
G1 X92.874 Y63.265 E31.94728
G1 X93.674 Y62.776 E31.97846
G1 X94.513 Y62.357 E32.00966
G1 X95.385 Y62.01 E32.04087
G1 X96.283 Y61.74 E32.07206
G1 X97.2 Y61.546 E32.10323
G1 X98.131 Y61.432 E32.13443
G1 X98.678 Y61.402 E32.15265
G1 X99.341 Y61.387 E32.17471
G1 X120.45 Y61.388 E32.8768
G1 X121.151 Y61.398 E32.90011
G1 F2700 E27.90011
;MESH:SideBottom.stl
G0 F6000 X120.645 Y86.339
G0 X121.986 Y85.085
G0 X119.223 Y83.706
G0 X118.759 Y83.949
G0 X118.754 Y97.534
G0 X119.703 Y110.728
G0 X118.754 Y115.202
G0 X118.48 Y131.82
;TYPE:WALL-INNER
G1 F2700 E32.90011
G1 F1200 X119.3 Y132.228 E32.93058
G1 X121.009 Y130.943 E33.00169
G1 X121.798 Y130.288 E33.0358
G1 X122.556 Y129.605 E33.06974
G1 X123.224 Y128.955 E33.10074
G1 X123.99 Y128.15 E33.1377
G1 X124.662 Y127.376 E33.17179
G1 X125.26 Y126.63 E33.20359
G1 X125.848 Y125.836 E33.23645
G1 X126.478 Y124.912 E33.27365
G1 X127.014 Y124.042 E33.30763
G1 X127.518 Y123.153 E33.34162
G1 X127.985 Y122.247 E33.37552
G1 X128.418 Y121.324 E33.40943
G1 X128.814 Y120.384 E33.44336
G1 X129.19 Y119.386 E33.47883
G1 X129.481 Y118.506 E33.50966
G1 X129.781 Y117.478 E33.54527
G1 X130.022 Y116.482 E33.57936
G1 X130.221 Y115.481 E33.6133
G1 X130.37 Y114.522 E33.64558
G1 X130.498 Y113.461 E33.68113
G1 X130.579 Y112.444 E33.71506
G1 X130.625 Y111.43 E33.74882
G1 X130.637 Y110.419 E33.78245
G1 X130.623 Y109.492 E33.81328
G1 X130.574 Y108.402 E33.84957
G1 X130.504 Y107.397 E33.88308
G1 X130.409 Y106.396 E33.91652
G1 X130.29 Y105.398 E33.94995
G1 X130.151 Y104.407 E33.98324
G1 X129.998 Y103.467 E34.01491
G1 X129.807 Y102.431 E34.04995
G1 X129.604 Y101.45 E34.08327
G1 X129.381 Y100.472 E34.11663
G1 X129.137 Y99.5 E34.14997
G1 X128.873 Y98.531 E34.18337
G1 X128.611 Y97.651 E34.21391
G1 X128.28 Y96.614 E34.25011
G1 X127.966 Y95.711 E34.28191
G1 X127.596 Y94.721 E34.31706
G1 X127.197 Y93.747 E34.35207
G1 X126.827 Y92.905 E34.38266
G1 X126.369 Y91.949 E34.41792
G1 X125.907 Y91.051 E34.45151
G1 X125.418 Y90.166 E34.48514
G1 X124.901 Y89.295 E34.51882
G1 X124.385 Y88.482 E34.55085
G1 X123.787 Y87.602 E34.58624
G1 X123.239 Y86.854 E34.61708
G1 X122.545 Y85.98 E34.6542
G1 X121.861 Y85.201 E34.68868
G1 X121.118 Y84.452 E34.72377
G1 X120.359 Y83.81 E34.75683
G1 X120.232 Y83.713 E34.76215
G1 X119.263 Y83.046 E34.80127
G1 X118.484 Y83.454 E34.83052
G1 X118.193 Y83.606 E34.84144
G1 X118.193 Y83.278 E34.84769
G1 X118.193 Y83.277 E34.84772
G1 X118.193 Y82.598 E34.8703
G1 X116.268 Y82.253 E34.93535
G1 X115.196 Y82.07 E34.97152
G1 X115.16 Y82.063 E34.97274
G1 X113.882 Y82.074 E35.01525
G1 X112.612 Y82.652 E35.06166
G1 X111.745 Y83.618 E35.10483
G1 X111.233 Y84.547 E35.14011
G1 X110.783 Y85.606 E35.17838
G1 X110.459 Y86.532 E35.21101
G1 X110.142 Y87.545 E35.24631
G1 X109.871 Y88.515 E35.27981
G1 X109.632 Y89.432 E35.31133
G1 X109.383 Y90.448 E35.34612
G1 X109.162 Y91.417 E35.37918
G1 X108.951 Y92.387 E35.4122
G1 X108.751 Y93.358 E35.44517
G1 X108.561 Y94.333 E35.47821
G1 X108.381 Y95.309 E35.51122
G1 X108.221 Y96.237 E35.54254
G1 X108.063 Y97.215 E35.57549
G1 X107.906 Y98.247 E35.61021
G1 X107.77 Y99.23 E35.64321
G1 X107.645 Y100.216 E35.67627
G1 X107.53 Y101.21 E35.70955
G1 X107.436 Y102.141 E35.74068
G1 X107.338 Y103.179 E35.77535
G1 X107.26 Y104.169 E35.80838
G1 X107.193 Y105.159 E35.84138
G1 X107.137 Y106.151 E35.87443
G1 X107.091 Y107.142 E35.90743
G1 X107.058 Y108.135 E35.94047
G1 X107.036 Y109.127 E35.97348
G1 X107.025 Y110.12 E36.0065
G1 X107.025 Y111.11 E36.03943
G1 X107.032 Y112.101 E36.07239
G1 X107.086 Y115.05 E36.17049
G1 X107.154 Y117.991 E36.26834
G1 X107.169 Y118.961 E36.30061
G1 X107.175 Y119.931 E36.33287
G1 X107.168 Y120.894 E36.3649
G1 X107.141 Y121.867 E36.39727
G1 X107.09 Y122.775 E36.42752
G1 X106.989 Y123.736 E36.45966
G1 X106.846 Y124.51 E36.48584
G1 X106.589 Y125.281 E36.51287
G1 X106.266 Y125.72 E36.531
G1 X105.862 Y125.896 E36.54565
G1 X105.314 Y125.841 E36.56397
G1 X104.631 Y125.533 E36.58889
G1 X104.017 Y125.103 E36.61382
G1 X103.343 Y124.5 E36.6439
G1 X102.72 Y123.8 E36.67507
G1 X102.191 Y123.09 E36.70452
G1 X101.745 Y122.385 E36.73227
G1 X101.281 Y121.539 E36.76436
G1 X100.878 Y120.689 E36.79565
G1 X100.523 Y119.834 E36.82644
G1 X100.228 Y119.026 E36.85505
G1 X99.901 Y118.035 E36.88976
G1 X99.641 Y117.142 E36.92069
G1 X99.39 Y116.198 E36.95318
G1 X99.165 Y115.268 E36.985
G1 X98.958 Y114.343 E37.01653
G1 X98.761 Y113.382 E37.04916
G1 X98.576 Y112.431 E37.08138
G1 X98.405 Y111.478 E37.11358
G1 X98.259 Y110.576 E37.14397
G1 X98.116 Y109.574 E37.17764
G1 X98.004 Y108.624 E37.20945
G1 X97.913 Y107.644 E37.24219
G1 X97.858 Y106.783 E37.27088
G1 X97.813 Y105.758 E37.30501
G1 X97.796 Y104.827 E37.33598
G1 X97.801 Y103.868 E37.36788
G1 X97.828 Y102.907 E37.39985
G1 X97.874 Y101.93 E37.43238
G1 X97.936 Y100.979 E37.46408
G1 X98.017 Y99.997 E37.49685
G1 X98.099 Y99.116 E37.52628
G1 X98.215 Y98.08 E37.56096
G1 X98.328 Y97.12 E37.59311
G1 X98.576 Y95.186 E37.65796
G1 X99.399 Y89.304 E37.8555
G1 X99.512 Y88.389 E37.88616
G1 X99.618 Y87.394 E37.91944
G1 X99.695 Y85.511 E37.98213
G1 X99.703 Y85.309 E37.98885
G1 X99.501 Y85.307 E37.99316
G1 X99.5 Y85.306 E37.9932
G1 X97.568 Y85.269 E38.05747
G1 X96.809 Y86.589 E38.10812
G1 X96.309 Y87.583 E38.14513
G1 X95.868 Y88.526 E38.17975
G1 X95.495 Y89.348 E38.20977
G1 X95.073 Y90.297 E38.24432
G1 X93.899 Y93.008 E38.34258
G1 X92.781 Y95.663 E38.43839
G1 X91.632 Y98.463 E38.53906
G1 X90.902 Y100.295 E38.60465
G1 X90.542 Y101.216 E38.63754
G1 X89.84 Y103.056 E38.70304
G1 X89.493 Y103.982 E38.73593
G1 X88.819 Y105.834 E38.80148
G1 X88.176 Y107.646 E38.86543
G1 X87.535 Y109.512 E38.93105
G1 X86.259 Y113.334 E39.06507
G1 X85.665 Y115.165 E39.12909
G1 X85.366 Y116.109 E39.16203
G1 X85.075 Y117.054 E39.19492
G1 X84.792 Y118.004 E39.22789
G1 X84.52 Y118.96 E39.26094
G1 X84.259 Y119.922 E39.2941
G1 X84.015 Y120.894 E39.32743
G1 X83.785 Y121.901 E39.36178
G1 X83.601 Y122.818 E39.39289
G1 X83.435 Y123.823 E39.42677
G1 X83.303 Y124.894 E39.46266
G1 X83.303 Y124.905 E39.46303
G1 X83.235 Y125.922 E39.49693
G1 X83.233 Y125.938 E39.49747
G1 X83.24 Y127.006 E39.53299
G1 X83.356 Y128.091 E39.56928
G1 X83.608 Y129.174 E39.60626
G1 X84.019 Y130.238 E39.6442
G1 X84.533 Y131.154 E39.67914
G1 X85.236 Y132.084 E39.71791
G1 X86.007 Y132.868 E39.75448
G1 X86.84 Y133.55 E39.79029
G1 X87.739 Y134.166 E39.82654
G1 X88.561 Y134.653 E39.85832
G1 X89.516 Y135.163 E39.89432
G1 X90.372 Y135.582 E39.92602
G1 X91.343 Y136.02 E39.96145
G1 X92.241 Y136.383 E39.99367
G1 X93.249 Y136.75 E40.02935
G1 X94.224 Y137.057 E40.06334
G1 X95.215 Y137.323 E40.09747
G1 X96.218 Y137.545 E40.13164
G1 X97.181 Y137.711 E40.16414
G1 X98.248 Y137.847 E40.19992
G1 X99.272 Y137.928 E40.23408
G1 X100.294 Y137.966 E40.2681
G1 X101.312 Y137.964 E40.30196
G1 X102.265 Y137.927 E40.33368
G1 X103.341 Y137.848 E40.36956
G1 X104.389 Y137.736 E40.40462
G1 X105.303 Y137.608 E40.43531
G1 X106.297 Y137.44 E40.46884
G1 X107.378 Y137.225 E40.5055
G1 X108.249 Y137.026 E40.53522
G1 X109.3 Y136.755 E40.57132
G1 X110.306 Y136.461 E40.60618
G1 X111.184 Y136.179 E40.63685
G1 X112.135 Y135.847 E40.67035
G1 X113.126 Y135.465 E40.70567
G1 X114.058 Y135.074 E40.73929
G1 X114.978 Y134.657 E40.77289
G1 X115.888 Y134.21 E40.80661
G1 X116.867 Y133.691 E40.84346
G1 X117.671 Y133.235 E40.8742
G1 X118.193 Y132.907 E40.89471
G1 X118.193 Y131.999 E40.92491
G1 X118.193 Y131.998 E40.92494
G1 X118.193 Y131.678 E40.93559
G1 X118.48 Y131.82 E40.94172
G0 F6000 X118.593 Y131.43
G1 F1200 X119.257 Y131.76 E40.96638
G1 X120.761 Y130.629 E41.02897
G1 X121.536 Y129.985 E41.06248
G1 X122.283 Y129.313 E41.0959
G1 X122.94 Y128.674 E41.12639
G1 X123.694 Y127.881 E41.16278
G1 X124.355 Y127.12 E41.19631
G1 X124.943 Y126.386 E41.22759
G1 X125.522 Y125.604 E41.25995
