;FLAVOR:Marlin
;TIME:4959
;Filament used: 4.03707m
;Layer height: 0.16
;MINX:59.013
;MINY:22.746
;MINZ:0.2
;MAXX:160.982
;MAXY:197.255
;MAXZ:3.88
;Generated with Cura_SteamEngine 4.6.1
M140 S60
M105
M190 S60
M104 S210
M105
M109 S210
M82 ;absolute extrusion mode
M201 X500.00 Y500.00 Z100.00 E5000.00 ;Setup machine max acceleration
M203 X500.00 Y500.00 Z10.00 E50.00 ;Setup machine max feedrate
M204 P500.00 R1000.00 T500.00 ;Setup Print/Retract/Travel acceleration
M205 X8.00 Y8.00 Z0.40 E5.00 ;Setup Jerk
M220 S100 ;Reset Feedrate
M221 S100 ;Reset Flowrate

G28 ;Home

G92 E0 ;Reset Extruder
G1 Z2.0 F3000 ;Move Z Axis up
G1 X10.1 Y20 Z0.28 F5000.0 ;Move to start position
G1 X10.1 Y200.0 Z0.28 F1500.0 E15 ;Draw the first line
G1 X10.4 Y200.0 Z0.28 F5000.0 ;Move to side a little
G1 X10.4 Y20 Z0.28 F1500.0 E30 ;Draw the second line
G92 E0 ;Reset Extruder
G1 Z2.0 F3000 ;Move Z Axis up

G92 E0
G92 E0
G1 F2700 E-5
;LAYER_COUNT:21
;LAYER:0
M107
G0 F6000 X150.132 Y23.557 Z0.2
;TYPE:SKIRT
G1 F2700 E0
G1 F1200 X151.033 Y23.61 E0.03002
G1 X151.926 Y23.743 E0.06005
G1 X152.805 Y23.954 E0.09011
G1 X153.661 Y24.242 E0.12015
G1 X154.488 Y24.604 E0.15018
G1 X155.28 Y25.038 E0.18022
G1 X156.03 Y25.541 E0.21025
G1 X156.733 Y26.108 E0.24029
G1 X157.383 Y26.735 E0.27033
G1 X157.975 Y27.417 E0.30037
G1 X158.504 Y28.149 E0.33041
G1 X158.967 Y28.924 E0.36043
G1 X159.359 Y29.738 E0.39048
G1 X159.678 Y30.583 E0.42052
G1 X159.921 Y31.453 E0.45057
G1 X160.085 Y32.34 E0.48057
G1 X160.171 Y33.24 E0.51064
G1 X160.177 Y34.143 E0.54067
G1 X160.036 Y35.488 E0.58565
G1 X159.872 Y36.428 E0.61739
G1 X150.793 Y84.171 E2.23379
G1 X142.494 Y127.821 E3.7116
G1 X131.123 Y187.618 E5.73609
G1 X130.993 Y188.256 E5.75775
G1 X130.773 Y189.132 E5.78779
G1 X130.477 Y189.985 E5.81782
G1 X130.107 Y190.809 E5.84786
G1 X129.665 Y191.596 E5.87788
G1 X129.156 Y192.342 E5.90792
G1 X128.582 Y193.039 E5.93795
G1 X127.949 Y193.684 E5.96801
G1 X127.262 Y194.269 E5.99802
G1 X126.525 Y194.792 E6.02808
G1 X125.745 Y195.247 E6.05811
G1 X124.691 Y195.727 E6.09663
G1 X123.838 Y196.023 E6.12667
G1 X122.961 Y196.243 E6.15674
G1 X122.069 Y196.384 E6.18677
G1 X121.052 Y196.447 E6.22067
G1 X120.363 Y196.455 E6.24358
G1 X99.561 Y196.454 E6.93546
G1 X98.863 Y196.444 E6.95868
G1 X97.961 Y196.391 E6.98873
G1 X97.068 Y196.259 E7.01875
G1 X96.19 Y196.048 E7.04879
G1 X95.334 Y195.76 E7.07883
G1 X94.507 Y195.398 E7.10885
G1 X93.715 Y194.963 E7.13891
G1 X92.964 Y194.461 E7.16895
G1 X92.261 Y193.894 E7.19899
G1 X91.611 Y193.267 E7.22903
G1 X91.019 Y192.585 E7.25907
G1 X90.489 Y191.854 E7.2891
G1 X90.027 Y191.078 E7.31914
G1 X89.634 Y190.265 E7.34917
G1 X89.316 Y189.42 E7.3792
G1 X89.019 Y188.303 E7.41764
G1 X88.859 Y187.519 E7.44425
G1 X71.336 Y95.364 E10.56426
G1 X60.076 Y36.15 E12.56902
G1 X59.965 Y35.514 E12.59049
G1 X59.849 Y34.618 E12.62054
G1 X59.813 Y33.716 E12.65057
G1 X59.857 Y32.814 E12.6806
G1 X59.981 Y31.919 E12.71065
G1 X60.183 Y31.039 E12.74068
G1 X60.462 Y30.18 E12.77072
G1 X60.816 Y29.349 E12.80077
G1 X61.242 Y28.553 E12.83079
G1 X61.737 Y27.798 E12.86082
G1 X62.297 Y27.089 E12.89087
G1 X62.917 Y26.433 E12.92089
G1 X63.593 Y25.834 E12.95093
G1 X64.32 Y25.297 E12.98099
G1 X65.09 Y24.826 E13.01102
G1 X65.9 Y24.426 E13.04106
G1 X66.742 Y24.099 E13.07111
G1 X67.609 Y23.847 E13.10114
G1 X68.495 Y23.674 E13.13116
G1 X69.841 Y23.561 E13.17609
G1 X70.844 Y23.546 E13.20945
G1 X149.293 Y23.546 E15.81867
G1 X149.441 Y23.547 E15.8236
G1 X150.132 Y23.557 E15.84658
G0 F6000 X150.137 Y23.157
G1 F1200 X151.056 Y23.21 E15.8772
G1 X151.968 Y23.343 E15.90785
G1 X152.864 Y23.555 E15.93848
G1 X153.738 Y23.843 E15.96908
G1 X154.584 Y24.206 E15.9997
G1 X155.395 Y24.641 E16.03031
G1 X156.166 Y25.145 E16.06095
G1 X156.89 Y25.714 E16.09158
G1 X157.561 Y26.344 E16.12219
G1 X158.176 Y27.029 E16.15281
G1 X158.729 Y27.765 E16.18343
G1 X159.216 Y28.547 E16.21407
G1 X159.633 Y29.367 E16.24466
G1 X159.977 Y30.221 E16.27529
G1 X160.246 Y31.102 E16.30592
G1 X160.438 Y32.002 E16.33653
G1 X160.551 Y32.916 E16.36716
G1 X160.584 Y33.836 E16.39778
G1 X160.537 Y34.755 E16.42839
G1 X160.43 Y35.556 E16.45527
G1 X160.265 Y36.502 E16.4872
G1 X151.186 Y84.245 E18.1036
G1 X142.887 Y127.895 E19.58141
G1 X131.515 Y187.697 E21.60608
G1 X131.385 Y188.335 E21.62773
G1 X131.162 Y189.229 E21.65838
G1 X130.862 Y190.099 E21.68899
G1 X130.488 Y190.941 E21.71963
G1 X130.043 Y191.746 E21.75022
G1 X129.529 Y192.51 E21.78085
G1 X128.951 Y193.227 E21.81148
G1 X128.313 Y193.89 E21.84209
G1 X127.62 Y194.496 E21.8727
G1 X126.877 Y195.04 E21.90333
G1 X126.089 Y195.516 E21.93395
G1 X124.838 Y196.099 E21.97986
G1 X123.969 Y196.402 E22.01047
G1 X123.076 Y196.627 E22.0411
G1 X122.168 Y196.775 E22.07169
G1 X121.057 Y196.847 E22.10872
G1 X120.363 Y196.855 E22.13181
G1 X99.555 Y196.854 E22.82388
G1 X98.857 Y196.844 E22.8471
G1 X97.938 Y196.791 E22.87772
G1 X97.027 Y196.658 E22.90834
G1 X96.131 Y196.447 E22.93896
G1 X95.257 Y196.159 E22.96956
G1 X94.41 Y195.796 E23.00021
G1 X93.599 Y195.361 E23.03082
G1 X92.829 Y194.857 E23.06143
G1 X92.105 Y194.288 E23.09206
G1 X91.433 Y193.658 E23.1227
G1 X90.818 Y192.973 E23.15331
G1 X90.265 Y192.237 E23.18393
G1 X89.778 Y191.456 E23.21455
G1 X89.361 Y190.635 E23.24517
G1 X89.016 Y189.781 E23.27581
G1 X88.747 Y188.901 E23.30641
G1 X88.627 Y188.384 E23.32407
G1 X88.466 Y187.594 E23.35088
G1 X70.943 Y95.439 E26.47089
G1 X59.682 Y36.218 E28.47588
G1 X59.571 Y35.582 E28.49735
G1 X59.452 Y34.669 E28.52798
G1 X59.413 Y33.75 E28.55857
G1 X59.454 Y32.83 E28.5892
G1 X59.574 Y31.917 E28.61983
G1 X59.774 Y31.018 E28.65046
G1 X60.05 Y30.14 E28.68107
G1 X60.402 Y29.289 E28.7117
G1 X60.826 Y28.472 E28.74232
G1 X61.32 Y27.695 E28.77294
G1 X61.879 Y26.964 E28.80355
G1 X62.499 Y26.283 E28.83418
G1 X63.176 Y25.66 E28.86478
G1 X63.905 Y25.097 E28.89541
G1 X64.68 Y24.6 E28.92604
G1 X65.495 Y24.171 E28.95667
G1 X66.344 Y23.815 E28.98729
G1 X67.22 Y23.534 E29.01789
G1 X68.118 Y23.331 E29.04851
G1 X69.03 Y23.206 E29.07912
G1 X69.834 Y23.162 E29.10591
G1 X70.844 Y23.146 E29.1395
G1 X149.293 Y23.146 E31.74873
G1 X149.446 Y23.147 E31.75382
G1 X150.137 Y23.157 E31.7768
G0 F6000 X150.143 Y22.757
G1 F1200 X151.08 Y22.811 E31.80802
G1 X152.008 Y22.944 E31.8392
G1 X152.922 Y23.155 E31.8704
G1 X153.814 Y23.444 E31.90158
G1 X154.678 Y23.808 E31.93277
G1 X155.509 Y24.244 E31.96398
G1 X156.299 Y24.749 E31.99516
G1 X157.043 Y25.32 E32.02636
G1 X157.736 Y25.952 E32.05755
G1 X158.373 Y26.641 E32.08876
G1 X158.948 Y27.381 E32.11993
G1 X159.459 Y28.168 E32.15114
G1 X159.9 Y28.995 E32.18231
G1 X160.27 Y29.857 E32.21351
G1 X160.565 Y30.748 E32.24473
G1 X160.782 Y31.66 E32.27591
G1 X160.922 Y32.587 E32.30709
G1 X160.982 Y33.523 E32.33829
G1 X160.961 Y34.461 E32.36949
G1 X160.824 Y35.624 E32.40844
G1 X160.658 Y36.577 E32.44062
G1 X151.579 Y84.32 E34.05701
G1 X143.28 Y127.97 E35.53482
G1 X131.907 Y187.777 E37.55966
G1 X131.777 Y188.415 E37.58132
G1 X131.55 Y189.325 E37.61251
G1 X131.247 Y190.213 E37.64372
G1 X130.87 Y191.072 E37.67492
G1 X130.421 Y191.895 E37.7061
G1 X129.903 Y192.677 E37.7373
G1 X129.32 Y193.412 E37.7685
G1 X128.677 Y194.095 E37.7997
G1 X127.979 Y194.72 E37.83086
G1 X127.229 Y195.284 E37.86207
G1 X126.434 Y195.782 E37.89327
G1 X125.6 Y196.21 E37.92445
G1 X124.986 Y196.471 E37.94664
G1 X124.101 Y196.78 E37.97782
G1 X123.192 Y197.012 E38.00902
G1 X122.267 Y197.166 E38.04021
G1 X121.062 Y197.247 E38.08038
G1 X120.363 Y197.255 E38.10363
G1 X99.549 Y197.254 E38.79591
G1 X98.851 Y197.244 E38.81913
G1 X97.915 Y197.19 E38.85031
G1 X96.987 Y197.058 E38.88149
G1 X96.073 Y196.846 E38.91269
G1 X95.181 Y196.557 E38.94388
G1 X94.316 Y196.194 E38.97508
G1 X93.486 Y195.758 E39.00626
G1 X92.695 Y195.253 E39.03748
G1 X91.951 Y194.682 E39.06867
G1 X91.258 Y194.05 E39.09986
G1 X90.621 Y193.362 E39.13105
G1 X90.046 Y192.621 E39.16224
G1 X89.535 Y191.835 E39.19343
G1 X89.093 Y191.007 E39.22464
G1 X88.724 Y190.145 E39.25583
G1 X88.429 Y189.255 E39.28702
G1 X88.235 Y188.465 E39.31407
G1 X88.073 Y187.669 E39.34109
G1 X70.55 Y95.514 E42.4611
G1 X59.288 Y36.287 E44.46629
G1 X59.177 Y35.651 E44.48776
G1 X59.055 Y34.721 E44.51896
G1 X59.013 Y33.784 E44.55016
G1 X59.051 Y32.847 E44.58135
G1 X59.169 Y31.917 E44.61253
G1 X59.365 Y31 E44.64372
G1 X59.639 Y30.103 E44.67491
G1 X59.988 Y29.232 E44.70612
G1 X60.41 Y28.395 E44.7373
G1 X60.902 Y27.596 E44.7685
G1 X61.46 Y26.843 E44.79968
G1 X62.081 Y26.139 E44.8309
G1 X62.759 Y25.491 E44.86209
G1 X63.489 Y24.903 E44.89327
G1 X64.267 Y24.38 E44.92445
G1 X65.087 Y23.924 E44.95566
G1 X65.943 Y23.541 E44.98685
G1 X66.828 Y23.231 E45.01804
G1 X67.737 Y22.998 E45.04925
G1 X68.662 Y22.843 E45.08044
G1 X69.828 Y22.762 E45.11932
G1 X70.844 Y22.746 E45.15311
G1 X149.293 Y22.746 E47.76234
G1 X149.452 Y22.747 E47.76763
G1 X150.143 Y22.757 E47.79061
G1 F2700 E42.79061
;MESH:SideTop.stl
G0 F6000 X130.309 Y90.23
G0 X132.146 Y90.483
G0 X122.555 Y132.821
;TYPE:WALL-INNER
G1 F2700 E47.79061
G1 F1200 X122.562 Y132.821 E47.79084
G1 X122.783 Y131.986 E47.81957
G1 X123.513 Y129.304 E47.91202
G1 X124.089 Y127.153 E47.98608
G1 X124.996 Y123.684 E48.10534
G1 X125.54 Y121.566 E48.17807
G1 X126.083 Y119.407 E48.25212
G1 X126.787 Y116.55 E48.34998
G1 X127.132 Y115.117 E48.39901
G1 X127.489 Y113.611 E48.45049
G1 X128.135 Y110.816 E48.5459
G1 X128.454 Y109.379 E48.59486
G1 X128.775 Y107.94 E48.6439
G1 X129.085 Y106.5 E48.69289
G1 X129.39 Y105.058 E48.74191
G1 X129.685 Y103.614 E48.79093
G1 X129.982 Y102.122 E48.84153
G1 X130.255 Y100.722 E48.88897
G1 X130.528 Y99.273 E48.93801
G1 X130.792 Y97.821 E48.9871
G1 X131.045 Y96.368 E49.03615
G1 X131.289 Y94.911 E49.08528
G1 X131.521 Y93.453 E49.13439
G1 X131.742 Y91.993 E49.1835
G1 X131.957 Y90.457 E49.23509
G1 X132.15 Y88.99 E49.2843
G1 X132.319 Y87.595 E49.33104
G1 X132.482 Y86.124 E49.38026
G1 X132.625 Y84.652 E49.42945
G1 X132.753 Y83.176 E49.47873
G1 X132.866 Y81.595 E49.53145
G1 X132.95 Y80.145 E49.57975
G1 X133.017 Y78.739 E49.62657
G1 X133.066 Y77.259 E49.67582
G1 X133.095 Y75.777 E49.72512
G1 X133.105 Y74.296 E49.77438
G1 X133.095 Y72.74 E49.82614
G1 X133.066 Y71.26 E49.87537
G1 X133.023 Y69.854 E49.92216
G1 X132.96 Y68.376 E49.97136
G1 X132.879 Y66.896 E50.02066
G1 X132.782 Y65.419 E50.06989
G1 X132.66 Y63.838 E50.12263
G1 X132.524 Y62.388 E50.17107
G1 X132.365 Y60.982 E50.21813
G1 X132.164 Y59.5 E50.26787
G1 X131.915 Y58.019 E50.31782
G1 X131.615 Y56.543 E50.36792
G1 X131.247 Y55.068 E50.41848
G1 X130.771 Y53.538 E50.47178
G1 X130.244 Y52.165 E50.52069
G1 X129.559 Y50.757 E50.57277
G1 X128.702 Y49.4 E50.62615
G1 X127.624 Y48.136 E50.6814
G1 X126.424 Y47.119 E50.73372
G1 X125.052 Y46.277 E50.78726
G1 X123.613 Y45.646 E50.83952
G1 X123.592 Y45.636 E50.8403
G1 X122.095 Y45.17 E50.89244
G1 X120.582 Y44.844 E50.94392
G1 X119.019 Y44.624 E50.99642
G1 X117.553 Y44.499 E51.04535
G1 X115.978 Y44.43 E51.09779
G1 X114.488 Y44.408 E51.14735
G1 X113.075 Y44.412 E51.19435
G1 X111.594 Y44.434 E51.24361
G1 X110.111 Y44.475 E51.29296
G1 X108.621 Y44.547 E51.34257
G1 X107.131 Y44.654 E51.39226
G1 X105.642 Y44.807 E51.44204
G1 X104.106 Y45.016 E51.4936
G1 X102.665 Y45.268 E51.54226
G1 X101.238 Y45.574 E51.5908
G1 X99.728 Y45.964 E51.64267
G1 X98.281 Y46.405 E51.69298
G1 X96.858 Y46.905 E51.74315
G1 X95.454 Y47.465 E51.79342
G1 X94.005 Y48.116 E51.84626
G1 X92.655 Y48.794 E51.8965
G1 X91.394 Y49.502 E51.9446
G1 X90.061 Y50.358 E51.99729
G1 X88.854 Y51.264 E52.04749
G1 X87.678 Y52.359 E52.10093
G1 X86.677 Y53.662 E52.15558
G1 X86.038 Y55.543 E52.22166
G1 X86.528 Y57.418 E52.28611
G1 X87.798 Y58.797 E52.34847
G1 X89.105 Y59.719 E52.40166
G1 X90.517 Y60.513 E52.45554
G1 X91.766 Y61.133 E52.50192
G1 X93.162 Y61.776 E52.55304
G1 X95.873 Y62.967 E52.65153
G1 X97.281 Y63.594 E52.70279
G1 X98.561 Y64.185 E52.74968
G1 X99.832 Y64.81 E52.79679
G1 X101.06 Y65.469 E52.84315
G1 X102.345 Y66.242 E52.89302
G1 X103.485 Y67.003 E52.93861
G1 X104.6 Y67.83 E52.98478
G1 X105.761 Y68.785 E53.03478
G1 X106.827 Y69.753 E53.08267
G1 X107.772 Y70.681 E53.12673
G1 X108.761 Y71.732 E53.17473
G1 X109.714 Y72.811 E53.22261
G1 X110.687 Y73.974 E53.27304
G1 X111.608 Y75.118 E53.32189
G1 X112.504 Y76.256 E53.37006
G1 X113.387 Y77.406 E53.41829
G1 X114.224 Y78.531 E53.46492
G1 X115.06 Y79.707 E53.51291
G1 X115.883 Y80.936 E53.56211
G1 X116.655 Y82.171 E53.61055
G1 X117.324 Y83.329 E53.65503
G1 X118.004 Y84.619 E53.70353
G1 X118.619 Y85.913 E53.75119
G1 X119.158 Y87.186 E53.79717
G1 X119.665 Y88.555 E53.84572
G1 X120.11 Y89.956 E53.89461
G1 X120.473 Y91.286 E53.94047
G1 X120.793 Y92.712 E53.98907
G1 X121.053 Y94.153 E54.03778
G1 X121.243 Y95.567 E54.08523
G1 X121.361 Y96.958 E54.13166
G1 X121.406 Y98.285 E54.17582
G1 X121.357 Y99.708 E54.22318
G1 X121.189 Y101.029 E54.26747
G1 X120.868 Y102.292 E54.31081
G1 X120.364 Y103.292 E54.34806
G1 X119.563 Y103.975 E54.38307
G1 X118.456 Y104.271 E54.42118
G1 X117.224 Y104.272 E54.46216
G1 X115.861 Y104.102 E54.50784
G1 X114.454 Y103.844 E54.55542
G1 X113.011 Y103.557 E54.60435
G1 X111.527 Y103.29 E54.65451
G1 X110.067 Y103.099 E54.70348
G1 X108.446 Y103.025 E54.75745
G1 X106.867 Y103.123 E54.81007
G1 X105.248 Y103.421 E54.86482
G1 X103.783 Y103.885 E54.91593
G1 X102.334 Y104.558 E54.96907
G1 X100.989 Y105.405 E55.02194
G1 X99.734 Y106.424 E55.07571
G1 X98.654 Y107.512 E55.12669
G1 X97.664 Y108.712 E55.17844
G1 X96.808 Y109.949 E55.22847
G1 X96.008 Y111.323 E55.28135
G1 X95.32 Y112.734 E55.33356
G1 X94.755 Y114.13 E55.38365
G1 X94.274 Y115.582 E55.43453
G1 X93.894 Y117.006 E55.48355
G1 X93.574 Y118.552 E55.53606
G1 X93.343 Y120.131 E55.58913
G1 X93.2 Y121.643 E55.63965
G1 X93.132 Y123.081 E55.68753
G1 X93.125 Y124.589 E55.73769
G1 X93.17 Y126.088 E55.78756
G1 X93.259 Y127.582 E55.83734
G1 X93.385 Y129.067 E55.88691
G1 X93.554 Y130.684 E55.94099
G1 X93.809 Y132.821 E56.01257
G1 X94.332 Y136.404 E56.133
G1 X95.902 Y146.567 E56.47503
G1 X96.369 Y149.474 E56.57296
G1 X96.615 Y150.931 E56.62211
G1 X96.869 Y152.383 E56.67113
G1 X97.136 Y153.833 E56.72017
G1 X97.417 Y155.284 E56.76933
G1 X97.709 Y156.735 E56.81856
G1 X98.018 Y158.181 E56.86774
G1 X98.353 Y159.678 E56.91876
G1 X98.681 Y161.066 E56.9662
G1 X99.018 Y162.431 E57.01296
G1 X99.406 Y163.93 E57.06446
G1 X99.783 Y165.309 E57.11201
G1 X100.193 Y166.729 E57.16117
G1 X100.633 Y168.166 E57.21115
G1 X101.12 Y169.632 E57.26253
G1 X101.642 Y171.048 E57.31273
G1 X102.244 Y172.465 E57.36393
G1 X103.038 Y173.94 E57.41965
G1 X104.395 Y175.4 E57.48594
G1 X106.626 Y175.379 E57.56015
G1 X108.063 Y174.089 E57.62438
G1 X109.007 Y172.766 E57.67843
G1 X109.782 Y171.426 E57.72992
G1 X110.464 Y170.079 E57.78014
G1 X111.094 Y168.716 E57.83008
G1 X111.68 Y167.339 E57.87985
G1 X112.231 Y165.957 E57.92934
G1 X112.755 Y164.568 E57.97871
G1 X113.258 Y163.173 E58.02803
G1 X113.743 Y161.776 E58.07722
G1 X114.209 Y160.394 E58.12573
G1 X114.674 Y158.976 E58.17536
G1 X115.127 Y157.574 E58.22437
G1 X115.817 Y155.413 E58.29982
G1 X117.119 Y151.264 E58.44445
G1 X118.406 Y147.076 E58.59017
G1 X119.676 Y142.849 E58.73697
G1 X120.309 Y140.704 E58.81135
G1 X120.904 Y138.656 E58.88229
G1 X121.532 Y136.463 E58.95816
G1 X122.555 Y132.821 E59.08398
G0 F6000 X122.254 Y132.421
G1 F1200 X122.397 Y131.881 E59.10256
G1 X123.127 Y129.2 E59.19498
G1 X123.702 Y127.051 E59.26897
G1 X124.609 Y123.584 E59.38816
G1 X125.152 Y121.467 E59.46085
G1 X125.695 Y119.31 E59.53483
G1 X126.398 Y116.455 E59.63263
G1 X126.743 Y115.024 E59.68158
G1 X127.1 Y113.52 E59.733
G1 X127.745 Y110.727 E59.82834
G1 X128.067 Y109.292 E59.87725
G1 X128.384 Y107.855 E59.9262
G1 X128.694 Y106.417 E59.97512
G1 X128.998 Y104.977 E60.02407
G1 X129.293 Y103.535 E60.07303
G1 X129.59 Y102.045 E60.12356
G1 X129.862 Y100.647 E60.17093
G1 X130.135 Y99.2 E60.21991
G1 X130.398 Y97.751 E60.26889
G1 X130.651 Y96.301 E60.31784
G1 X130.894 Y94.847 E60.36688
G1 X131.126 Y93.392 E60.41588
G1 X131.346 Y91.935 E60.46489
G1 X131.561 Y90.403 E60.51634
G1 X131.753 Y88.94 E60.56542
G1 X131.922 Y87.549 E60.61203
G1 X132.084 Y86.083 E60.66108
G1 X132.227 Y84.615 E60.71014
G1 X132.354 Y83.144 E60.75925
G1 X132.467 Y81.569 E60.81177
G1 X132.551 Y80.124 E60.85991
G1 X132.617 Y78.723 E60.90656
G1 X132.666 Y77.248 E60.95564
G1 X132.695 Y75.772 E61.00474
