;FLAVOR:Marlin
;TIME:5625
;Filament used: 3.65409m
;Layer height: 0.2
;MINX:49.015
;MINY:39.848
;MINZ:0.2
;MAXX:170.988
;MAXY:180.152
;MAXZ:2
;Generated with Cura_SteamEngine 4.6.1
M140 S52
M105
M190 S52
M104 S203
M105
M109 S203
M82 ;absolute extrusion mode
M201 X500.00 Y500.00 Z100.00 E5000.00 ;Setup machine max acceleration
M203 X500.00 Y500.00 Z10.00 E50.00 ;Setup machine max feedrate
M204 P500.00 R1000.00 T500.00 ;Setup Print/Retract/Travel acceleration
M205 X8.00 Y8.00 Z0.40 E5.00 ;Setup Jerk
M220 S100 ;Reset Feedrate
M221 S100 ;Reset Flowrate

G28 ;Home

G92 E0 ;Reset Extruder
G1 Z2.0 F3000 ;Move Z Axis up
G1 X10.1 Y20 Z0.28 F5000.0 ;Move to start position
G1 X10.1 Y200.0 Z0.28 F1500.0 E15 ;Draw the first line
G1 X10.4 Y200.0 Z0.28 F5000.0 ;Move to side a little
G1 X10.4 Y20 Z0.28 F1500.0 E30 ;Draw the second line
G92 E0 ;Reset Extruder
G1 Z2.0 F3000 ;Move Z Axis up

G92 E0
G92 E0
G1 F2700 E-5
;LAYER_COUNT:10
;LAYER:0
M107
G0 F6000 X138.136 Y40.659 Z0.2
;TYPE:SKIRT
G1 F2700 E0
G1 F1200 X139.038 Y40.712 E0.03005
G1 X139.931 Y40.844 E0.06008
G1 X140.809 Y41.055 E0.09011
G1 X141.665 Y41.343 E0.12015
G1 X142.493 Y41.706 E0.15022
G1 X143.284 Y42.14 E0.18023
G1 X144.035 Y42.642 E0.21027
G1 X144.738 Y43.209 E0.24031
G1 X145.388 Y43.836 E0.27035
G1 X145.98 Y44.518 E0.30039
G1 X146.51 Y45.249 E0.33042
G1 X146.972 Y46.025 E0.36046
G1 X147.365 Y46.838 E0.39049
G1 X147.683 Y47.683 E0.42052
G1 X147.987 Y48.834 E0.46011
G1 X148.168 Y49.735 E0.49068
G1 X149.925 Y59.187 E0.81044
G1 X164.028 Y135.022 E3.37597
G1 X169.919 Y166.707 E4.44788
G1 X170.041 Y167.419 E4.4719
G1 X170.154 Y168.315 E4.50194
G1 X170.188 Y169.218 E4.53199
G1 X170.141 Y170.12 E4.56204
G1 X170.015 Y171.014 E4.59206
G1 X169.81 Y171.894 E4.62212
G1 X169.528 Y172.752 E4.65216
G1 X169.171 Y173.581 E4.68218
G1 X168.743 Y174.376 E4.71221
G1 X168.245 Y175.13 E4.74226
G1 X167.683 Y175.837 E4.7723
G1 X167.061 Y176.491 E4.80232
G1 X166.383 Y177.088 E4.83237
G1 X165.655 Y177.623 E4.86241
G1 X164.883 Y178.091 E4.89244
G1 X164.072 Y178.489 E4.92249
G1 X163.229 Y178.813 E4.95253
G1 X162.361 Y179.062 E4.98256
G1 X161.475 Y179.233 E5.01257
G1 X160.133 Y179.341 E5.05735
G1 X159.283 Y179.352 E5.08562
G1 X60.707 Y179.352 E8.36428
G1 X60.56 Y179.351 E8.36917
G1 X59.866 Y179.341 E8.39225
G1 X58.964 Y179.288 E8.4223
G1 X58.071 Y179.155 E8.45233
G1 X57.193 Y178.944 E8.48237
G1 X56.337 Y178.657 E8.51239
G1 X55.51 Y178.294 E8.54243
G1 X54.718 Y177.86 E8.57247
G1 X53.968 Y177.357 E8.60251
G1 X53.265 Y176.79 E8.63255
G1 X52.615 Y176.164 E8.66256
G1 X52.022 Y175.482 E8.69262
G1 X51.493 Y174.75 E8.72266
G1 X51.03 Y173.974 E8.75271
G1 X50.638 Y173.161 E8.78273
G1 X50.319 Y172.316 E8.81277
G1 X50.077 Y171.446 E8.84281
G1 X49.912 Y170.558 E8.87285
G1 X49.826 Y169.659 E8.90289
G1 X49.82 Y168.756 E8.93292
G1 X49.958 Y167.428 E8.97733
G1 X50.111 Y166.538 E9.00736
G1 X61.972 Y102.758 E11.16507
G1 X71.866 Y49.562 E12.96471
G1 X72.009 Y48.85 E12.98887
G1 X72.226 Y47.973 E13.01892
G1 X72.519 Y47.119 E13.04895
G1 X72.887 Y46.294 E13.07899
G1 X73.327 Y45.505 E13.10904
G1 X73.834 Y44.758 E13.13907
G1 X74.406 Y44.059 E13.16911
G1 X75.037 Y43.413 E13.19914
G1 X75.723 Y42.825 E13.22919
G1 X76.458 Y42.301 E13.25922
G1 X77.237 Y41.843 E13.28927
G1 X78.053 Y41.457 E13.3193
G1 X78.9 Y41.143 E13.34934
G1 X79.771 Y40.907 E13.37935
G1 X80.66 Y40.748 E13.40939
G1 X81.866 Y40.659 E13.44961
G1 X82.72 Y40.648 E13.47802
G1 X137.439 Y40.649 E15.29798
G1 X138.136 Y40.659 E15.32117
G0 F6000 X138.142 Y40.259
G1 F1200 X139.061 Y40.312 E15.35178
G1 X139.972 Y40.445 E15.3824
G1 X140.868 Y40.656 E15.41302
G1 X141.743 Y40.944 E15.44366
G1 X142.589 Y41.308 E15.47429
G1 X143.4 Y41.743 E15.5049
G1 X144.171 Y42.246 E15.53552
G1 X144.895 Y42.815 E15.56614
G1 X145.566 Y43.445 E15.59676
G1 X146.181 Y44.13 E15.62738
G1 X146.734 Y44.866 E15.658
G1 X147.221 Y45.648 E15.68864
G1 X147.638 Y46.468 E15.71923
G1 X147.983 Y47.322 E15.74987
G1 X148.252 Y48.202 E15.78047
G1 X148.379 Y48.755 E15.79934
G1 X148.562 Y49.662 E15.83012
G1 X150.319 Y59.115 E16.14991
G1 X164.421 Y134.949 E18.7154
G1 X170.314 Y166.64 E19.78752
G1 X170.436 Y167.352 E19.81154
G1 X170.552 Y168.265 E19.84215
G1 X170.588 Y169.185 E19.87278
G1 X170.544 Y170.105 E19.90341
G1 X170.421 Y171.017 E19.93402
G1 X170.219 Y171.915 E19.96463
G1 X169.94 Y172.793 E19.99527
G1 X169.585 Y173.642 E20.02588
G1 X169.159 Y174.458 E20.0565
G1 X168.663 Y175.234 E20.08713
G1 X168.101 Y175.964 E20.11777
G1 X167.479 Y176.642 E20.14837
G1 X166.8 Y177.264 E20.179
G1 X166.069 Y177.824 E20.20963
G1 X165.293 Y178.319 E20.24024
G1 X164.477 Y178.745 E20.27086
G1 X163.627 Y179.098 E20.30147
G1 X162.749 Y179.376 E20.3321
G1 X161.851 Y179.577 E20.36271
G1 X160.938 Y179.699 E20.39334
G1 X160.138 Y179.741 E20.41999
G1 X159.283 Y179.752 E20.44843
G1 X60.707 Y179.752 E23.72708
G1 X60.554 Y179.751 E23.73217
G1 X59.86 Y179.741 E23.75525
G1 X58.941 Y179.688 E23.78587
G1 X58.03 Y179.555 E23.81649
G1 X57.134 Y179.344 E23.84711
G1 X56.26 Y179.055 E23.87773
G1 X55.414 Y178.692 E23.90834
G1 X54.602 Y178.257 E23.93898
G1 X53.832 Y177.753 E23.96959
G1 X53.108 Y177.184 E24.00022
G1 X52.436 Y176.555 E24.03083
G1 X51.821 Y175.869 E24.06148
G1 X51.269 Y175.133 E24.09207
G1 X50.782 Y174.352 E24.12269
G1 X50.364 Y173.531 E24.15333
G1 X50.02 Y172.677 E24.18395
G1 X49.751 Y171.797 E24.21456
G1 X49.559 Y170.897 E24.24516
G1 X49.446 Y169.983 E24.2758
G1 X49.413 Y169.063 E24.30642
G1 X49.46 Y168.143 E24.33705
G1 X49.564 Y167.36 E24.36333
G1 X49.718 Y166.465 E24.39353
G1 X61.579 Y102.685 E26.55123
G1 X71.474 Y49.483 E28.35108
G1 X71.617 Y48.771 E28.37524
G1 X71.837 Y47.877 E28.40586
G1 X72.134 Y47.005 E28.4365
G1 X72.505 Y46.163 E28.4671
G1 X72.949 Y45.356 E28.49774
G1 X73.46 Y44.591 E28.52833
G1 X74.036 Y43.873 E28.55895
G1 X74.673 Y43.207 E28.5896
G1 X75.364 Y42.599 E28.62022
G1 X76.106 Y42.054 E28.65084
G1 X76.892 Y41.575 E28.68145
G1 X77.717 Y41.166 E28.71208
G1 X78.574 Y40.83 E28.74269
G1 X79.457 Y40.57 E28.77331
G1 X80.359 Y40.387 E28.80392
G1 X81.274 Y40.283 E28.83455
G1 X81.86 Y40.259 E28.85406
G1 X82.72 Y40.248 E28.88266
G1 X137.445 Y40.249 E30.70282
G1 X138.142 Y40.259 E30.72601
G0 F6000 X138.148 Y39.859
G1 F1200 X139.084 Y39.913 E30.75719
G1 X140.013 Y40.046 E30.78841
G1 X140.926 Y40.257 E30.81957
G1 X141.819 Y40.546 E30.85079
G1 X142.683 Y40.909 E30.88196
G1 X143.513 Y41.345 E30.91314
G1 X144.304 Y41.85 E30.94436
G1 X145.048 Y42.421 E30.97555
G1 X145.741 Y43.053 E31.00674
G1 X146.378 Y43.742 E31.03795
G1 X146.954 Y44.482 E31.06914
G1 X147.464 Y45.269 E31.10034
G1 X147.906 Y46.096 E31.13152
G1 X148.275 Y46.958 E31.16271
G1 X148.57 Y47.848 E31.1939
G1 X148.771 Y48.676 E31.22223
G1 X148.955 Y49.589 E31.25321
G1 X150.712 Y59.041 E31.57297
G1 X164.815 Y134.876 E34.1385
G1 X170.708 Y166.572 E35.21078
G1 X170.83 Y167.284 E35.2348
G1 X170.949 Y168.215 E35.26602
G1 X170.988 Y169.152 E35.29721
G1 X170.947 Y170.089 E35.32841
G1 X170.827 Y171.019 E35.3596
G1 X170.627 Y171.935 E35.39078
G1 X170.351 Y172.831 E35.42196
G1 X169.999 Y173.701 E35.45318
G1 X169.574 Y174.537 E35.48437
G1 X169.08 Y175.334 E35.51556
G1 X168.519 Y176.086 E35.54676
G1 X167.897 Y176.787 E35.57793
G1 X167.217 Y177.433 E35.60913
G1 X166.484 Y178.019 E35.64034
G1 X165.705 Y178.54 E35.67151
G1 X164.883 Y178.993 E35.70273
G1 X164.026 Y179.374 E35.73392
G1 X163.14 Y179.681 E35.76511
G1 X162.231 Y179.911 E35.7963
G1 X161.305 Y180.063 E35.82751
G1 X160.144 Y180.141 E35.86621
G1 X159.283 Y180.152 E35.89485
G1 X60.707 Y180.152 E39.1735
G1 X60.549 Y180.151 E39.17875
G1 X59.855 Y180.141 E39.20184
G1 X58.918 Y180.087 E39.23306
G1 X57.99 Y179.954 E39.26424
G1 X57.076 Y179.743 E39.29544
G1 X56.184 Y179.454 E39.32662
G1 X55.319 Y179.09 E39.35784
G1 X54.489 Y178.654 E39.38902
G1 X53.699 Y178.149 E39.4202
G1 X52.954 Y177.579 E39.4514
G1 X52.261 Y176.947 E39.4826
G1 X51.625 Y176.258 E39.51379
G1 X51.049 Y175.518 E39.54498
G1 X50.539 Y174.731 E39.57617
G1 X50.097 Y173.903 E39.60738
G1 X49.727 Y173.041 E39.63858
G1 X49.433 Y172.151 E39.66976
G1 X49.215 Y171.239 E39.70095
G1 X49.075 Y170.311 E39.73216
G1 X49.015 Y169.375 E39.76336
G1 X49.036 Y168.438 E39.79453
G1 X49.169 Y167.293 E39.83287
G1 X49.324 Y166.392 E39.86328
G1 X61.185 Y102.612 E42.02098
G1 X71.081 Y49.404 E43.82103
G1 X71.224 Y48.692 E43.84518
G1 X71.448 Y47.781 E43.87639
G1 X71.749 Y46.893 E43.90757
G1 X72.124 Y46.033 E43.93878
G1 X72.571 Y45.209 E43.96996
G1 X73.086 Y44.425 E44.00116
G1 X73.666 Y43.688 E44.03235
G1 X74.308 Y43.004 E44.06355
G1 X75.005 Y42.376 E44.09475
G1 X75.753 Y41.811 E44.12593
G1 X76.546 Y41.31 E44.15713
G1 X77.379 Y40.88 E44.18831
G1 X78.246 Y40.522 E44.21951
G1 X79.14 Y40.239 E44.2507
G1 X80.055 Y40.033 E44.28189
G1 X80.984 Y39.906 E44.31308
G1 X81.854 Y39.859 E44.34206
G1 X82.72 Y39.848 E44.37086
G1 X137.451 Y39.849 E46.19122
G1 X138.148 Y39.859 E46.21441
G1 F2700 E41.21441
;MESH:test-2.stl
G0 F6000 X129.967 Y61.151
G0 X131.194 Y60.37
G0 X128.21 Y57.142
G0 X127.381 Y56.37
G0 X126.57 Y55.731
G0 X125.611 Y55.099
G0 X124.595 Y54.554
G0 X122.571 Y53.762
G0 X120.46 Y53.245
G0 X118.288 Y52.947
G0 X115.076 Y52.783
G0 X109.678 Y52.851
G0 X106.487 Y53.065
G0 X103.248 Y53.502
G0 X100.121 Y54.174
G0 X97.02 Y55.096
G0 X93.918 Y56.26
G0 X90.976 Y57.603
G0 X89.138 Y58.611
G0 X88.144 Y59.248
G0 X87.252 Y59.909
G0 X86.419 Y60.668
G0 X85.687 Y61.656
G0 X85.402 Y62.729
G0 X85.402 Y62.923
G0 X85.922 Y64.078
G0 X86.781 Y64.876
G0 X87.735 Y65.484
G0 X89.695 Y66.44
G0 X103.419 Y72.212
G0 X116.126 Y81.889
G0 X122.547 Y88.236
G0 X124.291 Y90.159
G0 X125.653 Y91.855
G0 X126.827 Y93.507
G0 X128.444 Y96.171
G0 X129.361 Y98.086
G0 X130.008 Y99.952
G0 X130.218 Y100.965
G0 X130.286 Y101.91
G0 X130.189 Y102.724
G0 X129.864 Y103.532
G0 X129.291 Y104.142
G0 X128.577 Y104.532
G0 X127.648 Y104.81
G0 X126.709 Y104.97
G0 X124.706 Y105.094
G0 X117.353 Y104.974
G0 X110.71 Y104.408
G0 X107.617 Y104.309
G0 X104.4 Y104.401
G0 X101.157 Y104.726
G0 X97.953 Y105.303
G0 X94.773 Y106.153
G0 X91.715 Y107.249
G0 X88.809 Y108.556
G0 X85.97 Y110.09
G0 X83.238 Y111.839
G0 X80.648 Y113.802
G0 X78.244 Y115.987
G0 X76.762 Y117.591
G0 X75.392 Y119.34
G0 X74.236 Y121.153
G0 X73.255 Y123.102
G0 X72.479 Y125.105
G0 X71.844 Y127.254
G0 X71.199 Y130.414
G0 X70.65 Y134.679
G0 X69.804 Y143.264
G0 X69.677 Y146.476
G0 X69.829 Y149.698
G0 X70.151 Y151.883
G0 X70.672 Y154
G0 X71.391 Y156.019
G0 X72.337 Y157.991
G0 X73.497 Y159.852
G0 X74.871 Y161.565
G0 X76.485 Y163.123
G0 X78.26 Y164.434
G0 X80.122 Y165.464
G0 X82.223 Y166.293
G0 X84.331 Y166.825
G0 X86.43 Y167.114
G0 X88.687 Y167.226
G0 X91.927 Y167.09
G0 X93.747 Y166.861
G0 X98.354 Y166.216
;TYPE:WALL-INNER
G1 F2700 E46.21441
G1 F1200 X99.405 Y165.965 E46.25035
G1 X100.453 Y165.694 E46.28635
G1 X101.495 Y165.402 E46.32234
G1 X102.53 Y165.094 E46.35826
G1 X103.559 Y164.768 E46.39416
G1 X104.582 Y164.425 E46.43005
G1 X105.6 Y164.065 E46.46596
G1 X106.611 Y163.688 E46.50185
G1 X107.616 Y163.294 E46.53775
G1 X108.614 Y162.88 E46.57369
G1 X109.575 Y162.465 E46.6085
G1 X110.532 Y162.031 E46.64345
G1 X111.505 Y161.569 E46.67928
G1 X112.551 Y161.045 E46.71819
G1 X113.461 Y160.567 E46.75238
G1 X114.404 Y160.049 E46.78816
G1 X115.333 Y159.513 E46.82383
G1 X116.251 Y158.958 E46.85951
G1 X117.234 Y158.338 E46.89817
G1 X118.089 Y157.768 E46.93235
G1 X118.969 Y157.158 E46.96796
G1 X119.836 Y156.529 E47.00359
G1 X120.756 Y155.831 E47.04199
G1 X121.562 Y155.194 E47.07616
G1 X122.387 Y154.513 E47.11174
G1 X123.258 Y153.763 E47.14997
G1 X124.023 Y153.078 E47.18413
G1 X124.861 Y152.298 E47.2222
G1 X125.6 Y151.587 E47.25631
G1 X126.354 Y150.833 E47.29178
G1 X127.096 Y150.069 E47.3272
G1 X127.877 Y149.237 E47.36516
G1 X128.617 Y148.42 E47.40182
G1 X129.342 Y147.591 E47.43845
G1 X130.004 Y146.807 E47.47258
G1 X130.701 Y145.952 E47.50927
G1 X131.38 Y145.086 E47.54587
G1 X131.999 Y144.269 E47.57996
G1 X132.649 Y143.38 E47.61659
G1 X133.282 Y142.479 E47.65321
G1 X133.896 Y141.565 E47.68983
G1 X134.453 Y140.704 E47.72394
G1 X135.035 Y139.77 E47.76054
G1 X135.595 Y138.824 E47.79711
G1 X136.138 Y137.869 E47.83365
G1 X136.644 Y136.937 E47.86892
G1 X137.116 Y136.021 E47.90319
G1 X137.618 Y135.007 E47.94082
G1 X138.084 Y134.013 E47.97734
G1 X138.528 Y133.01 E48.01382
G1 X138.926 Y132.065 E48.04792
G1 X139.333 Y131.049 E48.08433
G1 X139.723 Y130.019 E48.12096
G1 X140.091 Y128.986 E48.15743
G1 X140.438 Y127.949 E48.1938
G1 X140.746 Y126.971 E48.22791
G1 X141.059 Y125.922 E48.26432
G1 X141.352 Y124.869 E48.30067
G1 X141.627 Y123.812 E48.337
G1 X141.885 Y122.749 E48.37338
G1 X142.109 Y121.749 E48.40746
G1 X142.319 Y120.746 E48.44154
G1 X142.542 Y119.604 E48.48025
G1 X142.732 Y118.528 E48.51659
G1 X142.907 Y117.449 E48.55294
G1 X143.054 Y116.436 E48.58699
G1 X143.197 Y115.354 E48.62329
G1 X143.324 Y114.27 E48.65959
G1 X143.433 Y113.184 E48.69589
G1 X143.527 Y112.096 E48.73221
G1 X143.6 Y111.075 E48.76626
G1 X143.664 Y109.984 E48.80261
G1 X143.712 Y108.892 E48.83896
G1 X143.744 Y107.801 E48.87527
G1 X143.761 Y106.71 E48.91156
G1 X143.765 Y105.687 E48.94558
G1 X143.753 Y104.594 E48.98194
G1 X143.728 Y103.504 E49.0182
G1 X143.688 Y102.411 E49.05458
G1 X143.632 Y101.32 E49.09091
G1 X143.569 Y100.298 E49.12497
G1 X143.486 Y99.216 E49.16106
G1 X143.388 Y98.121 E49.19763
G1 X143.276 Y97.034 E49.23397
G1 X143.159 Y96.017 E49.26802
G1 X143.016 Y94.932 E49.30442
G1 X142.862 Y93.849 E49.3408
G1 X142.692 Y92.769 E49.37717
G1 X142.502 Y91.668 E49.41433
G1 X142.32 Y90.684 E49.44761
G1 X142.106 Y89.612 E49.48397
G1 X141.875 Y88.543 E49.52035
G1 X141.631 Y87.478 E49.55669
G1 X141.371 Y86.415 E49.59308
G1 X141.116 Y85.425 E49.62709
G1 X140.827 Y84.37 E49.66347
G1 X140.527 Y83.32 E49.69979
G1 X140.212 Y82.272 E49.73618
G1 X139.908 Y81.297 E49.77015
G1 X139.571 Y80.257 E49.80651
G1 X139.224 Y79.222 E49.84282
G1 X138.867 Y78.191 E49.87911
G1 X138.5 Y77.16 E49.91551
G1 X138.152 Y76.201 E49.94944
G1 X137.379 Y74.154 E50.02222
G1 X136.587 Y72.128 E50.09457
G1 X135.807 Y70.191 E50.16402
G1 X135.389 Y69.175 E50.20056
G1 X134.993 Y68.234 E50.23452
G1 X134.571 Y67.26 E50.26982
G1 X134.105 Y66.221 E50.3077
G1 X133.673 Y65.29 E50.34183
G1 X133.17 Y64.261 E50.37993
G1 X132.667 Y63.283 E50.41651
G1 X132.177 Y62.376 E50.45079
G1 X131.629 Y61.429 E50.48718
G1 X131.035 Y60.473 E50.52462
G1 X130.414 Y59.554 E50.56151
G1 X129.795 Y58.714 E50.59621
G1 X129.102 Y57.871 E50.63251
G1 X128.324 Y57.029 E50.67064
G1 X127.486 Y56.248 E50.70874
G1 X126.664 Y55.6 E50.74355
G1 X125.694 Y54.961 E50.78219
G1 X124.665 Y54.41 E50.82101
G1 X123.673 Y53.979 E50.85698
G1 X122.62 Y53.609 E50.89411
G1 X121.605 Y53.329 E50.92913
G1 X120.49 Y53.088 E50.96707
G1 X119.367 Y52.909 E51.00489
G1 X118.304 Y52.787 E51.04048
G1 X117.21 Y52.701 E51.07698
G1 X116.118 Y52.647 E51.11334
G1 X115.08 Y52.622 E51.14787
G1 X114.003 Y52.613 E51.1837
G1 X112.919 Y52.618 E51.21975
G1 X111.883 Y52.629 E51.25421
G1 X110.754 Y52.654 E51.29177
G1 X109.671 Y52.69 E51.32781
G1 X108.583 Y52.743 E51.36404
G1 X107.497 Y52.816 E51.40024
G1 X106.471 Y52.905 E51.4345
G1 X105.385 Y53.024 E51.47083
G1 X104.301 Y53.17 E51.50721
G1 X103.219 Y53.344 E51.54366
G1 X102.14 Y53.547 E51.58018
G1 X101.064 Y53.78 E51.6168
G1 X100.081 Y54.019 E51.65044
G1 X98.882 Y54.349 E51.69181
G1 X97.869 Y54.652 E51.72697
G1 X96.968 Y54.944 E51.75848
G1 X95.887 Y55.323 E51.79658
G1 X94.922 Y55.685 E51.83086
G1 X93.856 Y56.111 E51.86904
G1 X92.911 Y56.514 E51.90321
G1 X91.936 Y56.956 E51.93881
G1 X90.904 Y57.459 E51.977
G1 X89.923 Y57.976 E52.01388
G1 X89.055 Y58.474 E52.04716
G1 X88.053 Y59.116 E52.08674
G1 X87.15 Y59.785 E52.12412
G1 X86.3 Y60.56 E52.16238
G1 X85.629 Y61.437 E52.19911
G1 X85.537 Y61.592 E52.2051
G1 X85.241 Y62.708 E52.2435
G1 X85.241 Y62.956 E52.25175
G1 X85.69 Y64.034 E52.29059
G1 X85.801 Y64.185 E52.29683
G1 X86.682 Y65.004 E52.33683
G1 X87.654 Y65.623 E52.37516
G1 X88.581 Y66.108 E52.40996
G1 X89.631 Y66.588 E52.44836
G1 X90.562 Y66.977 E52.48192
G1 X91.645 Y67.404 E52.52064
G1 X92.601 Y67.764 E52.55461
G1 X95.615 Y68.873 E52.66143
G1 X96.599 Y69.243 E52.69639
G1 X97.589 Y69.627 E52.73171
G1 X98.668 Y70.061 E52.77039
G1 X99.649 Y70.483 E52.80591
G1 X100.603 Y70.919 E52.8408
G1 X101.526 Y71.373 E52.87501
