;FLAVOR:Marlin
;TIME:1657
;Filament used: 0.823966m
;Layer height: 0.12
;MINX:73.771
;MINY:77.014
;MINZ:0.12
;MAXX:146.228
;MAXY:142.986
;MAXZ:5.76
;Generated with Cura_SteamEngine 4.6.1
M140 S52
M105
M190 S52
M104 S203
M105
M109 S203
M82 ;absolute extrusion mode
M201 X500.00 Y500.00 Z100.00 E5000.00 ;Setup machine max acceleration
M203 X500.00 Y500.00 Z10.00 E50.00 ;Setup machine max feedrate
M204 P500.00 R1000.00 T500.00 ;Setup Print/Retract/Travel acceleration
M205 X8.00 Y8.00 Z0.40 E5.00 ;Setup Jerk
M220 S100 ;Reset Feedrate
M221 S100 ;Reset Flowrate

G28 ;Home

G92 E0 ;Reset Extruder
G1 Z2.0 F3000 ;Move Z Axis up
G1 X10.1 Y20 Z0.28 F5000.0 ;Move to start position
G1 X10.1 Y200.0 Z0.28 F1500.0 E15 ;Draw the first line
G1 X10.4 Y200.0 Z0.28 F5000.0 ;Move to side a little
G1 X10.4 Y20 Z0.28 F1500.0 E30 ;Draw the second line
G92 E0 ;Reset Extruder
G1 Z2.0 F3000 ;Move Z Axis up

G92 E0
G92 E0
G1 F2700 E-5
;LAYER_COUNT:49
;LAYER:0
M107
G0 F6000 X122.537 Y77.824 Z0.12
;TYPE:SKIRT
G1 F2700 E0
G1 F1200 X123.438 Y77.877 E0.01801
G1 X124.332 Y78.009 E0.03605
G1 X125.21 Y78.22 E0.05407
G1 X126.066 Y78.508 E0.07209
G1 X126.893 Y78.87 E0.0901
G1 X127.486 Y79.186 E0.10351
G1 X127.911 Y79.431 E0.1133
G1 X128.673 Y79.916 E0.13133
G1 X129.389 Y80.467 E0.14936
G1 X130.053 Y81.079 E0.16738
G1 X130.66 Y81.747 E0.18539
G1 X131.206 Y82.467 E0.20342
G1 X131.547 Y82.992 E0.21592
G1 X132.174 Y84.035 E0.2402
G1 X143.804 Y104.179 E0.70439
G1 X144.124 Y104.751 E0.71747
G1 X144.529 Y105.558 E0.73548
G1 X144.862 Y106.398 E0.75352
G1 X145.119 Y107.263 E0.77152
G1 X145.298 Y108.148 E0.78954
G1 X145.399 Y109.046 E0.80758
G1 X145.421 Y109.593 E0.8185
G1 X145.428 Y110.111 E0.82884
G1 X145.4 Y111.014 E0.84687
G1 X145.293 Y111.911 E0.8649
G1 X145.106 Y112.794 E0.88291
G1 X144.843 Y113.658 E0.90093
G1 X144.503 Y114.495 E0.91896
G1 X144.259 Y114.992 E0.93001
G1 X144.113 Y115.27 E0.93628
G1 X143.918 Y115.625 E0.94436
G1 X131.934 Y136.381 E1.42265
G1 X131.6 Y136.941 E1.43566
G1 X131.104 Y137.695 E1.45367
G1 X130.542 Y138.403 E1.47171
G1 X129.921 Y139.058 E1.48972
G1 X129.244 Y139.655 E1.50774
G1 X128.516 Y140.191 E1.52578
G1 X128.003 Y140.513 E1.53787
G1 X127.577 Y140.763 E1.54772
G1 X126.778 Y141.185 E1.56575
G1 X125.946 Y141.535 E1.58377
G1 X125.085 Y141.81 E1.6018
G1 X124.204 Y142.008 E1.61982
G1 X123.309 Y142.127 E1.63784
G1 X122.614 Y142.164 E1.65173
G1 X121.395 Y142.186 E1.67606
G1 X98.165 Y142.185 E2.13964
G1 X97.467 Y142.175 E2.15357
G1 X96.565 Y142.122 E2.1716
G1 X95.672 Y141.99 E2.18962
G1 X94.794 Y141.779 E2.20764
G1 X93.938 Y141.491 E2.22566
G1 X93.111 Y141.129 E2.24368
G1 X92.567 Y140.841 E2.25596
G1 X92.119 Y140.586 E2.26625
G1 X91.355 Y140.105 E2.28426
G1 X90.636 Y139.558 E2.30229
G1 X89.969 Y138.95 E2.3203
G1 X89.357 Y138.285 E2.33834
G1 X88.807 Y137.568 E2.35637
G1 X88.479 Y137.068 E2.36831
G1 X88.143 Y136.514 E2.38124
G1 X76.195 Y115.819 E2.85811
G1 X75.869 Y115.236 E2.87144
G1 X75.464 Y114.429 E2.88946
G1 X75.131 Y113.59 E2.90748
G1 X74.875 Y112.724 E2.9255
G1 X74.695 Y111.839 E2.94352
G1 X74.595 Y110.941 E2.96155
G1 X74.572 Y110.278 E2.97479
G1 X74.571 Y109.771 E2.98491
G1 X74.609 Y108.869 E3.00293
G1 X74.727 Y107.973 E3.02096
G1 X74.924 Y107.092 E3.03898
G1 X75.197 Y106.231 E3.057
G1 X75.742 Y105.007 E3.08374
G1 X75.897 Y104.712 E3.09039
G1 X76.094 Y104.354 E3.09854
G1 X77.284 Y102.294 E3.14602
G1 X88.026 Y83.687 E3.57478
G1 X88.396 Y83.065 E3.58922
G1 X88.891 Y82.31 E3.60724
G1 X89.452 Y81.602 E3.62526
G1 X90.073 Y80.946 E3.64329
G1 X90.749 Y80.348 E3.6613
G1 X91.476 Y79.812 E3.67933
G1 X92.043 Y79.457 E3.69268
G1 X92.467 Y79.211 E3.70246
G1 X93.268 Y78.793 E3.72049
G1 X94.102 Y78.447 E3.73851
G1 X94.964 Y78.177 E3.75654
G1 X95.846 Y77.984 E3.77455
G1 X96.742 Y77.869 E3.79258
G1 X97.386 Y77.836 E3.80545
G1 X98.607 Y77.814 E3.82982
G1 X121.832 Y77.814 E4.2933
G1 X122.537 Y77.824 E4.30737
G0 F6000 X122.542 Y77.424
G1 F1200 X123.461 Y77.477 E4.32574
G1 X124.373 Y77.61 E4.34413
G1 X125.269 Y77.821 E4.3625
G1 X126.143 Y78.109 E4.38087
G1 X126.989 Y78.472 E4.39924
G1 X127.686 Y78.84 E4.41497
G1 X128.111 Y79.085 E4.42476
G1 X128.888 Y79.579 E4.44313
G1 X129.619 Y80.138 E4.4615
G1 X130.299 Y80.759 E4.47987
G1 X130.922 Y81.437 E4.49825
G1 X131.484 Y82.166 E4.51662
G1 X131.889 Y82.785 E4.53138
G1 X132.521 Y83.835 E4.55584
G1 X144.153 Y103.984 E5.02012
G1 X144.473 Y104.556 E5.0332
G1 X144.887 Y105.378 E5.05157
G1 X145.228 Y106.233 E5.06994
G1 X145.494 Y107.114 E5.08831
G1 X145.682 Y108.016 E5.10669
G1 X145.792 Y108.93 E5.12506
G1 X145.821 Y109.588 E5.13821
G1 X145.828 Y110.106 E5.14855
G1 X145.8 Y111.026 E5.16691
G1 X145.693 Y111.94 E5.18528
G1 X145.507 Y112.842 E5.20366
G1 X145.243 Y113.724 E5.22203
G1 X144.904 Y114.58 E5.2404
G1 X144.614 Y115.178 E5.25367
G1 X144.468 Y115.456 E5.25993
G1 X144.264 Y115.825 E5.26835
G1 X132.278 Y136.586 E5.74675
G1 X131.944 Y137.146 E5.75976
G1 X131.438 Y137.915 E5.77813
G1 X130.868 Y138.638 E5.7965
G1 X130.237 Y139.308 E5.81487
G1 X129.55 Y139.922 E5.83326
G1 X128.813 Y140.473 E5.85162
G1 X128.205 Y140.858 E5.86598
G1 X127.779 Y141.108 E5.87584
G1 X126.966 Y141.539 E5.8942
G1 X126.118 Y141.898 E5.91258
G1 X125.242 Y142.182 E5.93095
G1 X124.345 Y142.389 E5.94933
G1 X123.433 Y142.517 E5.9677
G1 X122.622 Y142.564 E5.98392
G1 X121.395 Y142.586 E6.00841
G1 X98.159 Y142.585 E6.47211
G1 X97.461 Y142.575 E6.48604
G1 X96.542 Y142.522 E6.50441
G1 X95.631 Y142.389 E6.52278
G1 X94.735 Y142.178 E6.54115
G1 X93.861 Y141.89 E6.55951
G1 X93.014 Y141.527 E6.5779
G1 X92.369 Y141.188 E6.59244
G1 X91.921 Y140.933 E6.60273
G1 X91.142 Y140.443 E6.6211
G1 X90.408 Y139.888 E6.63946
G1 X89.725 Y139.271 E6.65783
G1 X89.097 Y138.597 E6.67621
G1 X88.531 Y137.871 E6.69458
G1 X88.138 Y137.278 E6.70878
G1 X87.796 Y136.714 E6.72194
G1 X75.846 Y116.014 E7.19893
G1 X75.52 Y115.431 E7.21226
G1 X75.106 Y114.609 E7.23062
G1 X74.765 Y113.754 E7.24899
G1 X74.499 Y112.872 E7.26738
G1 X74.311 Y111.971 E7.28575
G1 X74.202 Y111.057 E7.30411
G1 X74.172 Y110.279 E7.31965
G1 X74.171 Y109.772 E7.32977
G1 X74.209 Y108.852 E7.34815
G1 X74.327 Y107.939 E7.36652
G1 X74.524 Y107.04 E7.38488
G1 X74.798 Y106.161 E7.40326
G1 X75.147 Y105.309 E7.42163
G1 X75.387 Y104.821 E7.43248
G1 X75.542 Y104.526 E7.43913
G1 X75.747 Y104.154 E7.44761
G1 X76.937 Y102.094 E7.49509
G1 X87.682 Y83.483 E7.92394
G1 X88.052 Y82.861 E7.93839
G1 X88.557 Y82.091 E7.95676
G1 X89.126 Y81.367 E7.97514
G1 X89.756 Y80.696 E7.99351
G1 X90.442 Y80.082 E8.01188
G1 X91.179 Y79.53 E8.03025
G1 X91.842 Y79.111 E8.04591
G1 X92.266 Y78.865 E8.05569
G1 X93.082 Y78.438 E8.07407
G1 X93.932 Y78.084 E8.09244
G1 X94.809 Y77.804 E8.11081
G1 X95.707 Y77.602 E8.12918
G1 X96.619 Y77.478 E8.14755
G1 X97.378 Y77.436 E8.16272
G1 X98.607 Y77.414 E8.18725
G1 X121.837 Y77.414 E8.65083
G1 X122.542 Y77.424 E8.6649
G0 F6000 X122.548 Y77.024
G1 F1200 X123.484 Y77.077 E8.68361
G1 X124.413 Y77.21 E8.70234
G1 X125.327 Y77.422 E8.72106
G1 X126.219 Y77.71 E8.73977
G1 X127.083 Y78.074 E8.75848
G1 X127.886 Y78.493 E8.77655
G1 X128.311 Y78.738 E8.78634
G1 X129.103 Y79.241 E8.80506
G1 X129.849 Y79.809 E8.82378
G1 X130.544 Y80.439 E8.8425
G1 X131.183 Y81.125 E8.8612
G1 X131.761 Y81.864 E8.87993
G1 X132.231 Y82.578 E8.89699
G1 X132.867 Y83.635 E8.9216
G1 X144.502 Y103.788 E9.38599
G1 X144.822 Y104.36 E9.39907
G1 X145.244 Y105.198 E9.4178
G1 X145.594 Y106.068 E9.43651
G1 X145.869 Y106.965 E9.45523
G1 X146.065 Y107.882 E9.47395
G1 X146.184 Y108.812 E9.49266
G1 X146.221 Y109.582 E9.50804
G1 X146.228 Y110.1 E9.51838
G1 X146.201 Y111.038 E9.5371
G1 X146.094 Y111.97 E9.55583
G1 X145.908 Y112.889 E9.57454
G1 X145.644 Y113.789 E9.59325
G1 X145.304 Y114.663 E9.61197
G1 X144.968 Y115.364 E9.62748
G1 X144.822 Y115.642 E9.63375
G1 X144.611 Y116.025 E9.64247
G1 X144.094 Y116.921 E9.66312
G1 X132.621 Y136.791 E10.121
G1 X132.287 Y137.351 E10.13401
G1 X131.773 Y138.135 E10.15272
G1 X131.194 Y138.873 E10.17144
G1 X130.554 Y139.558 E10.19015
G1 X129.858 Y140.187 E10.20887
G1 X129.111 Y140.754 E10.22758
G1 X128.407 Y141.203 E10.24425
G1 X127.981 Y141.453 E10.2541
G1 X127.153 Y141.893 E10.27282
G1 X126.29 Y142.26 E10.29153
G1 X125.399 Y142.553 E10.31025
G1 X124.487 Y142.769 E10.32895
G1 X123.559 Y142.906 E10.34767
G1 X122.63 Y142.964 E10.36625
G1 X121.395 Y142.986 E10.3909
G1 X98.153 Y142.985 E10.85472
G1 X97.455 Y142.975 E10.86865
G1 X96.519 Y142.921 E10.88736
G1 X95.591 Y142.789 E10.90606
G1 X94.677 Y142.577 E10.92479
G1 X93.785 Y142.288 E10.9435
G1 X92.92 Y141.925 E10.96222
G1 X92.172 Y141.536 E10.97904
G1 X91.724 Y141.281 E10.98933
G1 X90.929 Y140.783 E11.00805
G1 X90.18 Y140.218 E11.02677
G1 X89.481 Y139.593 E11.04549
G1 X88.839 Y138.909 E11.06421
G1 X88.257 Y138.174 E11.08292
G1 X87.798 Y137.488 E11.09939
G1 X87.45 Y136.914 E11.11278
G1 X75.497 Y116.21 E11.58987
G1 X75.171 Y115.627 E11.6032
G1 X74.749 Y114.789 E11.62192
G1 X74.399 Y113.919 E11.64063
G1 X74.125 Y113.022 E11.65935
G1 X73.928 Y112.105 E11.67807
G1 X73.81 Y111.175 E11.69678
G1 X73.772 Y110.28 E11.71465
G1 X73.771 Y109.773 E11.72477
G1 X73.809 Y108.836 E11.74349
G1 X73.927 Y107.905 E11.76221
G1 X74.124 Y106.988 E11.78093
G1 X74.398 Y106.091 E11.79965
G1 X74.747 Y105.221 E11.81835
G1 X75.033 Y104.635 E11.83137
G1 X75.188 Y104.34 E11.83802
G1 X75.401 Y103.954 E11.84682
G1 X76.591 Y101.894 E11.89429
G1 X87.338 Y83.278 E12.32326
G1 X87.708 Y82.656 E12.3377
G1 X88.222 Y81.871 E12.35642
G1 X88.8 Y81.133 E12.37513
G1 X89.439 Y80.447 E12.39384
G1 X90.134 Y79.817 E12.41256
G1 X90.881 Y79.25 E12.43127
G1 X91.642 Y78.765 E12.44928
G1 X92.066 Y78.519 E12.45907
G1 X92.896 Y78.084 E12.47777
G1 X93.761 Y77.72 E12.49649
G1 X94.653 Y77.432 E12.5152
G1 X95.567 Y77.221 E12.53392
G1 X96.496 Y77.088 E12.55265
G1 X97.371 Y77.036 E12.57014
G1 X98.607 Y77.014 E12.59481
G1 X121.843 Y77.014 E13.05851
G1 X122.548 Y77.024 E13.07258
G1 F2700 E8.07258
;MESH:Top-2.stl
G0 F6000 X122.391 Y87.349
G0 X122.392 Y88.033
G0 X134.758 Y110
G0 X122.475 Y131.607
;TYPE:WALL-OUTER
G1 F2700 E13.07258
G1 F1200 X134.949 Y110 E13.57047
G1 X122.474 Y88.394 E14.06835
G1 X97.525 Y88.393 E14.56623
G1 X85.604 Y109.042 E15.04205
G1 X85.05 Y110 E15.06413
G1 X91.039 Y120.374 E15.30318
G1 X91.535 Y121.232 E15.32296
G1 X97.526 Y131.606 E15.56202
G1 X122.475 Y131.607 E16.05991
G1 F2700 E11.05991
G0 F6000 X97.657 Y131.786
G1 F2700 E16.05991
G1 F1200 X97.303 Y131.582 E16.06806
G1 X84.961 Y110.205 E16.56066
G1 X84.961 Y109.795 E16.56884
G1 X86.289 Y107.496 E16.62182
G1 X97.302 Y88.418 E17.06143
G1 X97.657 Y88.214 E17.0696
G1 X122.343 Y88.213 E17.56223
G1 X122.697 Y88.418 E17.5704
G1 X135.039 Y109.795 E18.06299
G1 X135.039 Y110.205 E18.07117
G1 X134.388 Y111.331 E18.09713
G1 X122.698 Y131.582 E18.56376
G1 X122.343 Y131.786 E18.57193
G1 X97.657 Y131.786 E19.06457
G0 F6000 X97.759 Y131.806
;MESH:NONMESH
G0 F300 X97.759 Y131.806 Z0.24
G0 F6000 X122.451 Y131.565
;TIME_ELAPSED:55.128223
;LAYER:1
M140 S52
M106 S85
;TYPE:WALL-OUTER
;MESH:Top-2.stl
G1 F1800 X134.901 Y110 E19.56149
G1 X122.45 Y88.436 E20.05841
G1 X97.549 Y88.435 E20.55533
G1 X85.982 Y108.47 E21.017
G1 X85.098 Y110 E21.05227
G1 X90.91 Y120.067 E21.28424
G1 X97.55 Y131.564 E21.54919
G1 X122.451 Y131.565 E22.04612
G1 F2700 E17.04612
G0 F9000 X122.45 Y131.764
G0 X97.709 Y131.934
G0 X97.657 Y132.13
G1 F2700 E22.04612
G1 F1800 X97.005 Y131.754 E22.06114
G1 X84.663 Y110.377 E22.55373
G1 X84.663 Y109.623 E22.56878
G1 X97.004 Y88.245 E23.06138
G1 X97.657 Y87.87 E23.07641
G1 X122.343 Y87.869 E23.56905
G1 X122.995 Y88.246 E23.58408
G1 X135.337 Y109.623 E24.07667
G1 X135.337 Y110.377 E24.09172
G1 X122.996 Y131.755 E24.58432
G1 X122.343 Y132.13 E24.59935
G1 X97.657 Y132.13 E25.09199
G0 F9000 X97.821 Y131.846
;TYPE:SKIN
G1 F1800 X98.104 Y131.846 E25.09502
G1 X122.146 Y131.846 E25.35279
G1 X122.444 Y131.83 E25.35599
G1 X122.87 Y131.404 E25.36244
G1 X128.277 Y122.037 E25.4784
G1 X133.299 Y113.339 E25.58609
G1 X134.843 Y110.663 E25.61921
G1 X135.102 Y109.838 E25.62848
G1 X133.983 Y107.846 E25.65298
G1 X131.188 Y103.005 E25.71291
G1 X128.393 Y98.163 E25.77285
G1 X125.597 Y93.322 E25.83279
G1 X122.802 Y88.481 E25.89272
G1 X122.495 Y88.221 E25.89703
G1 X121.433 Y88.152 E25.90844
G1 X97.674 Y88.152 E26.16317
G1 X97.151 Y88.393 E26.16935
G1 X96.985 Y88.841 E26.17447
G1 X91.578 Y98.207 E26.29042
G1 X86.557 Y106.906 E26.3981
G1 X85.072 Y109.522 E26.43035
G1 X84.854 Y110.023 E26.43621
G1 X85.328 Y110.964 E26.44751
G1 X88.02 Y115.626 E26.50523
G1 X90.815 Y120.467 E26.56516
G1 X93.611 Y125.308 E26.6251
G1 X96.406 Y130.149 E26.68503
G1 X97.242 Y131.576 E26.70276
G1 X97.588 Y131.796 E26.70715
G0 F9000 X97.87 Y131.677
G1 F2700 E21.70715
;MESH:NONMESH
G0 F300 X97.87 Y131.677 Z0.36
G0 F9000 X97.87 Y131.764
G0 X97.473 Y131.698
G0 X84.943 Y110
G0 X97.55 Y88.161
G0 X97.503 Y88.077
;TIME_ELAPSED:72.646813
;LAYER:2
M106 S170
;TYPE:WALL-INNER
;MESH:Top-2.stl
G1 F2700 E26.70715
G1 F2400 X97.765 Y87.926 E26.71319
G1 X122.236 Y87.925 E27.20153
G1 X122.499 Y88.077 E27.2076
G1 X122.236 Y88.077 E27.20843
G1 X97.765 Y88.077 E27.39385
G1 X97.503 Y88.077 E27.39467
G0 F12000 X97.263 Y88.215
G1 F2400 X97.132 Y88.443 E27.39992
G1 X84.897 Y109.632 E27.8882
G1 X84.766 Y109.858 E27.89341
G1 X84.766 Y109.557 E27.89502
G1 X96.999 Y88.367 E28.08042
G1 X97.263 Y88.215 E28.08207
G0 F12000 X84.766 Y110.142
G1 F2400 X84.896 Y110.367 E28.08725
G1 X97.132 Y131.556 E28.57554
G1 X97.265 Y131.786 E28.58084
G1 X97.001 Y131.633 E28.58247
G1 X84.766 Y110.443 E28.76667
G1 X84.766 Y110.142 E28.76829
G0 F12000 X97.502 Y131.923
G1 F2400 X97.763 Y131.923 E28.7735
G1 X122.235 Y131.923 E29.26187
G1 X122.497 Y131.923 E29.26709
G1 X122.235 Y132.074 E29.26871
G1 X97.763 Y132.074 E29.45353
G1 X97.502 Y131.923 E29.45515
G1 F2700 E24.45515
G0 F12000 X122.504 Y131.657
G0 X135.234 Y110.14
G1 F2700 E29.45515
G1 F2400 X135.234 Y110.443 E29.4612
G1 X123.001 Y131.633 E29.94947
G1 X122.737 Y131.785 E29.95555
G1 X122.868 Y131.557 E29.95637
G1 X135.102 Y110.368 E30.14238
G1 X135.234 Y110.14 E30.1432
G0 F12000 X122.735 Y88.213
G1 F2400 X122.999 Y88.366 E30.14929
G1 X135.234 Y109.557 E30.63761
G1 X135.234 Y109.86 E30.64365
G1 X135.103 Y109.633 E30.64447
G1 X122.868 Y88.443 E30.82927
G1 X122.735 Y88.213 E30.8301
G1 F2700 E25.8301
G0 F12000 X135.008 Y110
G0 X122.504 Y131.657
G0 X97.575 Y131.723
G0 X97.575 Y131.523
;TYPE:WALL-OUTER
G1 F2700 E30.8301
G1 F2400 X122.426 Y131.523 E31.32603
G1 X134.853 Y110 E31.822
G1 X122.425 Y88.477 E32.31798
G1 X97.574 Y88.477 E32.8139
G1 X85.146 Y110 E33.30988
G1 X97.575 Y131.523 E33.80587
G0 F12000 X97.657 Y132.474
G1 F2400 X96.708 Y131.926 E33.82774
G1 X84.366 Y110.549 E34.32033
G1 X84.366 Y109.451 E34.34225
G1 X96.707 Y88.073 E34.83485
G1 X97.657 Y87.526 E34.85673
G1 X122.343 Y87.525 E35.34936
G1 X123.292 Y88.074 E35.37124
G1 X135.634 Y109.451 E35.86384
G1 X135.634 Y110.549 E35.88575
G1 X123.293 Y131.927 E36.37835
G1 X122.343 Y132.474 E36.40023
G1 X97.657 Y132.474 E36.89287
G0 F12000 X97.77 Y132.05
G0 X97.809 Y132.023
;MESH:NONMESH
G0 F300 X97.809 Y132.023 Z0.48
G0 F12000 X122.757 Y131.667
;TIME_ELAPSED:93.923535
;LAYER:3
M106 S255
;TYPE:WALL-INNER
;MESH:Top-2.stl
G1 F2400 X135.142 Y110.214 E37.3872
G1 X135.266 Y110 E37.39214
G1 X135.142 Y109.786 E37.39708
G1 X122.755 Y88.332 E37.89145
G1 X122.632 Y88.119 E37.89636
G1 X122.387 Y88.119 E37.90125
G1 X97.617 Y88.118 E38.39556
G1 X97.367 Y88.118 E38.40055
G1 X97.243 Y88.333 E38.4055
G1 X86.393 Y107.127 E38.83857
G1 X84.857 Y109.785 E38.89984
G1 X84.733 Y110 E38.90479
G1 X84.858 Y110.216 E38.90977
G1 X90.307 Y119.654 E39.12725
G1 X97.245 Y131.668 E39.40411
G1 X97.368 Y131.881 E39.40902
G1 X97.614 Y131.881 E39.41393
G1 X122.383 Y131.882 E39.90822
G1 X122.633 Y131.882 E39.91321
G1 X122.757 Y131.667 E39.91816
G0 F12000 X122.402 Y131.482
;TYPE:WALL-OUTER
G1 F2400 X134.804 Y110 E40.41317
G1 X122.401 Y88.519 E40.90817
G1 X97.598 Y88.518 E41.40315
G1 X86.739 Y107.327 E41.83656
G1 X85.195 Y110 E41.89816
G1 X90.653 Y119.454 E42.11601
G1 X97.599 Y131.481 E42.39318
G1 X122.402 Y131.482 E42.88815
G0 F12000 X122.66 Y131.632
G0 X122.561 Y131.699
G0 X97.763 Y132.418
;TYPE:WALL-INNER
G1 F2400 X97.448 Y132.236 E42.89541
G1 X97.235 Y132.113 E42.89953
G1 X97.022 Y131.99 E42.90365
