;FLAVOR:Marlin
;TIME:6296
;Filament used: 6.78634m
;Layer height: 0.2
;MINX:64.034
;MINY:68.684
;MINZ:0.2
;MAXX:155.966
;MAXY:151.316
;MAXZ:15.2
;Generated with Cura_SteamEngine 4.6.1
M140 S55
M105
M190 S55
M104 S205
M105
M109 S205
M82 ;absolute extrusion mode
M201 X500.00 Y500.00 Z100.00 E5000.00 ;Setup machine max acceleration
M203 X500.00 Y500.00 Z10.00 E50.00 ;Setup machine max feedrate
M204 P500.00 R1000.00 T500.00 ;Setup Print/Retract/Travel acceleration
M205 X8.00 Y8.00 Z0.40 E5.00 ;Setup Jerk
M220 S100 ;Reset Feedrate
M221 S100 ;Reset Flowrate

G28 ;Home

G92 E0 ;Reset Extruder
G1 Z2.0 F3000 ;Move Z Axis up
G1 X10.1 Y20 Z0.28 F5000.0 ;Move to start position
G1 X10.1 Y200.0 Z0.28 F1500.0 E15 ;Draw the first line
G1 X10.4 Y200.0 Z0.28 F5000.0 ;Move to side a little
G1 X10.4 Y20 Z0.28 F1500.0 E30 ;Draw the second line
G92 E0 ;Reset Extruder
G1 Z2.0 F3000 ;Move Z Axis up

G92 E0
G92 E0
G1 F2700 E-5
;LAYER_COUNT:76
;LAYER:0
M107
G0 F6000 X127.663 Y69.529 Z0.2
;TYPE:SKIRT
G1 F2700 E0
G1 F1200 X128.564 Y69.583 E0.03002
G1 X129.457 Y69.716 E0.06005
G1 X130.335 Y69.928 E0.09009
G1 X131.191 Y70.216 E0.12013
G1 X132.018 Y70.579 E0.15017
G1 X132.809 Y71.014 E0.18019
G1 X133.559 Y71.517 E0.21023
G1 X134.262 Y72.085 E0.24029
G1 X134.912 Y72.712 E0.27033
G1 X135.503 Y73.394 E0.30034
G1 X136.22 Y74.423 E0.34206
G1 X136.712 Y75.238 E0.37372
G1 X153.538 Y104.447 E1.49488
G1 X153.869 Y105.039 E1.51744
G1 X154.274 Y105.846 E1.54747
G1 X154.607 Y106.686 E1.57752
G1 X154.864 Y107.552 E1.60757
G1 X155.043 Y108.437 E1.6376
G1 X155.143 Y109.334 E1.66762
G1 X155.164 Y110.237 E1.69766
G1 X155.104 Y111.138 E1.72769
G1 X154.965 Y112.031 E1.75775
G1 X154.748 Y112.907 E1.78777
G1 X154.454 Y113.761 E1.81781
G1 X153.994 Y114.764 E1.85451
G1 X153.688 Y115.346 E1.87638
G1 X153.488 Y115.708 E1.89014
G1 X136.552 Y144.971 E3.01468
G1 X136.22 Y145.526 E3.03619
G1 X135.723 Y146.28 E3.06622
G1 X135.161 Y146.987 E3.09626
G1 X134.538 Y147.641 E3.12631
G1 X133.86 Y148.238 E3.15635
G1 X133.132 Y148.772 E3.18638
G1 X132.36 Y149.24 E3.21641
G1 X131.549 Y149.638 E3.24645
G1 X130.706 Y149.962 E3.27649
G1 X129.838 Y150.211 E3.30653
G1 X128.951 Y150.381 E3.33656
G1 X127.863 Y150.482 E3.37291
G1 X127.194 Y150.508 E3.39518
G1 X126.788 Y150.516 E3.40868
G1 X92.997 Y150.481 E4.53258
G1 X92.337 Y150.471 E4.55453
G1 X91.436 Y150.417 E4.58455
G1 X90.543 Y150.284 E4.61458
G1 X89.665 Y150.072 E4.64462
G1 X88.809 Y149.784 E4.67466
G1 X87.982 Y149.421 E4.7047
G1 X87.191 Y148.986 E4.73472
G1 X86.441 Y148.483 E4.76476
G1 X85.738 Y147.915 E4.79482
G1 X85.088 Y147.288 E4.82486
G1 X84.497 Y146.606 E4.85487
G1 X83.772 Y145.564 E4.89709
G1 X83.247 Y144.694 E4.93089
G1 X66.455 Y115.54 E6.0499
G1 X66.124 Y114.946 E6.07252
G1 X65.72 Y114.138 E6.10256
G1 X65.388 Y113.298 E6.1326
G1 X65.133 Y112.432 E6.16263
G1 X64.955 Y111.547 E6.19265
G1 X64.856 Y110.649 E6.2227
G1 X64.837 Y109.746 E6.25274
G1 X64.897 Y108.845 E6.28278
G1 X65.038 Y107.953 E6.31281
G1 X65.256 Y107.077 E6.34284
G1 X65.551 Y106.223 E6.37289
G1 X66.011 Y105.225 E6.40944
G1 X66.322 Y104.635 E6.43162
G1 X66.517 Y104.282 E6.44503
G1 X83.452 Y75.02 E7.56953
G1 X83.779 Y74.473 E7.59073
G1 X84.276 Y73.719 E7.62076
G1 X84.838 Y73.012 E7.6508
G1 X85.461 Y72.358 E7.68085
G1 X86.138 Y71.761 E7.71087
G1 X86.866 Y71.227 E7.7409
G1 X87.639 Y70.758 E7.77097
G1 X88.449 Y70.361 E7.80097
G1 X89.292 Y70.036 E7.83102
G1 X90.16 Y69.787 E7.86105
G1 X91.047 Y69.616 E7.8911
G1 X92.183 Y69.513 E7.92904
G1 X92.851 Y69.49 E7.95127
G1 X93.212 Y69.484 E7.96328
G1 X126.858 Y69.518 E9.08235
G1 X127.663 Y69.529 E9.10913
G0 F6000 X127.669 Y69.129
G1 F1200 X128.588 Y69.183 E9.13974
G1 X129.499 Y69.317 E9.17037
G1 X130.394 Y69.529 E9.20096
G1 X131.269 Y69.818 E9.23161
G1 X132.114 Y70.181 E9.2622
G1 X132.925 Y70.617 E9.29282
G1 X133.696 Y71.121 E9.32346
G1 X134.419 Y71.691 E9.35408
G1 X135.09 Y72.321 E9.38469
G1 X135.705 Y73.007 E9.41534
G1 X136.257 Y73.743 E9.44594
G1 X136.561 Y74.215 E9.46461
G1 X137.059 Y75.038 E9.4966
G1 X153.887 Y104.252 E10.61794
G1 X154.218 Y104.844 E10.6405
G1 X154.632 Y105.666 E10.67111
G1 X154.973 Y106.521 E10.70173
G1 X155.239 Y107.403 E10.73237
G1 X155.427 Y108.304 E10.76298
G1 X155.536 Y109.218 E10.79359
G1 X155.565 Y110.139 E10.82424
G1 X155.515 Y111.058 E10.85485
G1 X155.385 Y111.969 E10.88546
G1 X155.176 Y112.866 E10.91609
G1 X154.89 Y113.741 E10.94671
G1 X154.348 Y114.95 E10.99078
G1 X154.042 Y115.532 E11.01265
G1 X153.835 Y115.908 E11.02692
G1 X136.896 Y145.177 E12.15169
G1 X136.564 Y145.732 E12.1732
G1 X136.057 Y146.5 E12.20381
G1 X135.486 Y147.222 E12.23442
G1 X134.854 Y147.892 E12.26506
G1 X134.167 Y148.504 E12.29566
G1 X133.429 Y149.055 E12.32629
G1 X132.646 Y149.539 E12.35691
G1 X131.823 Y149.953 E12.38755
G1 X130.968 Y150.295 E12.41818
G1 X130.087 Y150.561 E12.44879
G1 X129.186 Y150.75 E12.47941
G1 X127.879 Y150.882 E12.5231
G1 X127.21 Y150.908 E12.54537
G1 X126.787 Y150.916 E12.55944
G1 X92.991 Y150.881 E13.6835
G1 X92.331 Y150.871 E13.70545
G1 X91.412 Y150.817 E13.73607
G1 X90.501 Y150.683 E13.7667
G1 X89.606 Y150.471 E13.79729
G1 X88.731 Y150.182 E13.82794
G1 X87.886 Y149.819 E13.85852
G1 X87.075 Y149.383 E13.88915
G1 X86.304 Y148.879 E13.91979
G1 X85.581 Y148.309 E13.95041
G1 X84.91 Y147.679 E13.98102
G1 X84.295 Y146.993 E14.01166
G1 X83.743 Y146.257 E14.04226
G1 X83.43 Y145.771 E14.06149
G1 X82.901 Y144.894 E14.09555
G1 X66.106 Y115.735 E15.21476
G1 X65.775 Y115.141 E15.23737
G1 X65.362 Y114.318 E15.268
G1 X65.022 Y113.462 E15.29863
G1 X64.758 Y112.58 E15.32926
G1 X64.571 Y111.679 E15.35986
G1 X64.463 Y110.764 E15.39051
G1 X64.435 Y109.844 E15.42112
G1 X64.487 Y108.925 E15.45173
G1 X64.618 Y108.014 E15.48235
G1 X64.828 Y107.117 E15.51299
G1 X65.115 Y106.243 E15.54358
G1 X65.657 Y105.038 E15.58753
G1 X65.968 Y104.448 E15.60971
G1 X66.171 Y104.082 E15.62363
G1 X83.109 Y74.815 E16.74832
G1 X83.436 Y74.268 E16.76952
G1 X83.942 Y73.499 E16.80014
G1 X84.513 Y72.777 E16.83075
G1 X85.145 Y72.107 E16.86139
G1 X85.832 Y71.495 E16.89199
G1 X86.57 Y70.944 E16.92262
G1 X87.353 Y70.46 E16.95324
G1 X88.175 Y70.045 E16.98386
G1 X89.03 Y69.703 E17.01449
G1 X89.911 Y69.437 E17.0451
G1 X90.812 Y69.248 E17.07572
G1 X92.169 Y69.113 E17.12108
G1 X92.837 Y69.09 E17.14331
G1 X93.213 Y69.084 E17.15582
G1 X126.859 Y69.118 E18.27489
G1 X127.669 Y69.129 E18.30183
G0 F6000 X127.675 Y68.729
G1 F1200 X128.611 Y68.783 E18.33301
G1 X129.539 Y68.917 E18.3642
G1 X130.453 Y69.129 E18.39541
G1 X131.345 Y69.419 E18.4266
G1 X132.209 Y69.783 E18.45778
G1 X133.039 Y70.22 E18.48898
G1 X133.829 Y70.725 E18.52017
G1 X134.573 Y71.297 E18.55138
G1 X135.265 Y71.929 E18.58255
G1 X135.902 Y72.618 E18.61376
G1 X136.477 Y73.359 E18.64496
G1 X136.903 Y74.007 E18.67075
G1 X137.406 Y74.838 E18.70306
G1 X154.236 Y104.057 E19.82457
G1 X154.567 Y104.649 E19.84713
G1 X154.99 Y105.486 E19.87832
G1 X155.339 Y106.356 E19.9095
G1 X155.613 Y107.253 E19.94069
G1 X155.81 Y108.17 E19.97189
G1 X155.928 Y109.101 E20.0031
G1 X155.966 Y110.038 E20.03429
G1 X155.924 Y110.975 E20.06549
G1 X155.803 Y111.905 E20.09668
G1 X155.603 Y112.821 E20.12787
G1 X155.325 Y113.717 E20.15907
G1 X154.972 Y114.586 E20.19026
G1 X154.702 Y115.136 E20.21064
G1 X154.396 Y115.718 E20.23251
G1 X154.181 Y116.109 E20.24735
G1 X137.239 Y145.382 E21.37228
G1 X136.907 Y145.937 E21.39379
G1 X136.392 Y146.721 E21.42499
G1 X135.811 Y147.457 E21.45618
G1 X135.17 Y148.142 E21.48738
G1 X134.474 Y148.77 E21.51856
G1 X133.726 Y149.336 E21.54976
G1 X132.933 Y149.836 E21.58094
G1 X132.099 Y150.267 E21.61217
G1 X131.233 Y150.625 E21.64333
G1 X130.339 Y150.909 E21.67453
G1 X129.424 Y151.115 E21.70573
G1 X128.495 Y151.242 E21.73691
G1 X127.894 Y151.282 E21.75695
G1 X127.225 Y151.308 E21.77921
G1 X126.787 Y151.316 E21.79378
G1 X92.985 Y151.281 E22.91804
G1 X92.325 Y151.271 E22.94
G1 X91.389 Y151.217 E22.97118
G1 X90.461 Y151.083 E23.00237
G1 X89.547 Y150.871 E23.03357
G1 X88.655 Y150.581 E23.06477
G1 X87.791 Y150.217 E23.09595
G1 X86.961 Y149.78 E23.12715
G1 X86.171 Y149.275 E23.15834
G1 X85.427 Y148.703 E23.18955
G1 X84.735 Y148.071 E23.22072
G1 X84.098 Y147.382 E23.25193
G1 X83.523 Y146.641 E23.28313
G1 X83.088 Y145.979 E23.30947
G1 X82.554 Y145.094 E23.34385
G1 X65.756 Y115.929 E24.46328
G1 X65.425 Y115.335 E24.48589
G1 X65.004 Y114.497 E24.51708
G1 X64.656 Y113.627 E24.54825
G1 X64.383 Y112.729 E24.57947
G1 X64.187 Y111.812 E24.61066
G1 X64.071 Y110.881 E24.64186
G1 X64.034 Y109.944 E24.67305
G1 X64.077 Y109.007 E24.70425
G1 X64.2 Y108.078 E24.73541
G1 X64.401 Y107.162 E24.76661
G1 X64.68 Y106.266 E24.79782
G1 X65.034 Y105.398 E24.829
G1 X65.303 Y104.852 E24.84924
G1 X65.614 Y104.262 E24.87142
G1 X65.824 Y103.881 E24.88589
G1 X82.765 Y74.61 E26.01075
G1 X83.092 Y74.063 E26.03195
G1 X83.608 Y73.279 E26.06316
G1 X84.188 Y72.542 E26.09436
G1 X84.828 Y71.857 E26.12554
G1 X85.525 Y71.229 E26.15674
G1 X86.273 Y70.663 E26.18794
G1 X87.066 Y70.162 E26.21914
G1 X87.899 Y69.731 E26.25033
G1 X88.765 Y69.373 E26.2815
G1 X89.659 Y69.089 E26.3127
G1 X90.574 Y68.883 E26.34389
G1 X91.503 Y68.755 E26.37508
G1 X92.155 Y68.714 E26.39681
G1 X92.823 Y68.691 E26.41904
G1 X93.213 Y68.684 E26.43202
G1 X126.859 Y68.718 E27.55109
G1 X127.675 Y68.729 E27.57823
G1 F2700 E22.57823
;MESH:Top-joint.stl
G0 F6000 X127.283 Y79.053
G0 X127.282 Y80.139
G0 X144.09 Y110.036
G0 X127.118 Y139.716
;TYPE:WALL-INNER
G1 F2700 E27.57823
G1 F1200 X127.006 Y139.716 E27.58195
G1 X92.824 Y139.681 E28.71885
G1 X75.707 Y109.964 E29.85948
G1 X92.882 Y80.284 E31.00001
G1 X92.994 Y80.284 E31.00374
G1 X127.176 Y80.319 E32.14063
G1 X144.293 Y110.036 E33.28126
G1 X127.118 Y139.716 E34.42179
G0 F6000 X127.348 Y140.116
;TYPE:WALL-OUTER
G1 F1200 X127.006 Y140.116 E34.43317
G1 X92.592 Y140.081 E35.57778
G1 X75.245 Y109.965 E36.73373
G1 X75.301 Y109.867 E36.73748
G1 X92.652 Y79.884 E37.88967
G1 X92.994 Y79.884 E37.90104
G1 X127.408 Y79.919 E39.04566
G1 X144.755 Y110.035 E40.2016
G1 X144.699 Y110.133 E40.20536
G1 X127.348 Y140.116 E41.35754
G0 F6000 X127.078 Y139.706
G0 X126.894 Y139.326
;TYPE:SKIN
G1 F1200 X93.049 Y139.291 E42.48323
G1 X76.157 Y109.963 E43.60891
G1 X93.106 Y80.674 E44.73442
G1 X126.951 Y80.709 E45.86011
G1 X143.843 Y110.037 E46.98579
G1 X126.894 Y139.326 E48.1113
G1 F2700 E43.1113
G0 F6000 X126.893 Y139.605
G0 X93.308 Y139.571
G0 X93.309 Y139.13
G1 F2700 E48.1113
G1 F1200 X92.912 Y138.732 E48.13
G0 F6000 X92.531 Y138.95
G0 X92.926 Y139.505
G0 X93.875 Y139.571
G0 X93.876 Y139.131
G1 F1200 X92.144 Y137.399 E48.21147
G0 F6000 X91.764 Y137.617
G0 X90.995 Y136.283
G0 X91.375 Y136.065
G1 F1200 X94.441 Y139.131 E48.35568
G0 F6000 X95.008 Y139.131
G1 F1200 X90.607 Y134.731 E48.56267
G0 F6000 X90.227 Y134.949
G0 X89.458 Y133.615
G0 X89.839 Y133.397
G1 F1200 X95.574 Y139.132 E48.83242
G0 F6000 X96.141 Y139.133
G1 F1200 X89.07 Y132.062 E49.16502
G0 F6000 X88.689 Y132.28
G0 X87.922 Y130.947
G0 X88.302 Y130.729
G1 F1200 X96.707 Y139.133 E49.56034
G0 F6000 X97.273 Y139.134
G1 F1200 X87.534 Y129.394 E50.01846
G0 F6000 X87.153 Y129.612
G0 X86.385 Y128.279
G0 X86.766 Y128.061
G1 F1200 X97.839 Y139.134 E50.5393
G0 F6000 X98.405 Y139.135
G1 F1200 X85.997 Y126.726 E51.12296
G0 F6000 X85.616 Y126.944
G0 X84.848 Y125.61
G0 X85.228 Y125.392
G1 F1200 X98.972 Y139.135 E51.76941
G0 F6000 X99.538 Y139.136
G1 F1200 X84.461 Y124.059 E52.47859
G0 F6000 X84.08 Y124.277
G0 X83.311 Y122.942
G0 X83.692 Y122.724
G1 F1200 X100.105 Y139.137 E53.2506
G0 F6000 X100.67 Y139.137
G1 F1200 X82.924 Y121.391 E54.08532
G0 F6000 X82.543 Y121.609
G0 X81.774 Y120.274
G0 X82.155 Y120.056
G1 F1200 X101.237 Y139.138 E54.98288
G0 F6000 X101.803 Y139.138
G1 F1200 X81.387 Y118.723 E55.94316
G0 F6000 X81.006 Y118.941
G0 X80.238 Y117.606
G0 X80.619 Y117.388
G1 F1200 X102.369 Y139.139 E56.96624
G0 F6000 X102.936 Y139.14
G1 F1200 X79.85 Y116.054 E58.05213
G0 F6000 X79.469 Y116.272
G0 X78.701 Y114.939
G0 X79.082 Y114.721
G1 F1200 X103.502 Y139.14 E59.20075
G0 F6000 X104.068 Y139.14
G1 F1200 X78.314 Y113.386 E60.41214
G0 F6000 X77.932 Y113.604
G0 X77.165 Y112.271
G0 X77.546 Y112.053
G1 F1200 X104.634 Y139.141 E61.68628
G0 F6000 X105.201 Y139.142
G1 F1200 X76.777 Y110.718 E63.02326
G0 F6000 X76.431 Y109.806
G1 F1200 X105.767 Y139.143 E64.40316
G0 F6000 X106.334 Y139.143
G1 F1200 X76.639 Y109.448 E65.79992
G0 F6000 X76.846 Y109.09
G1 F1200 X106.9 Y139.144 E67.21357
G0 F6000 X107.466 Y139.144
G1 F1200 X77.053 Y108.731 E68.6441
G0 F6000 X77.26 Y108.373
G1 F1200 X108.032 Y139.145 E70.09152
G0 F6000 X108.598 Y139.145
G1 F1200 X77.468 Y108.015 E71.55578
G0 F6000 X77.675 Y107.657
G1 F1200 X109.165 Y139.146 E73.03695
G0 F6000 X109.731 Y139.147
G1 F1200 X77.882 Y107.298 E74.53503
G0 F6000 X78.09 Y106.94
G1 F1200 X110.297 Y139.147 E76.04995
G0 F6000 X110.863 Y139.148
G1 F1200 X78.297 Y106.582 E77.58175
G0 F6000 X78.505 Y106.223
G1 F1200 X111.43 Y139.148 E79.13044
G0 F6000 X111.996 Y139.149
G1 F1200 X78.712 Y105.865 E80.69602
G0 F6000 X78.919 Y105.506
G1 F1200 X112.562 Y139.15 E82.27851
G0 F6000 X113.129 Y139.15
G1 F1200 X79.126 Y105.148 E83.87788
G0 F6000 X79.334 Y104.79
G1 F1200 X113.694 Y139.15 E85.49407
G0 F6000 X114.261 Y139.151
G1 F1200 X79.541 Y104.431 E87.12719
G0 F6000 X79.748 Y104.073
G1 F1200 X114.827 Y139.152 E88.7772
G0 F6000 X115.394 Y139.152
G1 F1200 X79.956 Y103.714 E90.4441
G0 F6000 X80.163 Y103.357
G1 F1200 X115.96 Y139.153 E92.12785
G0 F6000 X116.526 Y139.154
G1 F1200 X80.371 Y102.998 E93.8285
G0 F6000 X80.578 Y102.64
G1 F1200 X117.092 Y139.154 E95.546
G0 F6000 X117.659 Y139.155
G1 F1200 X80.785 Y102.281 E97.28044
G0 F6000 X80.993 Y101.923
G1 F1200 X118.225 Y139.155 E99.03172
G0 F6000 X118.791 Y139.156
G1 F1200 X81.2 Y101.565 E100.79989
G0 F6000 X81.407 Y101.206
G1 F1200 X119.358 Y139.157 E102.58499
G0 F6000 X119.923 Y139.157
G1 F1200 X81.614 Y100.848 E104.38692
G0 F6000 X81.822 Y100.49
G1 F1200 X120.49 Y139.157 E106.20573
G0 F6000 X121.056 Y139.158
G1 F1200 X82.03 Y100.131 E108.04141
G0 F6000 X82.237 Y99.773
G1 F1200 X121.623 Y139.159 E109.89401
G0 F6000 X122.189 Y139.16
G1 F1200 X82.444 Y99.414 E111.76352
G0 F6000 X82.652 Y99.057
G1 F1200 X122.755 Y139.16 E113.64984
G0 F6000 X123.321 Y139.16
G1 F1200 X82.859 Y98.698 E115.55305
G0 F6000 X83.066 Y98.34
G1 F1200 X123.887 Y139.161 E117.47314
G0 F6000 X124.454 Y139.162
G1 F1200 X83.273 Y97.981 E119.41017
G0 F6000 X83.481 Y97.623
G1 F1200 X125.02 Y139.162 E121.36404
G0 F6000 X125.587 Y139.163
G1 F1200 X83.688 Y97.265 E123.33481
G0 F6000 X83.896 Y96.906
G1 F1200 X126.153 Y139.164 E125.32248
G0 F6000 X126.719 Y139.164
G1 F1200 X84.103 Y96.548 E127.327
G0 F6000 X84.311 Y96.19
G1 F1200 X126.979 Y138.858 E129.33397
G0 F6000 X127.186 Y138.5
G1 F1200 X84.518 Y95.832 E131.34095
G0 F6000 X84.725 Y95.473
G1 F1200 X127.394 Y138.142 E133.34796
G0 F6000 X127.601 Y137.783
G1 F1200 X84.932 Y95.115 E135.35496
G0 F6000 X85.14 Y94.757
G1 F1200 X127.808 Y137.425 E137.36193
G0 F6000 X128.016 Y137.066
G1 F1200 X85.347 Y94.398 E139.36893
G0 F6000 X85.554 Y94.04
G1 F1200 X128.223 Y136.709 E141.37595
G0 F6000 X128.431 Y136.35
G1 F1200 X85.762 Y93.681 E143.38297
G0 F6000 X85.97 Y93.323
G1 F1200 X128.638 Y135.992 E145.38996
G0 F6000 X128.845 Y135.633
G1 F1200 X86.177 Y92.965 E147.39693
G0 F6000 X86.384 Y92.606
G1 F1200 X129.053 Y135.275 E149.40395
G0 F6000 X129.26 Y134.917
G1 F1200 X86.591 Y92.248 E151.41097
G0 F6000 X86.798 Y91.889
G1 F1200 X129.467 Y134.558 E153.41799
G0 F6000 X129.674 Y134.2
G1 F1200 X87.006 Y91.532 E155.42496
G0 F6000 X87.213 Y91.173
G1 F1200 X129.882 Y133.842 E157.43198
G0 F6000 X130.089 Y133.484
G1 F1200 X87.421 Y90.815 E159.43898
G0 F6000 X87.628 Y90.456
G1 F1200 X130.297 Y133.125 E161.44599
G0 F6000 X130.504 Y132.767
G1 F1200 X87.836 Y90.098 E163.45299
G0 F6000 X88.043 Y89.74
G1 F1200 X130.712 Y132.409 E165.46001
G0 F6000 X130.919 Y132.05
G1 F1200 X88.25 Y89.381 E167.46703
G0 F6000 X88.457 Y89.023
G1 F1200 X131.126 Y131.692 E169.47405
G0 F6000 X131.333 Y131.333
G1 F1200 X88.665 Y88.665 E171.48102
G0 F6000 X88.872 Y88.307
G1 F1200 X131.541 Y130.975 E173.48801
G0 F6000 X131.748 Y130.617
G1 F1200 X89.079 Y87.948 E175.49503
G0 F6000 X89.287 Y87.59
G1 F1200 X131.956 Y130.258 E177.50203
G0 F6000 X132.163 Y129.9
