;FLAVOR:Marlin
;TIME:1961
;Filament used: 1.67691m
;Layer height: 0.2
;MINX:64.477
;MINY:69.096
;MINZ:0.2
;MAXX:155.484
;MAXY:150.921
;MAXZ:6.2
;Generated with Cura_SteamEngine 4.6.1
M140 S52
M105
M190 S52
M104 S203
M105
M109 S203
M82 ;absolute extrusion mode
M201 X500.00 Y500.00 Z100.00 E5000.00 ;Setup machine max acceleration
M203 X500.00 Y500.00 Z10.00 E50.00 ;Setup machine max feedrate
M204 P500.00 R1000.00 T500.00 ;Setup Print/Retract/Travel acceleration
M205 X8.00 Y8.00 Z0.40 E5.00 ;Setup Jerk
M220 S100 ;Reset Feedrate
M221 S100 ;Reset Flowrate

G28 ;Home

G92 E0 ;Reset Extruder
G1 Z2.0 F3000 ;Move Z Axis up
G1 X10.1 Y20 Z0.28 F5000.0 ;Move to start position
G1 X10.1 Y200.0 Z0.28 F1500.0 E15 ;Draw the first line
G1 X10.4 Y200.0 Z0.28 F5000.0 ;Move to side a little
G1 X10.4 Y20 Z0.28 F1500.0 E30 ;Draw the second line
G92 E0 ;Reset Extruder
G1 Z2.0 F3000 ;Move Z Axis up

G92 E0
G92 E0
G1 F2700 E-5
;LAYER_COUNT:32
;LAYER:0
M107
G0 F6000 X127.442 Y69.957 Z0.2
;TYPE:SKIRT
G1 F2700 E0
G1 F1200 X128.344 Y70.011 E0.03005
G1 X129.237 Y70.144 E0.06008
G1 X130.115 Y70.356 E0.09012
G1 X130.971 Y70.644 E0.12016
G1 X131.798 Y71.007 E0.1502
G1 X132.589 Y71.442 E0.18023
G1 X133.339 Y71.945 E0.21026
G1 X134.042 Y72.512 E0.2403
G1 X134.692 Y73.14 E0.27036
G1 X135.283 Y73.822 E0.30038
G1 X135.895 Y74.682 E0.33549
G1 X136.22 Y75.193 E0.35563
G1 X136.438 Y75.552 E0.3696
G1 X137.017 Y76.551 E0.408
G1 X153.071 Y104.526 E1.48078
G1 X153.4 Y105.118 E1.50331
G1 X153.803 Y105.926 E1.53334
G1 X154.133 Y106.767 E1.56339
G1 X154.388 Y107.633 E1.59341
G1 X154.565 Y108.519 E1.62346
G1 X154.663 Y109.417 E1.65351
G1 X154.681 Y110.32 E1.68355
G1 X154.619 Y111.221 E1.71359
G1 X154.478 Y112.112 E1.74359
G1 X154.258 Y112.989 E1.77366
G1 X153.962 Y113.842 E1.80369
G1 X153.453 Y114.932 E1.8437
G1 X153.006 Y115.749 E1.87468
G1 X152.58 Y116.489 E1.90308
G1 X136.319 Y144.543 E2.98157
G1 X135.957 Y145.147 E3.00499
G1 X135.459 Y145.9 E3.03502
G1 X134.896 Y146.606 E3.06505
G1 X134.273 Y147.26 E3.0951
G1 X133.595 Y147.856 E3.12512
G1 X132.866 Y148.39 E3.15518
G1 X132.093 Y148.857 E3.18521
G1 X131.282 Y149.254 E3.21525
G1 X130.439 Y149.578 E3.24528
G1 X129.571 Y149.826 E3.27531
G1 X128.684 Y149.996 E3.30535
G1 X127.454 Y150.1 E3.3464
G1 X126.564 Y150.119 E3.37601
G1 X125.477 Y150.121 E3.41217
G1 X93.228 Y150.05 E4.48477
G1 X92.565 Y150.038 E4.50683
G1 X91.664 Y149.982 E4.53685
G1 X90.771 Y149.846 E4.5669
G1 X89.894 Y149.632 E4.59692
G1 X89.039 Y149.341 E4.62696
G1 X88.213 Y148.975 E4.65701
G1 X87.423 Y148.538 E4.68704
G1 X86.674 Y148.033 E4.71708
G1 X85.973 Y147.464 E4.74711
G1 X85.837 Y147.331 E4.75344
G1 X85.42 Y146.946 E4.77232
G1 X84.814 Y146.276 E4.80237
G1 X84.269 Y145.556 E4.8324
G1 X83.898 Y144.976 E4.8553
G1 X83.592 Y144.46 E4.87525
G1 X83.025 Y143.481 E4.91288
G1 X66.913 Y115.547 E5.98544
G1 X66.578 Y114.949 E6.00824
G1 X66.172 Y114.142 E6.03828
G1 X65.839 Y113.303 E6.06831
G1 X65.581 Y112.437 E6.09836
G1 X65.401 Y111.552 E6.1284
G1 X65.3 Y110.655 E6.15842
G1 X65.279 Y109.752 E6.18846
G1 X65.338 Y108.851 E6.21849
G1 X65.476 Y107.958 E6.24855
G1 X65.693 Y107.082 E6.27857
G1 X65.986 Y106.228 E6.30859
G1 X66.554 Y105.022 E6.35293
G1 X66.952 Y104.306 E6.38018
G1 X67.526 Y103.304 E6.41859
G1 X83.686 Y75.503 E7.48812
G1 X84.065 Y74.87 E7.51265
G1 X84.562 Y74.117 E7.54266
G1 X85.125 Y73.41 E7.57272
G1 X85.748 Y72.756 E7.60276
G1 X86.426 Y72.16 E7.63279
G1 X87.154 Y71.626 E7.66282
G1 X87.927 Y71.158 E7.69287
G1 X88.738 Y70.761 E7.72291
G1 X89.581 Y70.437 E7.75294
G1 X90.449 Y70.188 E7.78298
G1 X91.336 Y70.018 E7.81302
G1 X92.627 Y69.912 E7.8561
G1 X93.384 Y69.899 E7.88128
G1 X94.514 Y69.896 E7.91887
G1 X126.643 Y69.946 E8.98748
G1 X127.442 Y69.957 E9.01406
G0 F6000 X127.448 Y69.557
G1 F1200 X128.367 Y69.611 E9.04468
G1 X129.278 Y69.745 E9.0753
G1 X130.174 Y69.957 E9.10593
G1 X131.048 Y70.245 E9.13653
G1 X131.894 Y70.609 E9.16717
G1 X132.705 Y71.045 E9.19779
G1 X133.475 Y71.549 E9.2284
G1 X134.199 Y72.119 E9.25905
G1 X134.87 Y72.749 E9.28966
G1 X135.484 Y73.434 E9.32026
G1 X136.232 Y74.467 E9.36268
G1 X136.557 Y74.978 E9.38282
G1 X136.784 Y75.352 E9.39737
G1 X137.363 Y76.351 E9.43577
G1 X153.42 Y104.332 E10.50877
G1 X153.749 Y104.924 E10.5313
G1 X154.161 Y105.747 E10.56191
G1 X154.5 Y106.603 E10.59253
G1 X154.763 Y107.485 E10.62315
G1 X154.949 Y108.387 E10.65378
G1 X155.056 Y109.302 E10.68442
G1 X155.083 Y110.222 E10.71503
G1 X155.03 Y111.141 E10.74565
G1 X154.898 Y112.052 E10.77626
G1 X154.687 Y112.948 E10.80688
G1 X154.399 Y113.823 E10.83752
G1 X154.036 Y114.669 E10.86814
G1 X153.804 Y115.122 E10.88507
G1 X153.353 Y115.948 E10.91637
G1 X152.927 Y116.688 E10.94477
G1 X136.662 Y144.748 E12.0235
G1 X136.3 Y145.352 E12.04692
G1 X135.793 Y146.121 E12.07756
G1 X135.221 Y146.842 E12.10817
G1 X134.589 Y147.511 E12.13878
G1 X133.901 Y148.123 E12.1694
G1 X133.162 Y148.673 E12.20004
G1 X132.379 Y149.156 E12.23064
G1 X131.556 Y149.57 E12.26128
G1 X130.701 Y149.911 E12.2919
G1 X129.82 Y150.176 E12.3225
G1 X128.918 Y150.364 E12.35314
G1 X128.004 Y150.473 E12.38376
G1 X127.464 Y150.5 E12.40174
G1 X126.565 Y150.519 E12.43165
G1 X125.478 Y150.521 E12.4678
G1 X93.221 Y150.45 E13.54068
G1 X92.558 Y150.438 E13.56273
G1 X91.639 Y150.382 E13.59336
G1 X90.729 Y150.246 E13.62396
G1 X89.833 Y150.031 E13.65461
G1 X88.96 Y149.739 E13.68522
G1 X88.115 Y149.373 E13.71585
G1 X87.306 Y148.935 E13.74645
G1 X86.537 Y148.428 E13.77708
G1 X85.815 Y147.857 E13.8077
G1 X85.635 Y147.687 E13.81593
G1 X85.199 Y147.29 E13.83555
G1 X84.575 Y146.614 E13.86615
G1 X84.011 Y145.886 E13.89678
G1 X83.554 Y145.18 E13.92475
G1 X83.246 Y144.66 E13.94485
G1 X82.679 Y143.681 E13.98248
G1 X66.564 Y115.743 E15.0552
G1 X66.229 Y115.145 E15.078
G1 X65.815 Y114.323 E15.10861
G1 X65.473 Y113.468 E15.13924
G1 X65.207 Y112.586 E15.16988
G1 X65.018 Y111.685 E15.2005
G1 X64.908 Y110.771 E15.23112
G1 X64.878 Y109.851 E15.26173
G1 X64.927 Y108.932 E15.29234
G1 X65.057 Y108.02 E15.32298
G1 X65.265 Y107.123 E15.35361
G1 X65.55 Y106.248 E15.38422
G1 X65.91 Y105.401 E15.41483
G1 X66.204 Y104.828 E15.43625
G1 X66.605 Y104.107 E15.46369
G1 X67.18 Y103.103 E15.50217
G1 X83.343 Y75.298 E16.57186
G1 X83.722 Y74.665 E16.5964
G1 X84.228 Y73.896 E16.62702
G1 X84.8 Y73.174 E16.65766
G1 X85.432 Y72.505 E16.68827
G1 X86.12 Y71.893 E16.71889
G1 X86.858 Y71.343 E16.7495
G1 X87.641 Y70.859 E16.78012
G1 X88.463 Y70.445 E16.81073
G1 X89.318 Y70.104 E16.84135
G1 X90.2 Y69.838 E16.87199
G1 X91.101 Y69.65 E16.9026
G1 X92.015 Y69.54 E16.93322
G1 X92.62 Y69.512 E16.95336
G1 X93.383 Y69.499 E16.97875
G1 X94.513 Y69.496 E17.01633
G1 X126.644 Y69.546 E18.08501
G1 X127.448 Y69.557 E18.11176
G0 F6000 X127.454 Y69.157
G1 F1200 X128.391 Y69.211 E18.14297
G1 X129.319 Y69.345 E18.17416
G1 X130.233 Y69.557 E18.20536
G1 X131.125 Y69.847 E18.23656
G1 X131.989 Y70.211 E18.26774
G1 X132.819 Y70.648 E18.29894
G1 X133.609 Y71.153 E18.33013
G1 X134.353 Y71.724 E18.36132
G1 X135.045 Y72.357 E18.39251
G1 X135.681 Y73.046 E18.4237
G1 X136.257 Y73.787 E18.45492
G1 X136.57 Y74.253 E18.47359
G1 X136.895 Y74.764 E18.49373
G1 X137.13 Y75.151 E18.50879
G1 X137.709 Y76.15 E18.54719
G1 X153.77 Y104.138 E19.62046
G1 X154.099 Y104.73 E19.64299
G1 X154.519 Y105.568 E19.67417
G1 X154.866 Y106.439 E19.70535
G1 X155.138 Y107.337 E19.73656
G1 X155.333 Y108.254 E19.76774
G1 X155.448 Y109.185 E19.79894
G1 X155.484 Y110.122 E19.83013
G1 X155.44 Y111.059 E19.86133
G1 X155.316 Y111.989 E19.89253
G1 X155.113 Y112.904 E19.9237
G1 X154.834 Y113.8 E19.95492
G1 X154.478 Y114.668 E19.98612
G1 X154.156 Y115.313 E20.0101
G1 X153.699 Y116.148 E20.04176
G1 X153.273 Y116.888 E20.07016
G1 X137.005 Y144.954 E21.14911
G1 X136.643 Y145.558 E21.17253
G1 X136.127 Y146.341 E21.20372
G1 X135.546 Y147.077 E21.23491
G1 X134.905 Y147.762 E21.26611
G1 X134.208 Y148.389 E21.2973
G1 X133.459 Y148.954 E21.3285
G1 X132.666 Y149.454 E21.35968
G1 X131.832 Y149.884 E21.39089
G1 X130.965 Y150.241 E21.42207
G1 X130.071 Y150.524 E21.45326
G1 X129.156 Y150.729 E21.48445
G1 X128.226 Y150.856 E21.51567
G1 X127.473 Y150.9 E21.54076
G1 X126.565 Y150.919 E21.57096
G1 X125.478 Y150.921 E21.60712
G1 X93.214 Y150.85 E22.68023
G1 X92.551 Y150.838 E22.70228
G1 X91.615 Y150.781 E22.73347
G1 X90.687 Y150.645 E22.76467
G1 X89.774 Y150.43 E22.79586
G1 X88.883 Y150.138 E22.82705
G1 X88.02 Y149.771 E22.85824
G1 X87.191 Y149.332 E22.88944
G1 X86.403 Y148.824 E22.92062
G1 X85.66 Y148.25 E22.95185
G1 X85.512 Y148.114 E22.95854
G1 X84.979 Y147.636 E22.98235
G1 X84.337 Y146.952 E23.01355
G1 X83.756 Y146.216 E23.04474
G1 X83.21 Y145.384 E23.07784
G1 X82.9 Y144.861 E23.09806
G1 X82.333 Y143.882 E23.13569
G1 X66.215 Y115.938 E24.20863
G1 X65.88 Y115.34 E24.23143
G1 X65.457 Y114.503 E24.26262
G1 X65.107 Y113.633 E24.29381
G1 X64.832 Y112.736 E24.32502
G1 X64.635 Y111.82 E24.35618
G1 X64.516 Y110.889 E24.3874
G1 X64.477 Y109.952 E24.41859
G1 X64.518 Y109.015 E24.44978
G1 X64.639 Y108.085 E24.48097
G1 X64.838 Y107.169 E24.51215
G1 X65.115 Y106.273 E24.54334
G1 X65.467 Y105.403 E24.57456
G1 X65.854 Y104.635 E24.60316
G1 X66.258 Y103.908 E24.63083
G1 X66.835 Y102.902 E24.6694
G1 X82.999 Y75.092 E25.73925
G1 X83.378 Y74.459 E25.76379
G1 X83.894 Y73.676 E25.79498
G1 X84.474 Y72.939 E25.82618
G1 X85.116 Y72.255 E25.85738
G1 X85.813 Y71.627 E25.88858
G1 X86.561 Y71.062 E25.91976
G1 X87.354 Y70.562 E25.95094
G1 X88.187 Y70.131 E25.98213
G1 X89.054 Y69.773 E26.01333
G1 X89.949 Y69.49 E26.04455
G1 X90.864 Y69.285 E26.07574
G1 X91.793 Y69.158 E26.10693
G1 X92.613 Y69.112 E26.13424
G1 X93.382 Y69.099 E26.15982
G1 X94.512 Y69.096 E26.19741
G1 X126.644 Y69.146 E27.26612
G1 X127.454 Y69.157 E27.29307
G1 F2700 E22.29307
;MESH:Top-1.stl
G0 F6000 X123.327 Y86.659
G0 X124.26 Y85.004
G0 X117.433 Y86.7
G0 X96.496 Y86.595
G0 X82.957 Y109.986
G0 X94.515 Y129.853
G0 X95.741 Y134.291
;TYPE:WALL-INNER
G1 F2700 E27.29307
G1 F1200 X100.855 Y133.278 E27.46646
G1 X123.702 Y133.397 E28.22637
G1 X124.865 Y131.274 E28.30688
G1 X135.945 Y111.817 E29.0516
G1 X136.787 Y110.399 E29.10645
G1 X137.013 Y110.002 E29.12164
G1 X126.82 Y92.563 E29.79348
G1 X124.137 Y85.222 E30.05344
G1 X117.412 Y86.539 E30.28136
G1 X98.886 Y86.486 E30.89754
G1 X96.398 Y86.426 E30.98031
G1 X95.21 Y88.599 E31.06268
G1 X94.025 Y90.614 E31.14043
G1 X82.765 Y109.986 E31.88568
G1 X94.366 Y129.917 E32.65271
G1 X95.741 Y134.291 E32.80521
G0 F6000 X96.015 Y133.829
;TYPE:WALL-OUTER
G1 F1200 X100.818 Y132.878 E32.96806
G1 X123.466 Y132.996 E33.72134
G1 X124.517 Y131.076 E33.79414
G1 X135.597 Y111.619 E34.53886
G1 X136.441 Y110.198 E34.59383
G1 X136.551 Y110.005 E34.60122
G1 X126.456 Y92.732 E35.26664
G1 X123.879 Y85.68 E35.51636
G1 X117.453 Y86.939 E35.73416
G1 X98.876 Y86.886 E36.35203
G1 X96.632 Y86.832 E36.42669
G1 X95.555 Y88.802 E36.50137
G1 X94.37 Y90.816 E36.57909
G1 X83.228 Y109.986 E37.31656
G1 X94.735 Y129.755 E38.07735
G1 X96.015 Y133.829 E38.21938
G1 F2700 E33.21938
G0 F6000 X95.728 Y133.916
G0 X95.845 Y134.076
G0 X100.874 Y133.469
G0 X100.592 Y132.042
G0 X100.857 Y140.533
G0 X100.86 Y139.076
G0 X126.865 Y139.318
;TYPE:WALL-INNER
G1 F2700 E38.21938
G1 F1200 X125.458 Y139.321 E38.26618
G1 X93.054 Y139.25 E39.34395
G1 X92.371 Y138.07 E39.38929
G1 X76.158 Y109.964 E40.46848
G1 X76.779 Y108.878 E40.51009
G1 X93.158 Y80.699 E41.59415
G1 X94.541 Y80.696 E41.64015
G1 X126.967 Y80.747 E42.71865
G1 X143.807 Y110.079 E43.84358
G1 X143.122 Y111.271 E43.88931
G1 X126.865 Y139.318 E44.96753
G0 F6000 X127.096 Y139.718
;TYPE:WALL-OUTER
G1 F1200 X125.458 Y139.721 E45.02202
G1 X92.824 Y139.65 E46.10743
G1 X92.025 Y138.27 E46.16047
G1 X75.697 Y109.964 E47.24733
G1 X76.433 Y108.677 E47.29664
G1 X92.927 Y80.3 E48.38832
G1 X94.541 Y80.296 E48.442
G1 X127.197 Y80.347 E49.52814
G1 X128.019 Y81.767 E49.58272
G1 X144.269 Y110.08 E50.66849
G1 X143.468 Y111.472 E50.72191
G1 X127.096 Y139.718 E51.80778
G0 F6000 X126.877 Y139.278
G0 X126.64 Y138.928
;TYPE:SKIN
G1 F1200 X125.458 Y138.931 E51.84709
G1 X93.278 Y138.86 E52.9174
G1 X92.708 Y137.875 E52.95525
G1 X76.608 Y109.964 E54.02695
G1 X77.116 Y109.074 E54.06103
G1 X93.383 Y81.089 E55.13764
G1 X94.541 Y81.086 E55.17616
G1 X126.74 Y81.137 E56.2471
G1 X143.357 Y110.079 E57.3571
G1 X142.784 Y111.076 E57.39534
G1 X126.64 Y138.928 E58.46607
G1 F2700 E53.46607
G0 F6000 X126.881 Y139.07
G0 X128.438 Y136.225
G0 X129.697 Y136.954
G0 X122.959 Y132.134
G0 X123.816 Y133.591
G0 X123.764 Y133.514
G0 X123.932 Y133.789
G1 F2700 E58.46607
G1 F1200 X125.204 Y131.467 E58.55413
G1 X136.28 Y112.016 E59.29861
G1 X137.124 Y110.596 E59.35355
G1 X137.463 Y110 E59.37636
G1 X127.173 Y92.393 E60.05464
G1 X124.389 Y84.775 E60.32441
G1 X117.379 Y86.149 E60.562
G1 X98.896 Y86.096 E61.17675
G1 X96.17 Y86.03 E61.26744
G1 X94.874 Y88.402 E61.35734
G1 X93.688 Y90.417 E61.43511
G1 X82.314 Y109.986 E62.18793
G1 X94.008 Y130.077 E62.96111
G1 X95.474 Y134.741 E63.12372
G1 X100.889 Y133.668 E63.30733
G1 X123.932 Y133.789 E64.07375
G1 F2700 E59.07375
G0 F6000 X123.764 Y133.514
G0 X100.874 Y133.469
G0 X100.592 Y132.042
G0 X100.857 Y140.533
G0 X100.86 Y139.076
G0 X93.443 Y139.14
G0 X93.444 Y138.699
G1 F2700 E64.07375
G1 F1200 X93.266 Y138.521 E64.08212
G0 F6000 X94.011 Y138.701
G1 F1200 X92.493 Y137.182 E64.15355
G0 F6000 X92.113 Y137.4
G0 X91.341 Y136.063
G0 X91.721 Y135.845
G1 F1200 X94.578 Y138.701 E64.28791
G0 F6000 X95.145 Y138.703
G1 F1200 X90.95 Y134.508 E64.48523
G0 F6000 X90.57 Y134.726
G0 X89.799 Y133.389
G0 X90.179 Y133.171
G1 F1200 X95.712 Y138.704 E64.74548
G0 F6000 X96.279 Y138.706
G1 F1200 X89.408 Y131.835 E65.06867
G0 F6000 X89.028 Y132.053
G0 X88.257 Y130.716
G0 X88.637 Y130.498
G1 F1200 X96.846 Y138.706 E65.45478
G0 F6000 X97.413 Y138.708
G1 F1200 X87.866 Y129.161 E65.90384
G0 F6000 X87.486 Y129.379
G0 X86.715 Y128.043
G0 X87.095 Y127.825
G1 F1200 X97.98 Y138.709 E66.41581
G0 F6000 X98.547 Y138.711
G1 F1200 X86.324 Y126.487 E66.99077
G0 F6000 X85.943 Y126.705
G0 X85.173 Y125.369
G0 X85.553 Y125.151
G1 F1200 X99.113 Y138.711 E67.62859
G0 F6000 X99.68 Y138.713
G1 F1200 X95.805 Y134.838 E67.81086
G0 F6000 X96.277 Y134.744
G1 F1200 X100.247 Y138.714 E67.99759
G0 F6000 X100.815 Y138.715
G1 F1200 X96.749 Y134.65 E68.18882
G0 F6000 X97.222 Y134.557
G1 F1200 X101.381 Y138.716 E68.38445
G0 F6000 X101.948 Y138.718
G1 F1200 X97.693 Y134.463 E68.58459
G0 F6000 X98.166 Y134.37
G1 F1200 X102.515 Y138.719 E68.78915
G0 F6000 X103.082 Y138.72
G1 F1200 X98.638 Y134.276 E68.99819
G0 F6000 X99.11 Y134.182
G1 F1200 X103.649 Y138.722 E69.21171
G0 F6000 X104.216 Y138.723
G1 F1200 X99.582 Y134.089 E69.42968
G0 F6000 X100.054 Y133.995
G1 F1200 X104.783 Y138.724 E69.65212
G0 F6000 X105.35 Y138.725
G1 F1200 X100.526 Y133.901 E69.87902
G0 F6000 X101.017 Y133.827
G1 F1200 X105.917 Y138.727 E70.1095
G0 F6000 X106.483 Y138.727
G1 F1200 X101.587 Y133.831 E70.3398
G0 F6000 X102.155 Y133.834
G1 F1200 X107.051 Y138.729 E70.57007
G0 F6000 X107.618 Y138.73
G1 F1200 X102.724 Y133.836 E70.80027
G0 F6000 X103.292 Y133.839
G1 F1200 X108.185 Y138.732 E71.03042
G0 F6000 X108.751 Y138.732
G1 F1200 X103.861 Y133.843 E71.2604
G0 F6000 X104.43 Y133.846
G1 F1200 X109.318 Y138.734 E71.49032
G0 F6000 X109.885 Y138.735
G1 F1200 X104.998 Y133.848 E71.72019
G0 F6000 X105.567 Y133.851
G1 F1200 X110.452 Y138.737 E71.94999
G0 F6000 X111.02 Y138.738
G1 F1200 X106.136 Y133.855 E72.17969
G0 F6000 X106.705 Y133.858
G1 F1200 X111.586 Y138.739 E72.40928
G0 F6000 X112.153 Y138.74
G1 F1200 X107.273 Y133.86 E72.63882
G0 F6000 X107.842 Y133.863
G1 F1200 X112.72 Y138.742 E72.86829
G0 F6000 X113.287 Y138.743
G1 F1200 X108.411 Y133.867 E73.09764
G0 F6000 X108.98 Y133.87
G1 F1200 X113.854 Y138.744 E73.3269
G0 F6000 X114.421 Y138.745
G1 F1200 X109.548 Y133.872 E73.55611
G0 F6000 X110.117 Y133.875
G1 F1200 X114.988 Y138.747 E73.78525
G0 F6000 X115.555 Y138.748
G1 F1200 X110.686 Y133.879 E74.01428
G0 F6000 X111.254 Y133.882
G1 F1200 X116.121 Y138.749 E74.2432
G0 F6000 X116.688 Y138.75
G1 F1200 X111.823 Y133.885 E74.47204
G0 F6000 X112.391 Y133.887
G1 F1200 X117.255 Y138.752 E74.70085
G0 F6000 X117.823 Y138.753
G1 F1200 X112.961 Y133.891 E74.92954
G0 F6000 X113.529 Y133.894
G1 F1200 X118.389 Y138.754 E75.15814
G0 F6000 X118.956 Y138.755
