;FLAVOR:Marlin
;TIME:1173
;Filament used: 0.910681m
;Layer height: 0.2
;MINX:70.912
;MINY:74.666
;MINZ:0.2
;MAXX:149.088
;MAXY:145.334
;MAXZ:5
;Generated with Cura_SteamEngine 4.6.1
M140 S52
M105
M190 S52
M104 S203
M105
M109 S203
M82 ;absolute extrusion mode
M201 X500.00 Y500.00 Z100.00 E5000.00 ;Setup machine max acceleration
M203 X500.00 Y500.00 Z10.00 E50.00 ;Setup machine max feedrate
M204 P500.00 R1000.00 T500.00 ;Setup Print/Retract/Travel acceleration
M205 X8.00 Y8.00 Z0.40 E5.00 ;Setup Jerk
M220 S100 ;Reset Feedrate
M221 S100 ;Reset Flowrate

G28 ;Home

G92 E0 ;Reset Extruder
G1 Z2.0 F3000 ;Move Z Axis up
G1 X10.1 Y20 Z0.28 F5000.0 ;Move to start position
G1 X10.1 Y200.0 Z0.28 F1500.0 E15 ;Draw the first line
G1 X10.4 Y200.0 Z0.28 F5000.0 ;Move to side a little
G1 X10.4 Y20 Z0.28 F1500.0 E30 ;Draw the second line
G92 E0 ;Reset Extruder
G1 Z2.0 F3000 ;Move Z Axis up

G92 E0
G92 E0
G1 F2700 E-5
;LAYER_COUNT:25
;LAYER:0
M107
G0 F6000 X124.188 Y75.477 Z0.2
;TYPE:SKIRT
G1 F2700 E0
G1 F1200 X125.09 Y75.53 E0.03005
G1 X125.983 Y75.662 E0.06008
G1 X126.862 Y75.873 E0.09014
G1 X127.718 Y76.161 E0.12018
G1 X128.545 Y76.523 E0.15021
G1 X129.337 Y76.957 E0.18025
G1 X130.087 Y77.46 E0.21028
G1 X130.79 Y78.027 E0.24032
G1 X131.44 Y78.653 E0.27033
G1 X132.033 Y79.335 E0.30039
G1 X132.562 Y80.067 E0.33043
G1 X132.805 Y80.455 E0.34566
G1 X133.249 Y81.202 E0.37456
G1 X146.652 Y104.417 E1.26614
G1 X146.986 Y105.013 E1.28887
G1 X147.392 Y105.819 E1.31888
G1 X147.725 Y106.658 E1.34891
G1 X147.983 Y107.524 E1.37896
G1 X148.163 Y108.409 E1.409
G1 X148.264 Y109.306 E1.43902
G1 X148.286 Y110.209 E1.46906
G1 X148.227 Y111.11 E1.4991
G1 X148.089 Y112.003 E1.52915
G1 X147.873 Y112.88 E1.55919
G1 X147.58 Y113.734 E1.58922
G1 X147.212 Y114.559 E1.61927
G1 X146.992 Y114.974 E1.63489
G1 X146.574 Y115.72 E1.66333
G1 X133.189 Y138.902 E2.55366
G1 X132.807 Y139.543 E2.57848
G1 X132.311 Y140.297 E2.6085
G1 X131.75 Y141.005 E2.63854
G1 X131.128 Y141.66 E2.66858
G1 X130.451 Y142.258 E2.69863
G1 X129.724 Y142.794 E2.72867
G1 X128.953 Y143.263 E2.75868
G1 X128.142 Y143.662 E2.78875
G1 X127.3 Y143.988 E2.81878
G1 X126.432 Y144.238 E2.84882
G1 X125.546 Y144.41 E2.87884
G1 X124.237 Y144.519 E2.92253
G1 X123.355 Y144.534 E2.95187
G1 X96.513 Y144.533 E3.84464
G1 X95.812 Y144.523 E3.86795
G1 X94.91 Y144.47 E3.89801
G1 X94.017 Y144.338 E3.92803
G1 X93.138 Y144.127 E3.9581
G1 X92.282 Y143.839 E3.98813
G1 X91.455 Y143.477 E4.01816
G1 X90.663 Y143.043 E4.0482
G1 X89.913 Y142.54 E4.07823
G1 X89.21 Y141.973 E4.10827
G1 X88.56 Y141.347 E4.13829
G1 X87.967 Y140.665 E4.16835
G1 X87.438 Y139.933 E4.19839
G1 X87.196 Y139.548 E4.21351
G1 X86.74 Y138.78 E4.24322
G1 X73.348 Y115.583 E5.1341
G1 X73.014 Y114.987 E5.15682
G1 X72.608 Y114.181 E5.18684
G1 X72.275 Y113.342 E5.21686
G1 X72.017 Y112.476 E5.24691
G1 X71.837 Y111.591 E5.27695
G1 X71.736 Y110.694 E5.30697
G1 X71.714 Y109.791 E5.33702
G1 X71.773 Y108.89 E5.36705
G1 X71.911 Y107.997 E5.3971
G1 X72.127 Y107.12 E5.42714
G1 X72.42 Y106.266 E5.45717
G1 X72.788 Y105.441 E5.48722
G1 X73.008 Y105.026 E5.50284
G1 X73.426 Y104.28 E5.53128
G1 X86.808 Y81.105 E6.42136
G1 X87.187 Y80.467 E6.44604
G1 X87.682 Y79.711 E6.4761
G1 X88.242 Y79.003 E6.50612
G1 X88.862 Y78.347 E6.53614
G1 X89.538 Y77.748 E6.56618
G1 X90.265 Y77.211 E6.59625
G1 X91.036 Y76.741 E6.62628
G1 X91.845 Y76.341 E6.6563
G1 X92.687 Y76.014 E6.68634
G1 X93.555 Y75.763 E6.71639
G1 X94.441 Y75.589 E6.74642
G1 X95.339 Y75.495 E6.77645
G1 X95.808 Y75.477 E6.79206
G1 X96.645 Y75.466 E6.8199
G1 X123.487 Y75.467 E7.71267
G1 X124.188 Y75.477 E7.73599
G0 F6000 X124.194 Y75.077
G1 F1200 X125.113 Y75.13 E7.76661
G1 X126.024 Y75.263 E7.79723
G1 X126.92 Y75.474 E7.82785
G1 X127.795 Y75.762 E7.85848
G1 X128.641 Y76.125 E7.8891
G1 X129.452 Y76.56 E7.91971
G1 X130.223 Y77.064 E7.95035
G1 X130.947 Y77.633 E7.98098
G1 X131.619 Y78.262 E8.01159
G1 X132.234 Y78.947 E8.04221
G1 X132.787 Y79.683 E8.07283
G1 X133.149 Y80.25 E8.0952
G1 X133.596 Y81.002 E8.1243
G1 X147.001 Y104.221 E9.01603
G1 X147.335 Y104.817 E9.03875
G1 X147.75 Y105.639 E9.06938
G1 X148.092 Y106.494 E9.10001
G1 X148.358 Y107.375 E9.13061
G1 X148.547 Y108.276 E9.16123
G1 X148.657 Y109.19 E9.19185
G1 X148.687 Y110.11 E9.22247
G1 X148.638 Y111.03 E9.25311
G1 X148.509 Y111.941 E9.28371
G1 X148.301 Y112.838 E9.31434
G1 X148.016 Y113.713 E9.34495
G1 X147.656 Y114.561 E9.37559
G1 X147.341 Y115.17 E9.39839
G1 X146.921 Y115.92 E9.42698
G1 X133.533 Y139.106 E10.31748
G1 X133.151 Y139.747 E10.3423
G1 X132.645 Y140.517 E10.37294
G1 X132.075 Y141.24 E10.40356
G1 X131.445 Y141.911 E10.43418
G1 X130.758 Y142.524 E10.4648
G1 X130.021 Y143.076 E10.49543
G1 X129.239 Y143.561 E10.52603
G1 X128.417 Y143.977 E10.55667
G1 X127.563 Y144.32 E10.58728
G1 X126.682 Y144.588 E10.61791
G1 X125.781 Y144.778 E10.64854
G1 X124.867 Y144.889 E10.67916
G1 X124.245 Y144.919 E10.69987
G1 X123.355 Y144.934 E10.72948
G1 X96.507 Y144.933 E11.62245
G1 X95.806 Y144.923 E11.64576
G1 X94.887 Y144.87 E11.67638
G1 X93.976 Y144.737 E11.707
G1 X93.08 Y144.526 E11.73762
G1 X92.205 Y144.238 E11.76826
G1 X91.359 Y143.875 E11.79888
G1 X90.548 Y143.44 E11.82948
G1 X89.777 Y142.936 E11.86012
G1 X89.053 Y142.367 E11.89075
G1 X88.381 Y141.738 E11.92136
G1 X87.766 Y141.053 E11.95198
G1 X87.213 Y140.317 E11.9826
G1 X86.853 Y139.753 E12.00485
G1 X86.393 Y138.98 E12.03477
G1 X72.999 Y115.779 E12.9258
G1 X72.665 Y115.183 E12.94852
G1 X72.25 Y114.361 E12.97915
G1 X71.908 Y113.506 E13.00978
G1 X71.642 Y112.625 E13.04039
G1 X71.453 Y111.724 E13.07101
G1 X71.343 Y110.81 E13.10163
G1 X71.313 Y109.89 E13.13224
G1 X71.362 Y108.97 E13.16288
G1 X71.491 Y108.059 E13.19349
G1 X71.699 Y107.162 E13.22411
G1 X71.984 Y106.287 E13.25472
G1 X72.344 Y105.439 E13.28536
G1 X72.659 Y104.83 E13.30816
G1 X73.079 Y104.08 E13.33675
G1 X86.464 Y80.9 E14.22703
G1 X86.843 Y80.262 E14.25171
G1 X87.347 Y79.492 E14.28232
G1 X87.916 Y78.768 E14.31295
G1 X88.546 Y78.097 E14.34356
G1 X89.231 Y77.482 E14.37418
G1 X89.968 Y76.93 E14.4048
G1 X90.749 Y76.443 E14.43541
G1 X91.57 Y76.026 E14.46604
G1 X92.424 Y75.682 E14.49666
G1 X93.304 Y75.413 E14.52727
G1 X94.205 Y75.222 E14.5579
G1 X95.119 Y75.109 E14.58853
G1 X95.802 Y75.077 E14.61128
G1 X96.645 Y75.066 E14.63932
G1 X123.493 Y75.067 E15.53228
G1 X124.194 Y75.077 E15.5556
G0 F6000 X124.2 Y74.677
G1 F1200 X125.136 Y74.73 E15.58678
G1 X126.065 Y74.863 E15.618
G1 X126.978 Y75.075 E15.64917
G1 X127.871 Y75.363 E15.68038
G1 X128.735 Y75.727 E15.71156
G1 X129.566 Y76.163 E15.74277
G1 X130.356 Y76.668 E15.77396
G1 X131.1 Y77.238 E15.80513
G1 X131.793 Y77.87 E15.83633
G1 X132.43 Y78.559 E15.86754
G1 X133.006 Y79.299 E15.89873
G1 X133.493 Y80.045 E15.92836
G1 X133.942 Y80.802 E15.95763
G1 X147.35 Y104.025 E16.84953
G1 X147.684 Y104.621 E16.87225
G1 X148.107 Y105.458 E16.90344
G1 X148.457 Y106.328 E16.93463
G1 X148.732 Y107.225 E16.96584
G1 X148.93 Y108.142 E16.99704
G1 X149.049 Y109.072 E17.02822
G1 X149.088 Y110.009 E17.05941
G1 X149.047 Y110.946 E17.09061
G1 X148.927 Y111.876 E17.1218
G1 X148.727 Y112.793 E17.15301
G1 X148.451 Y113.689 E17.1842
G1 X148.099 Y114.558 E17.21538
G1 X147.691 Y115.365 E17.24546
G1 X147.267 Y116.12 E17.27426
G1 X133.876 Y139.311 E18.16495
G1 X133.494 Y139.952 E18.18977
G1 X132.98 Y140.737 E18.22097
G1 X132.401 Y141.475 E18.25217
G1 X131.762 Y142.16 E18.28333
G1 X131.066 Y142.789 E18.31453
G1 X130.319 Y143.356 E18.34572
G1 X129.526 Y143.858 E18.37694
G1 X128.694 Y144.29 E18.40812
G1 X127.828 Y144.65 E18.43931
G1 X126.934 Y144.935 E18.47052
G1 X126.02 Y145.142 E18.50169
G1 X125.091 Y145.271 E18.53289
G1 X124.252 Y145.319 E18.56084
G1 X123.355 Y145.334 E18.59068
G1 X96.501 Y145.333 E19.48384
G1 X95.8 Y145.323 E19.50716
G1 X94.864 Y145.27 E19.53834
G1 X93.935 Y145.137 E19.56956
G1 X93.022 Y144.925 E19.60073
G1 X92.129 Y144.637 E19.63194
G1 X91.265 Y144.273 E19.66312
G1 X90.434 Y143.837 E19.69433
G1 X89.644 Y143.332 E19.72552
G1 X88.9 Y142.762 E19.75669
G1 X88.207 Y142.13 E19.78789
G1 X87.57 Y141.441 E19.8191
G1 X86.994 Y140.701 E19.85029
G1 X86.509 Y139.958 E19.8798
G1 X86.047 Y139.18 E19.90989
G1 X72.65 Y115.975 E20.80109
G1 X72.316 Y115.379 E20.82381
G1 X71.893 Y114.542 E20.855
G1 X71.543 Y113.672 E20.88619
G1 X71.268 Y112.775 E20.9174
G1 X71.07 Y111.858 E20.9486
G1 X70.951 Y110.928 E20.97978
G1 X70.912 Y109.991 E21.01097
G1 X70.953 Y109.054 E21.04217
G1 X71.073 Y108.124 E21.07336
G1 X71.273 Y107.207 E21.10457
G1 X71.549 Y106.311 E21.13576
G1 X71.901 Y105.442 E21.16694
G1 X72.309 Y104.635 E21.19702
G1 X72.733 Y103.88 E21.22582
G1 X86.12 Y80.696 E22.11624
G1 X86.499 Y80.058 E22.14092
G1 X87.012 Y79.273 E22.17211
G1 X87.59 Y78.534 E22.20331
G1 X88.228 Y77.848 E22.23447
G1 X88.923 Y77.218 E22.26567
G1 X89.669 Y76.649 E22.29688
G1 X90.461 Y76.147 E22.32807
G1 X91.293 Y75.713 E22.35928
G1 X92.159 Y75.352 E22.39048
G1 X93.052 Y75.066 E22.42167
G1 X93.966 Y74.857 E22.45286
G1 X94.895 Y74.727 E22.48405
G1 X95.796 Y74.677 E22.51407
G1 X96.645 Y74.666 E22.54231
G1 X123.499 Y74.667 E23.43548
G1 X124.2 Y74.677 E23.45879
G1 F2700 E18.45879
;MESH:Top.stl
G0 F6000 X123.865 Y85.001
G0 X123.865 Y85.986
G0 X137.364 Y109.993
G0 X123.783 Y133.661
G0 X123.611 Y133.56
;TYPE:WALL-OUTER
G1 F2700 E23.45879
G1 F1200 X137.145 Y110.121 E24.35901
G1 X137.211 Y109.995 E24.36374
G1 X123.68 Y86.556 E25.2639
G1 X123.6 Y86.432 E25.26881
G1 X96.529 Y86.43 E26.16919
G1 X96.389 Y86.44 E26.17386
G1 X82.855 Y109.879 E27.07407
G1 X82.789 Y110.004 E27.07877
G1 X82.907 Y110.212 E27.08673
G1 X96.324 Y133.452 E27.97926
G1 X96.404 Y133.568 E27.98395
G1 X123.471 Y133.57 E28.8842
G1 X123.611 Y133.56 E28.88887
G0 F6000 X123.934 Y134.134
G1 F1200 X96.066 Y134.134 E29.81576
G1 X82.132 Y110 E30.74264
G1 X96.066 Y85.866 E31.66952
G1 X123.934 Y85.866 E32.59642
G1 X137.868 Y110 E33.5233
G1 X123.934 Y134.134 E34.45018
G0 F6000 X123.665 Y133.847
;TYPE:SKIN
G1 F1200 X123.836 Y133.735 E34.45385
G1 X126.631 Y128.894 E34.55416
G1 X129.426 Y124.052 E34.65448
G1 X132.221 Y119.211 E34.75479
G1 X135.016 Y114.369 E34.85511
G1 X137.397 Y110.244 E34.94058
G1 X137.483 Y110.048 E34.94442
G1 X137.295 Y109.577 E34.95352
G1 X132.273 Y100.878 E35.13376
G1 X127.251 Y92.179 E35.31401
G1 X124.161 Y86.826 E35.42492
G1 X123.863 Y86.245 E35.43664
G1 X123.2 Y86.148 E35.44866
G1 X96.333 Y86.15 E35.93077
G1 X95.955 Y86.621 E35.94161
G1 X93.16 Y91.463 E36.04193
G1 X90.364 Y96.304 E36.14225
G1 X87.569 Y101.145 E36.24256
G1 X84.774 Y105.987 E36.34288
G1 X82.601 Y109.754 E36.42092
G1 X82.516 Y109.952 E36.42479
G1 X82.7 Y110.419 E36.43379
G1 X87.723 Y119.118 E36.61405
G1 X92.746 Y127.819 E36.79433
G1 X95.837 Y133.173 E36.90527
G1 X96.135 Y133.753 E36.91697
G1 X96.797 Y133.849 E36.92897
G1 X107.546 Y133.85 E37.12186
G1 X123.385 Y133.85 E37.40608
G1 F2700 E32.40608
G0 F6000 X123.492 Y133.934
G0 X97.937 Y133.688
G0 X97.937 Y131.08
G0 X97.939 Y130.89
;TYPE:WALL-INNER
G1 F2700 E37.40608
G1 F1200 X122.061 Y130.89 E38.20838
G1 X134.122 Y110 E39.01067
G1 X122.061 Y89.11 E39.81297
G1 X97.939 Y89.11 E40.61527
G1 X85.878 Y110 E41.41756
G1 X97.939 Y130.89 E42.21985
G0 F6000 X98.17 Y130.49
;TYPE:WALL-OUTER
G1 F1200 X121.83 Y130.49 E43.00679
G1 X133.66 Y110 E43.79372
G1 X121.83 Y89.51 E44.58065
G1 X98.17 Y89.51 E45.36758
G1 X86.34 Y110 E46.15451
G1 X98.17 Y130.49 E46.94144
G1 F2700 E41.94144
G0 F6000 X97.91 Y130.639
G0 X98.01 Y130.707
G0 X122.172 Y131.083
G0 X123.44 Y131.817
G0 X123.128 Y132.738
;TYPE:WALL-INNER
G1 F2700 E46.94144
G1 F1200 X96.872 Y132.738 E47.81472
G1 X83.744 Y110 E48.68799
G1 X96.872 Y87.262 E49.56126
G1 X123.128 Y87.262 E50.43454
G1 X136.256 Y110 E51.3078
G1 X123.128 Y132.738 E52.18107
G0 F6000 X123.359 Y133.138
;TYPE:WALL-OUTER
G1 F1200 X96.641 Y133.138 E53.06972
G1 X96.63 Y133.119 E53.07045
G1 X83.283 Y110 E53.95833
G1 X96.641 Y86.862 E54.84694
G1 X123.359 Y86.862 E55.73559
G1 X136.717 Y110 E56.6242
G1 X123.359 Y133.138 E57.51282
G0 F6000 X123.088 Y132.728
G0 X122.903 Y132.348
;TYPE:SKIN
G1 F1200 X97.097 Y132.348 E58.37113
G1 X84.195 Y110 E59.2294
G1 X97.097 Y87.652 E60.08768
G1 X122.903 Y87.652 E60.94599
G1 X135.805 Y110 E61.80427
G1 X122.903 Y132.348 E62.66254
G0 F6000 X123.144 Y132.49
G0 X123.466 Y131.772
G0 X122.196 Y131.037
G0 X122.132 Y131
G0 X122.286 Y131.28
G1 F1200 X134.572 Y110 E63.47981
G1 X122.286 Y88.72 E64.29708
G1 X97.714 Y88.72 E65.11435
G1 X85.428 Y110 E65.93162
G1 X97.714 Y131.28 E66.74888
G1 X122.286 Y131.28 E67.56615
G1 F2700 E62.56615
G0 F6000 X122.132 Y131
G0 X97.828 Y131.083
G0 X97.828 Y132.528
G0 X97.68 Y132.628
G0 X97.68 Y132.187
G1 F2700 E67.56615
G1 F1200 X96.516 Y131.023 E67.6209
G0 F6000 X97.02 Y130.395
G1 F1200 X94.971 Y128.346 E67.71728
G0 F6000 X95.474 Y127.718
G1 F1200 X93.426 Y125.67 E67.81361
G0 F6000 X93.928 Y125.041
G1 F1200 X91.88 Y122.993 E67.90995
G0 F6000 X92.382 Y122.364
G1 F1200 X90.335 Y120.317 E68.00623
G0 F6000 X90.837 Y119.687
G1 F1200 X88.79 Y117.64 E68.10251
G0 F6000 X89.292 Y117.01
G1 F1200 X87.245 Y114.964 E68.19878
G0 F6000 X87.746 Y114.333
G1 F1200 X85.7 Y112.287 E68.29501
G0 F6000 X86.2 Y111.656
G1 F1200 X84.439 Y109.895 E68.37785
G0 F6000 X84.646 Y109.536
G1 F1200 X85.427 Y110.317 E68.41458
G0 F6000 X85.402 Y109.726
G1 F1200 X84.853 Y109.177 E68.4404
G0 F6000 X85.06 Y108.819
G1 F1200 X85.609 Y109.368 E68.46623
G0 F6000 X85.815 Y109.008
G1 F1200 X85.267 Y108.46 E68.492
G0 F6000 X85.474 Y108.101
G1 F1200 X86.023 Y108.65 E68.51783
G0 F6000 X86.23 Y108.291
G1 F1200 X85.681 Y107.743 E68.54363
G0 F6000 X85.888 Y107.384
G1 F1200 X86.437 Y107.933 E68.56945
G0 F6000 X86.644 Y107.574
G1 F1200 X86.095 Y107.026 E68.59525
G0 F6000 X86.303 Y106.667
G1 F1200 X86.851 Y107.215 E68.62103
G0 F6000 X87.058 Y106.857
G1 F1200 X86.509 Y106.308 E68.64685
G0 F6000 X86.716 Y105.95
G1 F1200 X87.265 Y106.498 E68.67265
G0 F6000 X87.472 Y106.14
G1 F1200 X86.923 Y105.591 E68.69847
G0 F6000 X87.131 Y105.233
G1 F1200 X87.679 Y105.781 E68.72425
G0 F6000 X87.886 Y105.422
G1 F1200 X87.338 Y104.874 E68.75003
G0 F6000 X87.544 Y104.515
G1 F1200 X88.093 Y105.064 E68.77585
G0 F6000 X88.3 Y104.705
G1 F1200 X87.751 Y104.156 E68.80167
G0 F6000 X87.959 Y103.798
G1 F1200 X88.507 Y104.347 E68.82747
G0 F6000 X88.715 Y103.988
G1 F1200 X88.166 Y103.439 E68.85329
G0 F6000 X88.373 Y103.081
G1 F1200 X88.921 Y103.629 E68.87907
G0 F6000 X89.128 Y103.27
G1 F1200 X88.579 Y102.722 E68.90487
G0 F6000 X88.787 Y102.363
G1 F1200 X89.335 Y102.912 E68.93067
G0 F6000 X89.543 Y102.553
G1 F1200 X88.994 Y102.005 E68.95647
G0 F6000 X89.201 Y101.646
G1 F1200 X89.75 Y102.195 E68.98229
G0 F6000 X89.957 Y101.836
G1 F1200 X89.408 Y101.288 E69.00809
G0 F6000 X89.615 Y100.928
G1 F1200 X90.163 Y101.477 E69.03389
G0 F6000 X90.371 Y101.119
G1 F1200 X89.822 Y100.57 E69.05972
G0 F6000 X90.029 Y100.211
G1 F1200 X90.578 Y100.76 E69.08554
G0 F6000 X90.785 Y100.402
G1 F1200 X90.236 Y99.853 E69.11136
G0 F6000 X90.443 Y99.494
G1 F1200 X90.992 Y100.043 E69.13719
G0 F6000 X91.199 Y99.684
G1 F1200 X90.65 Y99.135 E69.16301
G0 F6000 X90.857 Y98.777
G1 F1200 X91.406 Y99.325 E69.18881
G0 F6000 X91.613 Y98.967
G1 F1200 X91.064 Y98.418 E69.21463
G0 F6000 X91.271 Y98.06
G1 F1200 X91.82 Y98.608 E69.24043
G0 F6000 X92.027 Y98.25
G1 F1200 X91.479 Y97.701 E69.26623
G0 F6000 X91.685 Y97.342
G1 F1200 X92.234 Y97.891 E69.29206
G0 F6000 X92.441 Y97.532
G1 F1200 X91.892 Y96.983 E69.31788
G0 F6000 X92.099 Y96.625
G1 F1200 X92.648 Y97.174 E69.3437
G0 F6000 X92.855 Y96.815
G1 F1200 X92.307 Y96.266 E69.3695
G0 F6000 X92.514 Y95.908
G1 F1200 X93.063 Y96.457 E69.39532
G0 F6000 X93.269 Y96.097
G1 F1200 X92.72 Y95.549 E69.42112
G0 F6000 X92.927 Y95.19
G1 F1200 X93.476 Y95.739 E69.44695
G0 F6000 X93.683 Y95.38
G1 F1200 X93.135 Y94.832 E69.47272
G0 F6000 X93.342 Y94.473
G1 F1200 X93.891 Y95.022 E69.49855
G0 F6000 X94.098 Y94.663
G1 F1200 X93.549 Y94.115 E69.52435
G0 F6000 X93.755 Y93.755
G1 F1200 X94.304 Y94.304 E69.55017
G0 F6000 X94.511 Y93.946
G1 F1200 X93.963 Y93.397 E69.57597
G0 F6000 X94.17 Y93.038
G1 F1200 X94.719 Y93.587 E69.60179
G0 F6000 X94.926 Y93.229
G1 F1200 X94.377 Y92.68 E69.62762
G0 F6000 X94.584 Y92.321
G1 F1200 X95.133 Y92.87 E69.65344
G0 F6000 X95.339 Y92.511
G1 F1200 X94.791 Y91.962 E69.67924
G0 F6000 X94.998 Y91.604
