;FLAVOR:Marlin
;TIME:6660
;Filament used: 6.91313m
;Layer height: 0.2
;MINX:64.026
;MINY:68.684
;MINZ:0.2
;MAXX:155.965
;MAXY:151.316
;MAXZ:15.2
;Generated with Cura_SteamEngine 4.6.1
M140 S55
M105
M190 S55
M104 S205
M105
M109 S205
M82 ;absolute extrusion mode
M201 X500.00 Y500.00 Z100.00 E5000.00 ;Setup machine max acceleration
M203 X500.00 Y500.00 Z10.00 E50.00 ;Setup machine max feedrate
M204 P500.00 R1000.00 T500.00 ;Setup Print/Retract/Travel acceleration
M205 X8.00 Y8.00 Z0.40 E5.00 ;Setup Jerk
M220 S100 ;Reset Feedrate
M221 S100 ;Reset Flowrate

G28 ;Home

G92 E0 ;Reset Extruder
G1 Z2.0 F3000 ;Move Z Axis up
G1 X10.1 Y20 Z0.28 F5000.0 ;Move to start position
G1 X10.1 Y200.0 Z0.28 F1500.0 E15 ;Draw the first line
G1 X10.4 Y200.0 Z0.28 F5000.0 ;Move to side a little
G1 X10.4 Y20 Z0.28 F1500.0 E30 ;Draw the second line
G92 E0 ;Reset Extruder
G1 Z2.0 F3000 ;Move Z Axis up

G92 E0
G92 E0
G1 F2700 E-5
;LAYER_COUNT:76
;LAYER:0
M107
G0 F6000 X108.588 Y69.516 Z0.2
;TYPE:SKIRT
G1 F2700 E0
G1 F1200 X111.203 Y69.519 E0.08698
G1 X111.81 Y69.507 E0.10717
G1 X112.435 Y69.503 E0.12796
G1 X127.003 Y69.519 E0.61249
G1 X127.67 Y69.529 E0.63468
G1 X128.571 Y69.583 E0.6647
G1 X129.465 Y69.716 E0.69476
G1 X130.343 Y69.927 E0.72479
G1 X131.198 Y70.216 E0.75481
G1 X132.025 Y70.578 E0.78484
G1 X132.817 Y71.013 E0.81489
G1 X133.567 Y71.516 E0.84493
G1 X134.27 Y72.083 E0.87497
G1 X134.92 Y72.711 E0.90503
G1 X135.511 Y73.393 E0.93504
G1 X136.04 Y74.125 E0.96508
G1 X136.285 Y74.517 E0.98046
G1 X136.708 Y75.231 E1.00806
G1 X143.746 Y87.45 E1.47706
G1 X144.503 Y88.807 E1.52874
G1 X146.474 Y92.185 E1.65882
G1 X153.542 Y104.455 E2.12979
G1 X153.868 Y105.038 E2.152
G1 X154.273 Y105.845 E2.18204
G1 X154.606 Y106.684 E2.21206
G1 X154.862 Y107.55 E2.24209
G1 X155.042 Y108.435 E2.27213
G1 X155.142 Y109.333 E2.30218
G1 X155.163 Y110.236 E2.33223
G1 X155.103 Y111.137 E2.36226
G1 X154.964 Y112.029 E2.39229
G1 X154.747 Y112.906 E2.42234
G1 X154.453 Y113.76 E2.45238
G1 X153.981 Y114.787 E2.48997
G1 X153.636 Y115.439 E2.5145
G1 X153.448 Y115.777 E2.52737
G1 X146.293 Y128.14 E3.00246
G1 X145.687 Y129.153 E3.04172
G1 X144.388 Y131.399 E3.12802
G1 X144.103 Y131.915 E3.14762
G1 X143.777 Y132.488 E3.16955
G1 X136.614 Y144.866 E3.64521
G1 X136.221 Y145.526 E3.67076
G1 X135.725 Y146.28 E3.70078
G1 X135.164 Y146.988 E3.73082
G1 X134.543 Y147.644 E3.76087
G1 X133.866 Y148.242 E3.79091
G1 X133.139 Y148.778 E3.82095
G1 X132.368 Y149.247 E3.85097
G1 X131.558 Y149.646 E3.881
G1 X130.716 Y149.972 E3.91103
G1 X129.848 Y150.223 E3.94108
G1 X128.961 Y150.395 E3.97113
G1 X128.063 Y150.489 E4.00116
G1 X127.599 Y150.506 E4.01661
G1 X126.8 Y150.516 E4.04318
G1 X112.516 Y150.501 E4.51827
G1 X111.412 Y150.484 E4.55499
G1 X108.797 Y150.481 E4.64197
G1 X108.19 Y150.493 E4.66216
G1 X107.565 Y150.497 E4.68295
G1 X92.995 Y150.481 E5.16755
G1 X92.336 Y150.471 E5.18947
G1 X91.435 Y150.417 E5.21949
G1 X90.541 Y150.284 E5.24956
G1 X89.664 Y150.072 E5.27956
G1 X88.808 Y149.784 E5.3096
G1 X87.981 Y149.421 E5.33964
G1 X87.189 Y148.986 E5.3697
G1 X86.439 Y148.483 E5.39973
G1 X85.737 Y147.915 E5.42977
G1 X85.087 Y147.288 E5.4598
G1 X84.496 Y146.606 E5.48982
G1 X83.771 Y145.564 E5.53204
G1 X83.266 Y144.727 E5.56455
G1 X76.279 Y132.594 E6.03023
G1 X75.711 Y131.575 E6.06903
G1 X74.388 Y129.277 E6.15722
G1 X74.061 Y128.737 E6.17822
G1 X73.789 Y128.271 E6.19617
G1 X66.466 Y115.558 E6.68414
G1 X66.117 Y114.932 E6.70797
G1 X65.713 Y114.124 E6.73802
G1 X65.381 Y113.284 E6.76806
G1 X65.125 Y112.418 E6.7981
G1 X64.947 Y111.533 E6.82812
G1 X64.848 Y110.635 E6.85817
G1 X64.829 Y109.732 E6.88821
G1 X64.889 Y108.831 E6.91824
G1 X65.029 Y107.939 E6.94828
G1 X65.248 Y107.063 E6.97831
G1 X65.543 Y106.209 E7.00836
G1 X65.912 Y105.385 E7.03839
G1 X66.125 Y104.983 E7.05352
G1 X66.544 Y104.237 E7.08198
G1 X73.707 Y91.86 E7.55761
G1 X74.313 Y90.847 E7.59687
G1 X75.612 Y88.601 E7.68317
G1 X75.897 Y88.085 E7.70277
G1 X76.223 Y87.512 E7.7247
G1 X83.39 Y75.127 E8.20062
G1 X83.773 Y74.485 E8.22549
G1 X84.27 Y73.731 E8.25553
G1 X84.831 Y73.023 E8.28557
G1 X85.453 Y72.368 E8.31561
G1 X86.13 Y71.771 E8.34563
G1 X86.858 Y71.236 E8.37568
G1 X87.63 Y70.767 E8.40573
G1 X88.44 Y70.368 E8.43576
G1 X89.282 Y70.043 E8.46578
G1 X90.15 Y69.793 E8.49582
G1 X91.037 Y69.621 E8.52587
G1 X92.114 Y69.52 E8.56185
G1 X92.771 Y69.493 E8.58372
G1 X93.2 Y69.484 E8.59799
G1 X107.336 Y69.498 E9.06816
G1 X108.588 Y69.516 E9.1098
G0 F6000 X108.595 Y69.116
G1 F1200 X111.195 Y69.119 E9.19628
G1 X111.807 Y69.107 E9.21664
G1 X112.435 Y69.103 E9.23753
G1 X127.009 Y69.119 E9.72226
G1 X127.676 Y69.129 E9.74445
G1 X128.595 Y69.183 E9.77507
G1 X129.506 Y69.316 E9.80569
G1 X130.402 Y69.528 E9.83631
G1 X131.276 Y69.817 E9.86693
G1 X132.122 Y70.18 E9.89755
G1 X132.933 Y70.616 E9.92817
G1 X133.703 Y71.12 E9.95878
G1 X134.427 Y71.69 E9.98943
G1 X135.098 Y72.32 E10.02004
G1 X135.712 Y73.005 E10.05064
G1 X136.265 Y73.742 E10.08128
G1 X136.629 Y74.313 E10.10381
G1 X137.055 Y75.031 E10.13157
G1 X144.096 Y87.255 E10.60077
G1 X144.872 Y88.647 E10.65377
G1 X146.821 Y91.985 E10.78234
G1 X153.891 Y104.26 E11.25348
G1 X154.217 Y104.843 E11.2757
G1 X154.631 Y105.665 E11.30631
G1 X154.972 Y106.52 E11.33692
G1 X155.238 Y107.402 E11.36757
G1 X155.426 Y108.303 E11.39818
G1 X155.535 Y109.217 E11.42879
G1 X155.564 Y110.137 E11.45941
G1 X155.514 Y111.056 E11.49002
G1 X155.384 Y111.968 E11.52066
G1 X155.175 Y112.864 E11.55126
G1 X154.889 Y113.74 E11.58191
G1 X154.334 Y114.974 E11.62691
G1 X153.989 Y115.626 E11.65145
G1 X153.795 Y115.977 E11.66479
G1 X146.636 Y128.345 E12.14009
G1 X146.064 Y129.302 E12.17717
G1 X144.717 Y131.63 E12.26663
G1 X144.451 Y132.112 E12.28494
G1 X144.124 Y132.688 E12.30697
G1 X136.958 Y145.07 E12.78279
G1 X136.565 Y145.73 E12.80834
G1 X136.06 Y146.5 E12.83897
G1 X135.49 Y147.223 E12.86959
G1 X134.859 Y147.894 E12.90023
G1 X134.173 Y148.508 E12.93085
G1 X133.436 Y149.06 E12.96147
G1 X132.654 Y149.545 E12.99208
G1 X131.833 Y149.962 E13.02271
G1 X130.979 Y150.305 E13.05331
G1 X130.098 Y150.573 E13.08394
G1 X129.197 Y150.763 E13.11457
G1 X128.283 Y150.875 E13.1452
G1 X127.604 Y150.906 E13.1678
G1 X126.8 Y150.916 E13.19455
G1 X112.51 Y150.901 E13.66983
G1 X111.405 Y150.884 E13.70659
G1 X108.805 Y150.881 E13.79307
G1 X108.193 Y150.893 E13.81343
G1 X107.565 Y150.897 E13.83431
G1 X92.989 Y150.881 E14.31911
G1 X92.33 Y150.871 E14.34104
G1 X91.411 Y150.817 E14.37165
G1 X90.5 Y150.683 E14.40228
G1 X89.604 Y150.471 E14.4329
G1 X88.73 Y150.182 E14.46352
G1 X87.884 Y149.819 E14.49414
G1 X87.073 Y149.383 E14.52477
G1 X86.303 Y148.878 E14.55539
G1 X85.58 Y148.309 E14.58599
G1 X84.908 Y147.679 E14.61663
G1 X84.294 Y146.993 E14.64725
G1 X83.742 Y146.257 E14.67785
G1 X83.429 Y145.772 E14.69705
G1 X82.92 Y144.927 E14.72986
G1 X75.93 Y132.789 E15.19573
G1 X75.371 Y131.786 E15.23392
G1 X74.038 Y129.472 E15.32274
G1 X73.715 Y128.939 E15.34347
G1 X73.442 Y128.471 E15.36149
G1 X66.117 Y115.753 E15.84964
G1 X65.768 Y115.127 E15.87347
G1 X65.355 Y114.304 E15.9041
G1 X65.015 Y113.448 E15.93473
G1 X64.75 Y112.566 E15.96536
G1 X64.563 Y111.665 E15.99597
G1 X64.455 Y110.751 E16.02658
G1 X64.427 Y109.83 E16.05723
G1 X64.479 Y108.911 E16.08784
G1 X64.61 Y108 E16.11846
G1 X64.82 Y107.104 E16.14906
G1 X65.106 Y106.229 E16.17968
G1 X65.468 Y105.382 E16.21032
G1 X65.776 Y104.788 E16.23257
G1 X66.198 Y104.036 E16.26125
G1 X73.364 Y91.655 E16.73705
G1 X73.936 Y90.698 E16.77413
G1 X75.283 Y88.37 E16.86359
G1 X75.549 Y87.888 E16.8819
G1 X75.876 Y87.312 E16.90393
G1 X83.047 Y74.922 E17.38007
G1 X83.43 Y74.28 E17.40493
G1 X83.935 Y73.511 E17.43553
G1 X84.506 Y72.788 E17.46617
G1 X85.137 Y72.118 E17.49678
G1 X85.824 Y71.505 E17.52741
G1 X86.561 Y70.953 E17.55803
G1 X87.343 Y70.468 E17.58864
G1 X88.165 Y70.053 E17.61926
G1 X89.02 Y69.71 E17.6499
G1 X89.901 Y69.443 E17.68052
G1 X90.801 Y69.253 E17.71112
G1 X92.098 Y69.12 E17.75448
G1 X92.755 Y69.093 E17.77635
G1 X93.2 Y69.084 E17.79116
G1 X107.336 Y69.098 E18.26132
G1 X108.595 Y69.116 E18.3032
G0 F6000 X108.601 Y68.716
G1 F1200 X111.187 Y68.719 E18.38921
G1 X111.804 Y68.707 E18.40974
G1 X112.435 Y68.703 E18.43072
G1 X127.015 Y68.719 E18.91566
G1 X127.682 Y68.729 E18.93784
G1 X128.618 Y68.783 E18.96903
G1 X129.547 Y68.917 E19.00024
G1 X130.46 Y69.129 E19.03142
G1 X131.352 Y69.418 E19.06261
G1 X132.217 Y69.782 E19.09382
G1 X133.047 Y70.219 E19.12502
G1 X133.837 Y70.724 E19.1562
G1 X134.581 Y71.296 E19.18742
G1 X135.273 Y71.928 E19.21859
G1 X135.909 Y72.617 E19.24977
G1 X136.485 Y73.358 E19.28099
G1 X136.973 Y74.108 E19.31075
G1 X137.402 Y74.831 E19.33871
G1 X144.445 Y87.06 E19.80808
G1 X145.198 Y88.411 E19.85953
G1 X147.168 Y91.785 E19.98947
G1 X154.24 Y104.064 E20.46077
G1 X154.566 Y104.647 E20.48298
G1 X154.988 Y105.485 E20.51419
G1 X155.338 Y106.355 E20.54538
G1 X155.612 Y107.252 E20.57658
G1 X155.809 Y108.169 E20.60777
G1 X155.927 Y109.099 E20.63895
G1 X155.965 Y110.036 E20.67014
G1 X155.923 Y110.973 E20.70134
G1 X155.802 Y111.903 E20.73253
G1 X155.602 Y112.82 E20.76375
G1 X155.324 Y113.716 E20.79495
G1 X154.971 Y114.585 E20.82615
G1 X154.688 Y115.161 E20.84749
G1 X154.343 Y115.813 E20.87203
G1 X154.141 Y116.177 E20.88587
G1 X146.98 Y128.551 E21.36138
G1 X146.381 Y129.553 E21.40021
G1 X145.075 Y131.81 E21.48694
G1 X144.799 Y132.309 E21.50591
G1 X144.47 Y132.888 E21.52806
G1 X137.301 Y145.275 E22.00407
G1 X136.908 Y145.935 E22.02962
G1 X136.395 Y146.719 E22.06078
G1 X135.816 Y147.457 E22.09198
G1 X135.176 Y148.144 E22.12321
G1 X134.481 Y148.773 E22.15439
G1 X133.734 Y149.34 E22.18558
G1 X132.942 Y149.842 E22.21677
G1 X132.11 Y150.275 E22.24796
G1 X131.244 Y150.635 E22.27916
G1 X130.35 Y150.92 E22.31037
G1 X129.436 Y151.128 E22.34154
G1 X128.507 Y151.257 E22.37274
G1 X127.61 Y151.306 E22.40262
G1 X126.799 Y151.316 E22.42959
G1 X112.504 Y151.301 E22.90505
G1 X111.399 Y151.284 E22.9418
G1 X108.813 Y151.281 E23.02781
G1 X108.196 Y151.293 E23.04834
G1 X107.565 Y151.297 E23.06933
G1 X92.983 Y151.281 E23.55433
G1 X92.324 Y151.271 E23.57625
G1 X91.388 Y151.217 E23.60743
G1 X90.46 Y151.083 E23.63862
G1 X89.546 Y150.87 E23.66983
G1 X88.654 Y150.581 E23.70102
G1 X87.79 Y150.217 E23.7322
G1 X86.96 Y149.78 E23.7634
G1 X86.17 Y149.274 E23.7946
G1 X85.426 Y148.703 E23.82579
G1 X84.733 Y148.071 E23.85699
G1 X84.097 Y147.382 E23.88818
G1 X83.522 Y146.641 E23.91937
G1 X83.087 Y145.979 E23.94572
G1 X82.573 Y145.126 E23.97884
G1 X75.58 Y132.984 E24.44488
G1 X74.983 Y131.912 E24.48569
G1 X73.708 Y129.699 E24.57063
G1 X73.37 Y129.141 E24.59233
G1 X73.095 Y128.671 E24.61044
G1 X65.767 Y115.947 E25.09881
G1 X65.418 Y115.321 E25.12265
G1 X64.997 Y114.484 E25.15381
G1 X64.648 Y113.613 E25.18502
G1 X64.375 Y112.716 E25.21621
G1 X64.18 Y111.798 E25.24742
G1 X64.063 Y110.868 E25.2786
G1 X64.026 Y109.931 E25.30979
G1 X64.069 Y108.994 E25.34098
G1 X64.192 Y108.064 E25.37218
G1 X64.393 Y107.148 E25.40338
G1 X64.671 Y106.252 E25.43458
G1 X65.025 Y105.384 E25.46576
G1 X65.427 Y104.593 E25.49527
G1 X65.852 Y103.836 E25.52414
G1 X73.02 Y91.449 E26.00014
G1 X73.619 Y90.447 E26.03897
G1 X74.925 Y88.19 E26.1257
G1 X75.201 Y87.691 E26.14467
G1 X75.53 Y87.112 E26.16682
G1 X82.703 Y74.717 E26.64313
G1 X83.086 Y74.075 E26.668
G1 X83.601 Y73.291 E26.69919
G1 X84.18 Y72.554 E26.73037
G1 X84.82 Y71.868 E26.76157
G1 X85.516 Y71.24 E26.79275
G1 X86.263 Y70.673 E26.82394
G1 X87.056 Y70.171 E26.85516
G1 X87.889 Y69.74 E26.88635
G1 X88.755 Y69.38 E26.91755
G1 X89.649 Y69.096 E26.94875
G1 X90.563 Y68.889 E26.97992
G1 X91.492 Y68.76 E27.01111
G1 X92.081 Y68.72 E27.03075
G1 X92.738 Y68.693 E27.05262
G1 X93.201 Y68.684 E27.06802
G1 X107.337 Y68.698 E27.53818
G1 X108.601 Y68.716 E27.58023
G1 F2700 E22.58023
;MESH:TopHatwE.stl
G0 F6000 X108.653 Y80.347
G0 X108.601 Y81.42
G0 X107.218 Y81.782
G0 X107.218 Y80.481
G0 X92.984 Y80.46
G0 X85.893 Y92.726
G0 X87.202 Y93.482
G0 X84.42 Y98.301
G0 X83.107 Y97.543
G0 X75.91 Y109.965
G0 X83.112 Y122.455
G0 X84.42 Y121.7
G0 X87.202 Y126.518
G0 X85.889 Y127.276
G0 X92.926 Y139.505
G0 X107.4 Y139.697
;TYPE:WALL-INNER
G1 F2700 E27.58023
G1 F1200 X107.201 Y139.697 E27.58685
G1 X92.824 Y139.681 E28.06503
G1 X85.64 Y127.209 E28.54374
G1 X86.781 Y126.55 E28.58757
G1 X86.953 Y126.451 E28.59417
G1 X86.854 Y126.279 E28.59844
G1 X84.353 Y121.949 E28.76475
G1 X83.217 Y122.605 E28.80838
G1 X83.045 Y122.704 E28.81498
G1 X82.946 Y122.532 E28.81925
G1 X75.707 Y109.965 E29.30162
G1 X83.04 Y97.294 E29.78854
G1 X84.353 Y98.052 E29.83897
G1 X86.953 Y93.549 E30.01191
G1 X85.816 Y92.892 E30.05559
G1 X85.644 Y92.793 E30.06219
G1 X85.743 Y92.621 E30.06645
G1 X92.882 Y80.284 E30.54053
G1 X107.4 Y80.299 E31.0234
G1 X107.4 Y81.6 E31.06668
G1 X112.6 Y81.6 E31.23963
G1 X112.6 Y80.502 E31.27615
G1 X112.6 Y80.303 E31.28277
G1 X112.799 Y80.303 E31.28705
G1 X127.176 Y80.319 E31.76523
G1 X134.36 Y92.791 E32.24395
G1 X133.219 Y93.45 E32.28777
G1 X133.047 Y93.549 E32.29437
G1 X133.146 Y93.721 E32.29864
G1 X135.647 Y98.051 E32.46495
G1 X136.783 Y97.395 E32.50858
G1 X136.955 Y97.296 E32.51518
G1 X137.054 Y97.468 E32.51945
G1 X144.293 Y110.035 E33.00182
G1 X136.96 Y122.706 E33.48874
G1 X135.647 Y121.948 E33.53917
G1 X133.047 Y126.451 E33.71211
G1 X134.184 Y127.108 E33.75579
G1 X134.356 Y127.207 E33.76239
G1 X134.257 Y127.379 E33.76666
G1 X127.118 Y139.716 E34.24073
G1 X112.6 Y139.701 E34.7236
G1 X112.6 Y138.4 E34.76688
G1 X107.4 Y138.4 E34.93983
G1 X107.4 Y139.498 E34.97635
G1 X107.4 Y139.697 E34.98063
G0 F6000 X107.8 Y140.097
;TYPE:WALL-OUTER
G1 F1200 X92.592 Y140.081 E35.48645
G1 X85.094 Y127.063 E35.98612
G1 X86.407 Y126.305 E36.03654
G1 X84.207 Y122.495 E36.18287
G1 X82.898 Y123.251 E36.23315
G1 X75.245 Y109.965 E36.74311
G1 X82.894 Y96.748 E37.25102
G1 X84.207 Y97.506 E37.30144
G1 X86.407 Y93.695 E37.4478
G1 X85.098 Y92.939 E37.49808
G1 X92.652 Y79.884 E37.99974
G1 X92.869 Y79.884 E38.00696
G1 X107.8 Y79.899 E38.50356
G1 X107.8 Y81.2 E38.54684
G1 X112.2 Y81.2 E38.69318
G1 X112.2 Y79.903 E38.73632
G1 X127.408 Y79.919 E39.24214
G1 X134.906 Y92.937 E39.7418
G1 X133.593 Y93.695 E39.79223
G1 X135.793 Y97.505 E39.93856
G1 X137.102 Y96.749 E39.98884
G1 X144.755 Y110.035 E40.4988
G1 X137.106 Y123.252 E41.00671
G1 X135.793 Y122.494 E41.05713
G1 X133.593 Y126.305 E41.20349
G1 X134.902 Y127.061 E41.25377
G1 X127.348 Y140.116 E41.75543
G1 X127.131 Y140.116 E41.76265
G1 X112.2 Y140.101 E42.25925
G1 X112.2 Y138.8 E42.30252
G1 X107.8 Y138.8 E42.44887
G1 X107.8 Y140.097 E42.49201
G0 F6000 X107.53 Y139.827
G0 X107.009 Y139.586
G0 X107.01 Y139.307
;TYPE:SKIN
G1 F1200 X93.049 Y139.291 E42.95635
G1 X86.173 Y127.352 E43.41459
G1 X87.486 Y126.594 E43.46502
G1 X84.496 Y121.416 E43.66389
G1 X83.188 Y122.171 E43.71412
G1 X76.157 Y109.964 E44.18266
G1 X83.182 Y97.827 E44.64908
G1 X84.496 Y98.585 E44.69954
G1 X87.486 Y93.406 E44.89844
G1 X86.176 Y92.65 E44.94874
G1 X93.106 Y80.674 E45.40895
G1 X107.01 Y80.689 E45.8714
G1 X107.01 Y81.99 E45.91467
G1 X112.99 Y81.99 E46.11356
G1 X112.99 Y80.693 E46.1567
G1 X126.951 Y80.709 E46.62105
G1 X133.827 Y92.648 E47.07929
G1 X132.514 Y93.406 E47.12971
G1 X135.504 Y98.584 E47.32859
G1 X136.812 Y97.829 E47.37882
G1 X143.843 Y110.036 E47.84736
G1 X136.818 Y122.173 E48.31378
G1 X135.504 Y121.415 E48.36423
G1 X132.514 Y126.594 E48.56313
G1 X133.824 Y127.35 E48.61344
G1 X126.894 Y139.326 E49.07364
G1 X112.99 Y139.311 E49.53609
G1 X112.99 Y138.01 E49.57936
G1 X107.01 Y138.01 E49.77826
G1 X107.01 Y139.307 E49.8214
G0 F6000 X107.009 Y139.586
G0 X93.308 Y139.571
G0 X93.309 Y139.13
G1 F1200 X92.912 Y138.732 E49.84009
G0 F6000 X92.531 Y138.95
G0 X92.926 Y139.505
G0 X93.875 Y139.572
G0 X93.876 Y139.131
G1 F1200 X92.144 Y137.399 E49.92156
G0 F6000 X91.764 Y137.617
G0 X90.995 Y136.283
G0 X91.376 Y136.065
G1 F1200 X94.442 Y139.131 E50.06578
G0 F6000 X95.008 Y139.132
G1 F1200 X90.607 Y134.731 E50.27279
G0 F6000 X90.227 Y134.949
G0 X89.459 Y133.615
G0 X89.84 Y133.397
G1 F1200 X95.575 Y139.133 E50.54257
G0 F6000 X96.141 Y139.133
G1 F1200 X89.072 Y132.064 E50.87507
G0 F6000 X88.691 Y132.282
G0 X87.922 Y130.947
G0 X88.303 Y130.729
G1 F1200 X96.707 Y139.133 E51.27037
G0 F6000 X97.273 Y139.134
G1 F1200 X87.535 Y129.396 E51.72842
G0 F6000 X87.154 Y129.614
G0 X86.385 Y128.28
