;FLAVOR:Marlin
;TIME:6594
;Filament used: 6.9005m
;Layer height: 0.2
;MINX:64.026
;MINY:68.686
;MINZ:0.2
;MAXX:155.974
;MAXY:151.314
;MAXZ:15.2
;Generated with Cura_SteamEngine 4.6.1
M140 S55
M105
M190 S55
M104 S205
M105
M109 S205
M82 ;absolute extrusion mode
M201 X500.00 Y500.00 Z100.00 E5000.00 ;Setup machine max acceleration
M203 X500.00 Y500.00 Z10.00 E50.00 ;Setup machine max feedrate
M204 P500.00 R1000.00 T500.00 ;Setup Print/Retract/Travel acceleration
M205 X8.00 Y8.00 Z0.40 E5.00 ;Setup Jerk
M220 S100 ;Reset Feedrate
M221 S100 ;Reset Flowrate

G28 ;Home

G92 E0 ;Reset Extruder
G1 Z2.0 F3000 ;Move Z Axis up
G1 X10.1 Y20 Z0.28 F5000.0 ;Move to start position
G1 X10.1 Y200.0 Z0.28 F1500.0 E15 ;Draw the first line
G1 X10.4 Y200.0 Z0.28 F5000.0 ;Move to side a little
G1 X10.4 Y20 Z0.28 F1500.0 E30 ;Draw the second line
G92 E0 ;Reset Extruder
G1 Z2.0 F3000 ;Move Z Axis up

G92 E0
G92 E0
G1 F2700 E-5
;LAYER_COUNT:76
;LAYER:0
M107
G0 F6000 X127.58 Y69.494 Z0.2
;TYPE:SKIRT
G1 F2700 E0
G1 F1200 X128.482 Y69.545 E0.03005
G1 X129.375 Y69.675 E0.06006
G1 X130.254 Y69.884 E0.09011
G1 X131.111 Y70.17 E0.12016
G1 X131.939 Y70.53 E0.15019
G1 X132.732 Y70.963 E0.18024
G1 X133.483 Y71.463 E0.21025
G1 X134.187 Y72.029 E0.2403
G1 X134.839 Y72.654 E0.27034
G1 X135.433 Y73.335 E0.30039
G1 X135.964 Y74.065 E0.33042
G1 X136.232 Y74.493 E0.34721
G1 X136.749 Y75.367 E0.38099
G1 X153.519 Y104.349 E1.49467
G1 X153.872 Y104.979 E1.51869
G1 X154.278 Y105.786 E1.54874
G1 X154.612 Y106.625 E1.57877
G1 X154.869 Y107.491 E1.60882
G1 X155.049 Y108.376 E1.63886
G1 X155.151 Y109.273 E1.66888
G1 X155.172 Y110.176 E1.69893
G1 X155.113 Y111.077 E1.72896
G1 X154.975 Y111.97 E1.75901
G1 X154.759 Y112.846 E1.78902
G1 X154.465 Y113.701 E1.81909
G1 X154.098 Y114.525 E1.84909
G1 X153.883 Y114.932 E1.8644
G1 X153.464 Y115.682 E1.89298
G1 X136.641 Y144.886 E3.01394
G1 X136.299 Y145.461 E3.03619
G1 X135.803 Y146.216 E3.06624
G1 X135.243 Y146.924 E3.09626
G1 X134.622 Y147.58 E3.12631
G1 X133.945 Y148.179 E3.15637
G1 X133.219 Y148.715 E3.18639
G1 X132.447 Y149.185 E3.21645
G1 X131.637 Y149.584 E3.24648
G1 X130.795 Y149.911 E3.27652
G1 X129.928 Y150.162 E3.30654
G1 X129.041 Y150.335 E3.3366
G1 X127.964 Y150.438 E3.37258
G1 X127.139 Y150.473 E3.40005
G1 X126.717 Y150.482 E3.41409
G1 X93.08 Y150.514 E4.53286
G1 X92.434 Y150.506 E4.55435
G1 X91.532 Y150.455 E4.5844
G1 X90.638 Y150.324 E4.61445
G1 X89.76 Y150.115 E4.64447
G1 X88.903 Y149.829 E4.67452
G1 X88.075 Y149.468 E4.70456
G1 X87.283 Y149.036 E4.73456
G1 X86.531 Y148.535 E4.76462
G1 X85.827 Y147.969 E4.79466
G1 X85.176 Y147.344 E4.82468
G1 X84.582 Y146.663 E4.85473
G1 X83.865 Y145.639 E4.89631
G1 X83.242 Y144.617 E4.93612
G1 X66.481 Y115.651 E6.0492
G1 X66.128 Y115.021 E6.07322
G1 X65.722 Y114.214 E6.10326
G1 X65.388 Y113.375 E6.1333
G1 X65.131 Y112.509 E6.16334
G1 X64.951 Y111.624 E6.19338
G1 X64.849 Y110.727 E6.22341
G1 X64.828 Y109.824 E6.25345
G1 X64.887 Y108.923 E6.28348
G1 X65.025 Y108.03 E6.31354
G1 X65.241 Y107.154 E6.34354
G1 X65.535 Y106.299 E6.37362
G1 X65.902 Y105.475 E6.40362
G1 X66.114 Y105.074 E6.4187
G1 X66.526 Y104.335 E6.44685
G1 X83.362 Y75.11 E7.56863
G1 X83.714 Y74.518 E7.59154
G1 X84.209 Y73.763 E7.62157
G1 X84.77 Y73.055 E7.65161
G1 X85.39 Y72.399 E7.68163
G1 X86.067 Y71.8 E7.7117
G1 X86.793 Y71.264 E7.74171
G1 X87.564 Y70.794 E7.77174
G1 X88.374 Y70.394 E7.80179
G1 X89.216 Y70.068 E7.83182
G1 X90.084 Y69.817 E7.86187
G1 X90.97 Y69.644 E7.8919
G1 X92.318 Y69.532 E7.93689
G1 X93.283 Y69.518 E7.96899
G1 X126.917 Y69.486 E9.08766
G1 X127.58 Y69.494 E9.10971
G0 F6000 X127.585 Y69.094
G1 F1200 X128.504 Y69.145 E9.14033
G1 X129.415 Y69.275 E9.17093
G1 X130.312 Y69.485 E9.20157
G1 X131.187 Y69.771 E9.23219
G1 X132.034 Y70.132 E9.26281
G1 X132.846 Y70.565 E9.29342
G1 X133.618 Y71.067 E9.32405
G1 X134.343 Y71.634 E9.35466
G1 X135.017 Y72.262 E9.3853
G1 X135.633 Y72.946 E9.41592
G1 X136.187 Y73.681 E9.44653
G1 X136.576 Y74.289 E9.47054
G1 X137.096 Y75.167 E9.50448
G1 X153.868 Y104.154 E10.61834
G1 X154.221 Y104.784 E10.64236
G1 X154.636 Y105.606 E10.67299
G1 X154.978 Y106.46 E10.70359
G1 X155.244 Y107.342 E10.73423
G1 X155.433 Y108.243 E10.76485
G1 X155.543 Y109.157 E10.79546
G1 X155.573 Y110.077 E10.82608
G1 X155.524 Y110.996 E10.85669
G1 X155.394 Y111.908 E10.88733
G1 X155.187 Y112.805 E10.91795
G1 X154.902 Y113.68 E10.94856
G1 X154.542 Y114.528 E10.9792
G1 X154.232 Y115.127 E11.00163
G1 X153.81 Y115.882 E11.0304
G1 X136.984 Y145.091 E12.15155
G1 X136.642 Y145.666 E12.17381
G1 X136.138 Y146.436 E12.20441
G1 X135.568 Y147.159 E12.23504
G1 X134.938 Y147.83 E12.26565
G1 X134.252 Y148.444 E12.29627
G1 X133.516 Y148.997 E12.32689
G1 X132.734 Y149.483 E12.35751
G1 X131.913 Y149.899 E12.38812
G1 X131.059 Y150.243 E12.41875
G1 X130.178 Y150.511 E12.44937
G1 X129.277 Y150.702 E12.48001
G1 X127.981 Y150.837 E12.52335
G1 X127.156 Y150.872 E12.55081
G1 X126.717 Y150.882 E12.56542
G1 X93.075 Y150.914 E13.68435
G1 X92.429 Y150.906 E13.70584
G1 X91.51 Y150.855 E13.73645
G1 X90.598 Y150.724 E13.7671
G1 X89.702 Y150.514 E13.79771
G1 X88.827 Y150.228 E13.82833
G1 X87.98 Y149.866 E13.85896
G1 X87.168 Y149.433 E13.88957
G1 X86.396 Y148.931 E13.9202
G1 X85.671 Y148.363 E13.95083
G1 X84.998 Y147.735 E13.98145
G1 X84.382 Y147.051 E14.01206
G1 X83.828 Y146.316 E14.04267
G1 X83.524 Y145.849 E14.06121
G1 X82.895 Y144.817 E14.1014
G1 X66.132 Y115.846 E15.21466
G1 X65.779 Y115.216 E15.23868
G1 X65.364 Y114.394 E15.2693
G1 X65.022 Y113.54 E15.2999
G1 X64.756 Y112.658 E15.33054
G1 X64.567 Y111.757 E15.36116
G1 X64.457 Y110.843 E15.39178
G1 X64.427 Y109.923 E15.4224
G1 X64.476 Y109.004 E15.45301
G1 X64.606 Y108.092 E15.48365
G1 X64.813 Y107.195 E15.51426
G1 X65.098 Y106.32 E15.54487
G1 X65.458 Y105.472 E15.57551
G1 X65.764 Y104.879 E15.59771
G1 X66.18 Y104.135 E15.62606
G1 X83.018 Y74.906 E16.74799
G1 X83.37 Y74.314 E16.7709
G1 X83.874 Y73.543 E16.80154
G1 X84.444 Y72.82 E16.83216
G1 X85.074 Y72.149 E16.86277
G1 X85.76 Y71.534 E16.89341
G1 X86.496 Y70.982 E16.92401
G1 X87.278 Y70.496 E16.95464
G1 X88.099 Y70.079 E16.98526
G1 X88.953 Y69.735 E17.01588
G1 X89.834 Y69.467 E17.04651
G1 X90.734 Y69.276 E17.07711
G1 X91.648 Y69.164 E17.10774
G1 X92.311 Y69.132 E17.12982
G1 X93.283 Y69.118 E17.16215
G1 X126.922 Y69.086 E18.28099
G1 X127.585 Y69.094 E18.30304
G0 F6000 X127.59 Y68.694
G1 F1200 X128.526 Y68.745 E18.33422
G1 X129.455 Y68.876 E18.36542
G1 X130.369 Y69.085 E18.39661
G1 X131.262 Y69.372 E18.42781
G1 X132.127 Y69.734 E18.45899
G1 X132.959 Y70.168 E18.4902
G1 X133.75 Y70.671 E18.52138
G1 X134.496 Y71.24 E18.55259
G1 X135.19 Y71.87 E18.58376
G1 X135.829 Y72.557 E18.61497
G1 X136.406 Y73.296 E18.64615
G1 X136.92 Y74.085 E18.67747
G1 X137.442 Y74.967 E18.71156
G1 X154.217 Y103.958 E19.82559
G1 X154.57 Y104.588 E19.84961
G1 X154.993 Y105.425 E19.8808
G1 X155.344 Y106.295 E19.912
G1 X155.619 Y107.192 E19.94321
G1 X155.816 Y108.109 E19.9744
G1 X155.935 Y109.039 E20.00559
G1 X155.974 Y109.976 E20.03678
G1 X155.933 Y110.913 E20.06797
G1 X155.813 Y111.843 E20.09916
G1 X155.613 Y112.759 E20.13035
G1 X155.336 Y113.656 E20.16157
G1 X154.984 Y114.525 E20.19276
G1 X154.582 Y115.321 E20.22241
G1 X154.157 Y116.081 E20.25138
G1 X137.328 Y145.295 E21.37273
G1 X136.986 Y145.87 E21.39498
G1 X136.473 Y146.655 E21.42617
G1 X135.894 Y147.393 E21.45737
G1 X135.255 Y148.08 E21.48857
G1 X134.56 Y148.709 E21.51975
G1 X133.814 Y149.277 E21.55094
G1 X133.022 Y149.779 E21.58212
G1 X132.19 Y150.212 E21.61332
G1 X131.324 Y150.573 E21.64453
G1 X130.43 Y150.858 E21.67574
G1 X129.516 Y151.067 E21.70692
G1 X128.587 Y151.196 E21.73811
G1 X127.998 Y151.237 E21.75775
G1 X127.173 Y151.272 E21.78522
G1 X126.718 Y151.282 E21.80035
G1 X93.07 Y151.314 E22.91949
G1 X92.424 Y151.306 E22.94098
G1 X91.487 Y151.255 E22.97219
G1 X90.559 Y151.123 E23.00337
G1 X89.645 Y150.914 E23.03455
G1 X88.752 Y150.627 E23.06575
G1 X87.886 Y150.265 E23.09697
G1 X87.055 Y149.831 E23.12815
G1 X86.264 Y149.327 E23.15934
G1 X85.518 Y148.758 E23.19055
G1 X84.824 Y148.127 E23.22175
G1 X84.186 Y147.44 E23.25293
G1 X83.609 Y146.701 E23.28411
G1 X83.183 Y146.058 E23.30977
G1 X82.549 Y145.018 E23.35028
G1 X65.783 Y116.042 E24.46373
G1 X65.43 Y115.412 E24.48775
G1 X65.007 Y114.575 E24.51894
G1 X64.656 Y113.705 E24.55014
G1 X64.381 Y112.808 E24.58135
G1 X64.184 Y111.891 E24.61254
G1 X64.065 Y110.961 E24.64372
G1 X64.026 Y110.024 E24.67492
G1 X64.067 Y109.087 E24.70611
G1 X64.187 Y108.157 E24.7373
G1 X64.387 Y107.241 E24.76848
G1 X64.664 Y106.344 E24.79971
G1 X65.016 Y105.475 E24.83089
G1 X65.415 Y104.685 E24.86033
G1 X65.833 Y103.935 E24.88889
G1 X82.674 Y74.701 E26.01101
G1 X83.026 Y74.109 E26.03392
G1 X83.539 Y73.324 E26.06511
G1 X84.118 Y72.586 E26.09631
G1 X84.757 Y71.899 E26.12752
G1 X85.452 Y71.27 E26.15869
G1 X86.198 Y70.702 E26.18988
G1 X86.99 Y70.199 E26.22108
G1 X87.822 Y69.766 E26.25228
G1 X88.688 Y69.406 E26.28347
G1 X89.581 Y69.12 E26.31466
G1 X90.496 Y68.912 E26.34587
G1 X91.424 Y68.782 E26.37704
G1 X92.305 Y68.732 E26.40639
G1 X93.282 Y68.718 E26.43888
G1 X126.927 Y68.686 E27.55792
G1 X127.59 Y68.694 E27.57998
G1 F2700 E22.57998
;MESH:TopHatwE.stl
G0 F6000 X124.336 Y85.155
G0 X125.173 Y83.706
G0 X139.943 Y109.998
G0 X125.063 Y136.101
;TYPE:WALL-INNER
G1 F2700 E27.57998
G1 F1200 X125.325 Y135.647 E27.59741
G1 X140.134 Y109.998 E28.58248
G1 X125.063 Y83.896 E29.58496
G1 X94.923 Y83.896 E30.58742
G1 X79.852 Y109.999 E31.58992
G1 X94.923 Y136.101 E32.5924
G1 X125.063 Y136.101 E33.59486
G0 F6000 X124.832 Y135.701
;TYPE:WALL-OUTER
G1 F1200 X124.979 Y135.447 E33.60462
G1 X139.672 Y109.998 E34.582
G1 X124.832 Y84.296 E35.56912
G1 X95.154 Y84.296 E36.55621
G1 X80.314 Y109.999 E37.54335
G1 X95.154 Y135.701 E38.53047
G1 X124.832 Y135.701 E39.51756
G1 F2700 E34.51756
G0 F6000 X125.09 Y135.853
G0 X124.991 Y135.918
G0 X94.812 Y136.294
G0 X95.65 Y134.842
G0 X90.789 Y138.622
G0 X92.047 Y137.893
G0 X92.883 Y139.716
;TYPE:WALL-INNER
G1 F2700 E39.51756
G1 F1200 X75.707 Y110.035 E40.65814
G1 X92.824 Y80.319 E41.79874
G1 X127.117 Y80.284 E42.93933
G1 X144.293 Y109.965 E44.0799
G1 X127.176 Y139.681 E45.2205
G1 X92.883 Y139.716 E46.36109
G0 F6000 X92.652 Y140.116
;TYPE:WALL-OUTER
G1 F1200 X92.638 Y140.091 E46.36205
G1 X75.245 Y110.035 E47.51703
G1 X92.592 Y79.919 E48.67298
G1 X92.623 Y79.919 E48.67401
G1 X127.348 Y79.884 E49.82897
G1 X127.362 Y79.909 E49.82992
G1 X144.755 Y109.965 E50.9849
G1 X144.74 Y109.992 E50.98593
G1 X127.408 Y140.081 E52.14085
G1 X127.377 Y140.081 E52.14188
G1 X92.652 Y140.116 E53.29684
G0 F6000 X92.877 Y139.675
G0 X93.107 Y139.326
;TYPE:SKIN
G1 F1200 X76.157 Y110.036 E54.42239
G1 X93.049 Y80.709 E55.54805
G1 X126.893 Y80.674 E56.6737
G1 X143.843 Y109.964 E57.79926
G1 X126.951 Y139.291 E58.92491
G1 X93.107 Y139.326 E60.05057
G1 F2700 E55.05057
G0 F6000 X92.865 Y139.465
G0 X92.021 Y137.848
G0 X90.763 Y138.577
G0 X95.65 Y134.842
G0 X94.773 Y136.26
G0 X94.852 Y136.211
G0 X94.698 Y136.491
G1 F2700 E60.05057
G1 F1200 X125.288 Y136.491 E61.068
G1 X125.663 Y135.842 E61.09293
G1 X140.584 Y109.998 E62.08548
G1 X125.288 Y83.506 E63.10293
G1 X94.698 Y83.506 E64.12036
G1 X79.402 Y109.999 E65.13784
G1 X94.698 Y136.491 E66.15529
G1 F2700 E61.15529
G0 F6000 X94.852 Y136.211
G0 X94.812 Y136.294
G0 X95.65 Y134.842
G0 X94.817 Y140.978
G0 X94.815 Y139.505
G0 X93.343 Y139.606
G0 X93.343 Y139.164
G1 F2700 E66.15529
G1 F1200 X92.998 Y138.819 E66.17152
G0 F6000 X93.908 Y139.163
G1 F1200 X92.221 Y137.476 E66.25087
G0 F6000 X91.841 Y137.695
G0 X91.064 Y136.352
G0 X91.444 Y136.133
G1 F1200 X94.474 Y139.163 E66.39339
G0 F6000 X95.039 Y139.162
G1 F1200 X90.667 Y134.79 E66.59904
G0 F6000 X90.287 Y135.009
G0 X89.51 Y133.667
G0 X89.89 Y133.448
G1 F1200 X95.604 Y139.162 E66.86781
G0 F6000 X96.169 Y139.161
G1 F1200 X89.113 Y132.105 E67.1997
G0 F6000 X88.733 Y132.324
G0 X87.956 Y130.982
G0 X88.336 Y130.763
G1 F1200 X96.734 Y139.16 E67.59469
G0 F6000 X97.3 Y139.16
G1 F1200 X94.789 Y136.65 E67.71278
G0 F6000 X95.355 Y136.65
G1 F1200 X97.864 Y139.16 E67.83082
G0 F6000 X98.429 Y139.159
G1 F1200 X95.921 Y136.65 E67.94881
G0 F6000 X96.486 Y136.65
G1 F1200 X98.994 Y139.158 E68.06678
G0 F6000 X99.559 Y139.157
G1 F1200 X97.052 Y136.65 E68.1847
G0 F6000 X97.618 Y136.65
G1 F1200 X100.124 Y139.157 E68.3026
G0 F6000 X100.69 Y139.157
G1 F1200 X98.183 Y136.65 E68.42052
G0 F6000 X98.749 Y136.65
G1 F1200 X101.255 Y139.156 E68.53839
G0 F6000 X101.82 Y139.155
G1 F1200 X99.315 Y136.65 E68.65622
G0 F6000 X99.88 Y136.65
G1 F1200 X102.385 Y139.155 E68.77405
G0 F6000 X102.95 Y139.154
G1 F1200 X100.446 Y136.65 E68.89183
G0 F6000 X101.012 Y136.65
G1 F1200 X103.515 Y139.153 E69.00956
G0 F6000 X104.081 Y139.153
G1 F1200 X101.578 Y136.65 E69.1273
G0 F6000 X102.143 Y136.65
G1 F1200 X104.646 Y139.152 E69.24501
G0 F6000 X105.211 Y139.152
G1 F1200 X102.709 Y136.65 E69.36269
G0 F6000 X103.275 Y136.65
G1 F1200 X105.776 Y139.151 E69.48033
G0 F6000 X106.341 Y139.15
G1 F1200 X103.84 Y136.65 E69.59795
G0 F6000 X104.406 Y136.65
G1 F1200 X106.906 Y139.15 E69.71554
G0 F6000 X107.471 Y139.15
G1 F1200 X104.972 Y136.65 E69.83311
G0 F6000 X105.537 Y136.65
G1 F1200 X108.036 Y139.149 E69.95065
G0 F6000 X108.601 Y139.148
G1 F1200 X106.103 Y136.65 E70.06815
G0 F6000 X106.669 Y136.65
G1 F1200 X109.166 Y139.148 E70.18563
G0 F6000 X109.731 Y139.147
G1 F1200 X107.234 Y136.65 E70.30308
G0 F6000 X107.8 Y136.65
G1 F1200 X110.297 Y139.147 E70.42053
G0 F6000 X110.862 Y139.146
G1 F1200 X108.366 Y136.65 E70.53793
G0 F6000 X108.931 Y136.65
G1 F1200 X111.427 Y139.145 E70.65531
G0 F6000 X111.992 Y139.145
G1 F1200 X109.497 Y136.65 E70.77267
G0 F6000 X110.063 Y136.65
G1 F1200 X112.557 Y139.144 E70.88998
G0 F6000 X113.122 Y139.143
G1 F1200 X110.628 Y136.65 E71.00727
G0 F6000 X111.194 Y136.65
G1 F1200 X113.687 Y139.143 E71.12453
G0 F6000 X114.252 Y139.143
G1 F1200 X111.76 Y136.65 E71.24177
G0 F6000 X112.326 Y136.65
G1 F1200 X114.817 Y139.142 E71.35896
G0 F6000 X115.382 Y139.141
G1 F1200 X112.891 Y136.65 E71.47613
G0 F6000 X113.457 Y136.65
G1 F1200 X115.947 Y139.14 E71.59325
G0 F6000 X116.513 Y139.14
G1 F1200 X114.023 Y136.65 E71.71038
G0 F6000 X114.588 Y136.65
G1 F1200 X117.078 Y139.14 E71.8275
G0 F6000 X117.643 Y139.139
G1 F1200 X115.154 Y136.65 E71.94457
G0 F6000 X115.72 Y136.65
G1 F1200 X118.208 Y139.138 E72.0616
G0 F6000 X118.773 Y139.138
G1 F1200 X116.285 Y136.65 E72.17863
G0 F6000 X116.851 Y136.65
G1 F1200 X119.338 Y139.137 E72.29561
G0 F6000 X119.904 Y139.137
G1 F1200 X117.417 Y136.65 E72.41259
G0 F6000 X117.982 Y136.65
G1 F1200 X120.469 Y139.136 E72.52955
G0 F6000 X121.034 Y139.135
G1 F1200 X118.548 Y136.65 E72.64646
G0 F6000 X119.114 Y136.65
G1 F1200 X121.599 Y139.135 E72.76334
G0 F6000 X122.164 Y139.134
G1 F1200 X119.679 Y136.65 E72.88021
G0 F6000 X120.245 Y136.65
G1 F1200 X122.729 Y139.134 E72.99705
G0 F6000 X123.294 Y139.133
G1 F1200 X120.811 Y136.65 E73.11384
G0 F6000 X121.377 Y136.65
G1 F1200 X123.859 Y139.133 E73.23061
G0 F6000 X124.424 Y139.132
G1 F1200 X121.942 Y136.65 E73.34736
G0 F6000 X122.508 Y136.65
G1 F1200 X124.989 Y139.131 E73.46405
G0 F6000 X125.554 Y139.131
G1 F1200 X123.074 Y136.65 E73.58073
G0 F6000 X123.639 Y136.65
G1 F1200 X126.12 Y139.131 E73.69743
G0 F6000 X126.685 Y139.13
G1 F1200 X124.205 Y136.65 E73.81408
G0 F6000 X124.771 Y136.65
G1 F1200 X127.002 Y138.882 E73.91904
G0 F6000 X127.209 Y138.522
G1 F1200 X125.336 Y136.65 E74.00712
G0 F6000 X125.57 Y136.318
G1 F1200 X127.416 Y138.164 E74.09395
G0 F6000 X127.622 Y137.805
G1 F1200 X125.778 Y135.96 E74.18071
G0 F6000 X125.985 Y135.601
G1 F1200 X127.829 Y137.446 E74.26747
G0 F6000 X128.036 Y137.087
G1 F1200 X126.192 Y135.243 E74.3542
G0 F6000 X126.399 Y134.884
G1 F1200 X128.243 Y136.728 E74.44094
G0 F6000 X128.45 Y136.369
G1 F1200 X126.606 Y134.526 E74.52765
G0 F6000 X126.813 Y134.167
G1 F1200 X128.656 Y136.01 E74.61434
G0 F6000 X128.863 Y135.651
G1 F1200 X127.02 Y133.808 E74.70103
G0 F6000 X127.227 Y133.45
G1 F1200 X129.07 Y135.292 E74.7877
G0 F6000 X129.276 Y134.933
G1 F1200 X127.434 Y133.091 E74.87434
G0 F6000 X127.641 Y132.733
G1 F1200 X129.483 Y134.574 E74.96096
G0 F6000 X129.69 Y134.215
G1 F1200 X127.848 Y132.373 E75.0476
G0 F6000 X128.055 Y132.015
