;FLAVOR:Marlin
;TIME:2344
;Filament used: 2.76866m
;Layer height: 0.2
;MINX:80.25
;MINY:75.25
;MINZ:0.2
;MAXX:139.75
;MAXY:144.75
;MAXZ:25.88
;Generated with Cura_SteamEngine 4.6.1
M140 S50
M105
M190 S50
M104 S200
M105
M109 S200
M82 ;absolute extrusion mode
M201 X500.00 Y500.00 Z100.00 E5000.00 ;Setup machine max acceleration
M203 X500.00 Y500.00 Z10.00 E50.00 ;Setup machine max feedrate
M204 P500.00 R1000.00 T500.00 ;Setup Print/Retract/Travel acceleration
M205 X8.00 Y8.00 Z0.40 E5.00 ;Setup Jerk
M220 S100 ;Reset Feedrate
M221 S100 ;Reset Flowrate

G28 ;Home

G92 E0 ;Reset Extruder
G1 Z2.0 F3000 ;Move Z Axis up
G1 X10.1 Y20 Z0.28 F5000.0 ;Move to start position
G1 X10.1 Y200.0 Z0.28 F1500.0 E15 ;Draw the first line
G1 X10.4 Y200.0 Z0.28 F5000.0 ;Move to side a little
G1 X10.4 Y20 Z0.28 F1500.0 E30 ;Draw the second line
G92 E0 ;Reset Extruder
G1 Z2.0 F3000 ;Move Z Axis up

G92 E0
G92 E0
G1 F2700 E-5
;LAYER_COUNT:109
;LAYER:0
M107
G0 F6000 X128.887 Y76.061 Z0.2
;TYPE:SKIRT
G1 F2700 E0
G1 F1200 X129.789 Y76.114 E0.03005
G1 X130.682 Y76.246 E0.06008
G1 X131.56 Y76.457 E0.09011
G1 X132.416 Y76.745 E0.12015
G1 X133.243 Y77.107 E0.15018
G1 X134.035 Y77.542 E0.18023
G1 X134.786 Y78.044 E0.21027
G1 X135.489 Y78.611 E0.24031
G1 X136.139 Y79.238 E0.27035
G1 X136.731 Y79.92 E0.30039
G1 X137.261 Y80.651 E0.33042
G1 X137.723 Y81.427 E0.36046
G1 X138.116 Y82.24 E0.39049
G1 X138.434 Y83.085 E0.42052
G1 X138.677 Y83.955 E0.45056
G1 X138.842 Y84.843 E0.4806
G1 X138.937 Y85.973 E0.51832
G1 X138.95 Y86.58 E0.53851
G1 X138.949 Y133.14 E2.08711
G1 X138.94 Y133.867 E2.11129
G1 X138.889 Y134.769 E2.14134
G1 X138.758 Y135.663 E2.17139
G1 X138.549 Y136.541 E2.20141
G1 X138.263 Y137.398 E2.23146
G1 X137.902 Y138.226 E2.2615
G1 X137.47 Y139.018 E2.29151
G1 X136.969 Y139.77 E2.32156
G1 X136.403 Y140.474 E2.3516
G1 X135.778 Y141.125 E2.38162
G1 X135.097 Y141.719 E2.41168
G1 X134.366 Y142.25 E2.44173
G1 X133.592 Y142.714 E2.47174
G1 X132.779 Y143.108 E2.50179
G1 X131.935 Y143.428 E2.53181
G1 X131.065 Y143.673 E2.56187
G1 X130.178 Y143.839 E2.59189
G1 X129.027 Y143.937 E2.63031
G1 X128.42 Y143.95 E2.6505
G1 X91.825 Y143.949 E3.86766
G1 X91.127 Y143.94 E3.89087
G1 X90.226 Y143.889 E3.92089
G1 X89.332 Y143.757 E3.95095
G1 X88.454 Y143.548 E3.98096
G1 X87.597 Y143.261 E4.01102
G1 X86.77 Y142.9 E4.04104
G1 X85.977 Y142.467 E4.07109
G1 X85.226 Y141.966 E4.10111
G1 X84.522 Y141.4 E4.13116
G1 X83.871 Y140.774 E4.1612
G1 X83.278 Y140.093 E4.19123
G1 X82.748 Y139.362 E4.22126
G1 X82.284 Y138.587 E4.25131
G1 X81.89 Y137.774 E4.28135
G1 X81.57 Y136.93 E4.31138
G1 X81.326 Y136.06 E4.34143
G1 X81.16 Y135.172 E4.37148
G1 X81.063 Y134.017 E4.41003
G1 X81.05 Y133.408 E4.43029
G1 X81.051 Y86.786 E5.98094
G1 X81.06 Y86.121 E6.00306
G1 X81.112 Y85.219 E6.03311
G1 X81.244 Y84.326 E6.06313
G1 X81.454 Y83.448 E6.09316
G1 X81.741 Y82.591 E6.12322
G1 X82.103 Y81.764 E6.15325
G1 X82.536 Y80.972 E6.18327
G1 X83.038 Y80.221 E6.21331
G1 X83.605 Y79.517 E6.24338
G1 X84.231 Y78.867 E6.27339
G1 X84.912 Y78.274 E6.30343
G1 X85.644 Y77.744 E6.33348
G1 X86.419 Y77.281 E6.36351
G1 X87.232 Y76.888 E6.39355
G1 X88.077 Y76.568 E6.4236
G1 X88.946 Y76.325 E6.45361
G1 X89.834 Y76.159 E6.48366
G1 X90.973 Y76.063 E6.52167
G1 X91.58 Y76.05 E6.54187
G1 X128.189 Y76.051 E7.75949
G1 X128.887 Y76.061 E7.78271
G0 F6000 X128.893 Y75.661
G1 F1200 X129.812 Y75.714 E7.81332
G1 X130.723 Y75.847 E7.84394
G1 X131.619 Y76.058 E7.87456
G1 X132.493 Y76.346 E7.90517
G1 X133.34 Y76.709 E7.93582
G1 X134.151 Y77.144 E7.96643
G1 X134.921 Y77.648 E7.99703
G1 X135.645 Y78.217 E8.02766
G1 X136.317 Y78.847 E8.0583
G1 X136.932 Y79.532 E8.08892
G1 X137.485 Y80.268 E8.11954
G1 X137.972 Y81.049 E8.15015
G1 X138.389 Y81.87 E8.18078
G1 X138.734 Y82.724 E8.21141
G1 X139.003 Y83.604 E8.24202
G1 X139.195 Y84.505 E8.27266
G1 X139.308 Y85.418 E8.30325
G1 X139.337 Y85.962 E8.32137
G1 X139.35 Y86.58 E8.34193
G1 X139.349 Y133.145 E9.89069
G1 X139.34 Y133.872 E9.91487
G1 X139.289 Y134.791 E9.94549
G1 X139.158 Y135.703 E9.97613
G1 X138.948 Y136.599 E10.00674
G1 X138.662 Y137.474 E10.03736
G1 X138.301 Y138.321 E10.06798
G1 X137.867 Y139.133 E10.0986
G1 X137.365 Y139.905 E10.12923
G1 X136.797 Y140.63 E10.15986
G1 X136.169 Y141.303 E10.19048
G1 X135.485 Y141.919 E10.2211
G1 X134.75 Y142.473 E10.25171
G1 X133.97 Y142.962 E10.28233
G1 X133.15 Y143.381 E10.31296
G1 X132.297 Y143.727 E10.34357
G1 X131.417 Y143.998 E10.3742
G1 X130.517 Y144.191 E10.40481
G1 X129.603 Y144.306 E10.43545
G1 X129.038 Y144.337 E10.45427
G1 X128.42 Y144.35 E10.47483
G1 X91.82 Y144.349 E11.69215
G1 X91.122 Y144.34 E11.71537
G1 X90.203 Y144.288 E11.74598
G1 X89.292 Y144.157 E11.7766
G1 X88.396 Y143.947 E11.8072
G1 X87.521 Y143.66 E11.83783
G1 X86.674 Y143.298 E11.86847
G1 X85.862 Y142.864 E11.89909
G1 X85.091 Y142.362 E11.92969
G1 X84.366 Y141.794 E11.96032
G1 X83.693 Y141.165 E11.99096
G1 X83.078 Y140.481 E12.02156
G1 X82.524 Y139.746 E12.05217
G1 X82.036 Y138.965 E12.0828
G1 X81.617 Y138.145 E12.11343
G1 X81.271 Y137.292 E12.14404
G1 X81.001 Y136.412 E12.17466
G1 X80.808 Y135.511 E12.20531
G1 X80.694 Y134.598 E12.23591
G1 X80.663 Y134.027 E12.25493
G1 X80.65 Y133.408 E12.27552
G1 X80.651 Y86.781 E13.82634
G1 X80.66 Y86.116 E13.84846
G1 X80.712 Y85.196 E13.87911
G1 X80.844 Y84.285 E13.90972
G1 X81.055 Y83.389 E13.94034
G1 X81.342 Y82.514 E13.97097
G1 X81.705 Y81.668 E14.00159
G1 X82.139 Y80.856 E14.03221
G1 X82.642 Y80.085 E14.06283
G1 X83.211 Y79.361 E14.09346
G1 X83.839 Y78.689 E14.12405
G1 X84.524 Y78.073 E14.15469
G1 X85.26 Y77.52 E14.18531
G1 X86.041 Y77.032 E14.21594
G1 X86.861 Y76.614 E14.24655
G1 X87.715 Y76.269 E14.27718
G1 X88.595 Y75.999 E14.3078
G1 X89.495 Y75.807 E14.33841
G1 X90.409 Y75.693 E14.36904
G1 X90.962 Y75.663 E14.38746
G1 X91.58 Y75.65 E14.40802
G1 X128.195 Y75.651 E15.62584
G1 X128.893 Y75.661 E15.64906
G0 F6000 X128.899 Y75.261
G1 F1200 X129.835 Y75.315 E15.68024
G1 X130.763 Y75.447 E15.71142
G1 X131.677 Y75.659 E15.74263
G1 X132.569 Y75.948 E15.77381
G1 X133.434 Y76.311 E15.80501
G1 X134.264 Y76.747 E15.8362
G1 X135.055 Y77.252 E15.86741
G1 X135.799 Y77.823 E15.8986
G1 X136.492 Y78.455 E15.9298
G1 X137.129 Y79.143 E15.96098
G1 X137.704 Y79.884 E15.99218
G1 X138.215 Y80.67 E16.02336
G1 X138.657 Y81.498 E16.05458
G1 X139.026 Y82.36 E16.08576
G1 X139.321 Y83.25 E16.11695
G1 X139.539 Y84.162 E16.14814
G1 X139.679 Y85.09 E16.17935
G1 X139.737 Y85.951 E16.20805
G1 X139.75 Y86.58 E16.22898
G1 X139.749 Y133.15 E17.7779
G1 X139.74 Y133.877 E17.80209
G1 X139.689 Y134.814 E17.8333
G1 X139.557 Y135.742 E17.86447
G1 X139.348 Y136.656 E17.89566
G1 X139.061 Y137.549 E17.92685
G1 X138.699 Y138.415 E17.95807
G1 X138.265 Y139.246 E17.98925
G1 X137.761 Y140.037 E18.02045
G1 X137.192 Y140.782 E18.05163
G1 X136.561 Y141.477 E18.08285
G1 X135.874 Y142.115 E18.11403
G1 X135.135 Y142.692 E18.14522
G1 X134.349 Y143.204 E18.17642
G1 X133.523 Y143.647 E18.20759
G1 X132.661 Y144.019 E18.23882
G1 X131.772 Y144.315 E18.26998
G1 X130.86 Y144.535 E18.30119
G1 X129.933 Y144.676 E18.33237
G1 X129.049 Y144.737 E18.36184
G1 X128.42 Y144.75 E18.38277
G1 X91.815 Y144.749 E19.60026
G1 X91.117 Y144.74 E19.62347
G1 X90.181 Y144.688 E19.65465
G1 X89.252 Y144.556 E19.68586
G1 X88.338 Y144.346 E19.71705
G1 X87.445 Y144.059 E19.74825
G1 X86.58 Y143.696 E19.77945
G1 X85.749 Y143.262 E19.81063
G1 X84.958 Y142.758 E19.84183
G1 X84.213 Y142.188 E19.87303
G1 X83.519 Y141.557 E19.90423
G1 X82.882 Y140.87 E19.93539
G1 X82.305 Y140.13 E19.9666
G1 X81.793 Y139.344 E19.9978
G1 X81.35 Y138.517 E20.029
G1 X80.979 Y137.656 E20.06018
G1 X80.683 Y136.766 E20.09138
G1 X80.464 Y135.854 E20.12257
G1 X80.323 Y134.927 E20.15376
G1 X80.263 Y134.038 E20.1834
G1 X80.25 Y133.408 E20.20435
G1 X80.251 Y86.775 E21.75537
G1 X80.26 Y86.11 E21.77749
G1 X80.313 Y85.174 E21.80868
G1 X80.445 Y84.245 E21.83989
G1 X80.656 Y83.331 E21.87108
G1 X80.944 Y82.439 E21.90226
G1 X81.307 Y81.574 E21.93346
G1 X81.742 Y80.743 E21.96466
G1 X82.246 Y79.953 E21.99583
G1 X82.816 Y79.208 E22.02703
G1 X83.448 Y78.514 E22.05824
G1 X84.136 Y77.877 E22.08943
G1 X84.876 Y77.301 E22.12062
G1 X85.662 Y76.789 E22.15182
G1 X86.489 Y76.347 E22.18301
G1 X87.351 Y75.977 E22.21421
G1 X88.241 Y75.681 E22.2454
G1 X89.153 Y75.463 E22.27659
G1 X90.08 Y75.322 E22.30778
G1 X90.951 Y75.263 E22.33681
G1 X91.58 Y75.25 E22.35774
G1 X128.201 Y75.251 E23.57576
G1 X128.899 Y75.261 E23.59898
G1 F2700 E18.59898
;MESH:AC.stl
G0 F6000 X128.33 Y85.585
G0 X128.33 Y86.67
G0 X127.968 Y132.968
G0 X91.85 Y133.15
;TYPE:WALL-INNER
G1 F2700 E23.59898
G1 F1200 X91.85 Y86.85 E25.13892
G1 X128.15 Y86.85 E26.34626
G1 X128.15 Y133.15 E27.88621
G1 X91.85 Y133.15 E29.09355
G0 F6000 X91.45 Y133.55
;TYPE:WALL-OUTER
G1 F1200 X91.45 Y86.45 E30.6601
G1 X128.55 Y86.45 E31.89405
G1 X128.55 Y133.55 E33.46061
G1 X91.45 Y133.55 E34.69456
G0 F6000 X91.72 Y133.28
G0 X91.96 Y132.76
G0 X92.24 Y132.76
;TYPE:SKIN
G1 F1200 X92.24 Y87.24 E36.20856
G1 X127.76 Y87.24 E37.38996
G1 X127.76 Y132.76 E38.90396
G1 X92.24 Y132.76 E40.08536
G0 F6000 X93.001 Y132.599
G1 F1200 X92.399 Y131.997 E40.11368
G0 F6000 X92.399 Y131.432
G1 F1200 X93.567 Y132.599 E40.16859
G0 F6000 X94.132 Y132.599
G1 F1200 X92.399 Y130.866 E40.25011
G0 F6000 X92.399 Y130.3
G1 F1200 X94.698 Y132.599 E40.35824
G0 F6000 X95.264 Y132.599
G1 F1200 X92.399 Y129.735 E40.49298
G0 F6000 X92.399 Y129.169
G1 F1200 X95.829 Y132.599 E40.65432
G0 F6000 X96.395 Y132.599
G1 F1200 X92.399 Y128.603 E40.84228
G0 F6000 X92.399 Y128.037
G1 F1200 X96.961 Y132.599 E41.05686
G0 F6000 X97.526 Y132.599
G1 F1200 X92.399 Y127.472 E41.29802
G0 F6000 X92.399 Y126.906
G1 F1200 X98.092 Y132.599 E41.5658
G0 F6000 X98.658 Y132.599
G1 F1200 X92.399 Y126.34 E41.8602
G0 F6000 X92.399 Y125.775
G1 F1200 X99.224 Y132.599 E42.18121
G0 F6000 X99.789 Y132.599
G1 F1200 X92.399 Y125.209 E42.52881
G0 F6000 X92.399 Y124.643
G1 F1200 X100.355 Y132.599 E42.90304
G0 F6000 X100.921 Y132.599
G1 F1200 X92.399 Y124.078 E43.30386
G0 F6000 X92.399 Y123.512
G1 F1200 X101.486 Y132.599 E43.73129
G0 F6000 X102.052 Y132.599
G1 F1200 X92.399 Y122.946 E44.18533
G0 F6000 X92.399 Y122.381
G1 F1200 X102.618 Y132.599 E44.66598
G0 F6000 X103.183 Y132.599
G1 F1200 X92.399 Y121.815 E45.17323
G0 F6000 X92.399 Y121.249
G1 F1200 X103.749 Y132.599 E45.7071
G0 F6000 X104.315 Y132.599
G1 F1200 X92.399 Y120.684 E46.26756
G0 F6000 X92.399 Y120.118
G1 F1200 X104.88 Y132.599 E46.85463
G0 F6000 X105.446 Y132.599
G1 F1200 X92.399 Y119.552 E47.46832
G0 F6000 X92.399 Y118.986
G1 F1200 X106.012 Y132.599 E48.10864
G0 F6000 X106.577 Y132.599
G1 F1200 X92.399 Y118.421 E48.77553
G0 F6000 X92.399 Y117.855
G1 F1200 X107.143 Y132.599 E49.46904
G0 F6000 X107.709 Y132.599
G1 F1200 X92.399 Y117.289 E50.18918
G0 F6000 X92.399 Y116.724
G1 F1200 X108.275 Y132.599 E50.93591
G0 F6000 X108.84 Y132.599
G1 F1200 X92.399 Y116.158 E51.70924
G0 F6000 X92.399 Y115.592
G1 F1200 X109.406 Y132.599 E52.5092
G0 F6000 X109.972 Y132.599
G1 F1200 X92.399 Y115.027 E53.33576
G0 F6000 X92.399 Y114.461
G1 F1200 X110.537 Y132.599 E54.18891
G0 F6000 X111.103 Y132.599
G1 F1200 X92.399 Y113.895 E55.06869
G0 F6000 X92.399 Y113.33
G1 F1200 X111.669 Y132.599 E55.97507
G0 F6000 X112.234 Y132.599
G1 F1200 X92.399 Y112.764 E56.90805
G0 F6000 X92.399 Y112.198
G1 F1200 X112.8 Y132.599 E57.86765
G0 F6000 X113.366 Y132.599
G1 F1200 X92.399 Y111.633 E58.85385
G0 F6000 X92.399 Y111.067
G1 F1200 X113.931 Y132.599 E59.86665
G0 F6000 X114.497 Y132.599
G1 F1200 X92.399 Y110.501 E60.90607
G0 F6000 X92.399 Y109.935
G1 F1200 X115.063 Y132.599 E61.97212
G0 F6000 X115.628 Y132.599
G1 F1200 X92.399 Y109.369 E63.06476
G0 F6000 X92.399 Y108.803
G1 F1200 X116.194 Y132.599 E64.18403
G0 F6000 X116.76 Y132.599
G1 F1200 X92.399 Y108.238 E65.32989
G0 F6000 X92.399 Y107.672
G1 F1200 X117.325 Y132.599 E66.50236
G0 F6000 X117.891 Y132.599
G1 F1200 X92.399 Y107.106 E67.70145
G0 F6000 X92.399 Y106.541
G1 F1200 X118.457 Y132.599 E68.92714
G0 F6000 X119.023 Y132.599
G1 F1200 X92.399 Y105.975 E70.17945
G0 F6000 X92.399 Y105.409
G1 F1200 X119.588 Y132.599 E71.45836
G0 F6000 X120.154 Y132.599
G1 F1200 X92.399 Y104.844 E72.76387
G0 F6000 X92.399 Y104.278
G1 F1200 X120.72 Y132.599 E74.096
G0 F6000 X121.285 Y132.599
G1 F1200 X92.399 Y103.712 E75.45474
G0 F6000 X92.399 Y103.147
G1 F1200 X121.851 Y132.599 E76.84007
G0 F6000 X122.417 Y132.599
G1 F1200 X92.399 Y102.581 E78.25202
G0 F6000 X92.399 Y102.015
G1 F1200 X122.982 Y132.599 E79.69058
G0 F6000 X123.548 Y132.599
G1 F1200 X92.399 Y101.45 E81.15573
G0 F6000 X92.399 Y100.884
G1 F1200 X124.114 Y132.599 E82.64751
G0 F6000 X124.679 Y132.599
G1 F1200 X92.399 Y100.318 E84.16588
G0 F6000 X92.399 Y99.752
G1 F1200 X125.245 Y132.599 E85.71088
G0 F6000 X125.811 Y132.599
G1 F1200 X92.399 Y99.187 E87.28248
G0 F6000 X92.399 Y98.621
G1 F1200 X126.376 Y132.599 E88.88068
G0 F6000 X126.942 Y132.599
G1 F1200 X92.399 Y98.055 E90.5055
G0 F6000 X92.399 Y97.49
G1 F1200 X127.508 Y132.599 E92.15692
G0 F6000 X127.6 Y132.125
G1 F1200 X92.399 Y96.924 E93.81266
G0 F6000 X92.399 Y96.358
G1 F1200 X127.6 Y131.56 E95.46843
G0 F6000 X127.6 Y130.994
G1 F1200 X92.399 Y95.793 E97.12418
G0 F6000 X92.399 Y95.227
G1 F1200 X127.6 Y130.428 E98.77993
G0 F6000 X127.6 Y129.862
G1 F1200 X92.399 Y94.661 E100.43567
G0 F6000 X92.399 Y94.096
G1 F1200 X127.6 Y129.297 E102.09142
G0 F6000 X127.6 Y128.731
G1 F1200 X92.399 Y93.53 E103.74717
G0 F6000 X92.399 Y92.964
G1 F1200 X127.6 Y128.165 E105.40292
G0 F6000 X127.6 Y127.6
G1 F1200 X92.399 Y92.399 E107.05866
G0 F6000 X92.399 Y91.833
G1 F1200 X127.6 Y127.034 E108.71441
G0 F6000 X127.6 Y126.468
G1 F1200 X92.399 Y91.267 E110.37016
G0 F6000 X92.399 Y90.702
G1 F1200 X127.6 Y125.903 E112.0259
G0 F6000 X127.6 Y125.337
G1 F1200 X92.399 Y90.136 E113.68165
G0 F6000 X92.399 Y89.57
G1 F1200 X127.6 Y124.771 E115.3374
G0 F6000 X127.6 Y124.206
G1 F1200 X92.399 Y89.004 E116.99317
G0 F6000 X92.399 Y88.439
G1 F1200 X127.6 Y123.64 E118.64892
G0 F6000 X127.6 Y123.074
G1 F1200 X92.399 Y87.873 E120.30466
G0 F6000 X92.49 Y87.399
G1 F1200 X127.6 Y122.509 E121.95613
G0 F6000 X127.6 Y121.943
G1 F1200 X93.056 Y87.399 E123.58097
G0 F6000 X93.622 Y87.399
G1 F1200 X127.6 Y121.377 E125.17919
G0 F6000 X127.6 Y120.812
G1 F1200 X94.188 Y87.399 E126.75082
G0 F6000 X94.753 Y87.399
G1 F1200 X127.6 Y120.246 E128.29584
G0 F6000 X127.6 Y119.68
G1 F1200 X95.319 Y87.399 E129.81424
G0 F6000 X95.885 Y87.399
G1 F1200 X127.6 Y119.114 E131.30601
G0 F6000 X127.6 Y118.549
G1 F1200 X96.45 Y87.399 E132.77121
G0 F6000 X97.016 Y87.399
G1 F1200 X127.6 Y117.983 E134.20979
G0 F6000 X127.6 Y117.417
G1 F1200 X97.582 Y87.399 E135.62175
G0 F6000 X98.147 Y87.399
G1 F1200 X127.6 Y116.852 E137.00713
G0 F6000 X127.6 Y116.286
G1 F1200 X98.713 Y87.399 E138.36588
G0 F6000 X99.279 Y87.399
G1 F1200 X127.6 Y115.72 E139.69801
G0 F6000 X127.6 Y115.155
G1 F1200 X99.844 Y87.399 E141.00357
G0 F6000 X100.41 Y87.399
G1 F1200 X127.6 Y114.589 E142.28251
G0 F6000 X127.6 Y114.023
G1 F1200 X100.976 Y87.399 E143.53482
G0 F6000 X101.541 Y87.399
G1 F1200 X127.6 Y113.458 E144.76055
G0 F6000 X127.6 Y112.892
G1 F1200 X102.107 Y87.399 E145.95967
G0 F6000 X102.673 Y87.399
G1 F1200 X127.6 Y112.326 E147.13216
G0 F6000 X127.6 Y111.761
G1 F1200 X103.239 Y87.399 E148.27805
G0 F6000 X103.804 Y87.399
G1 F1200 X127.6 Y111.195 E149.39734
G0 F6000 X127.6 Y110.629
G1 F1200 X104.37 Y87.399 E150.49
G0 F6000 X104.936 Y87.399
G1 F1200 X127.6 Y110.063 E151.55605
G0 F6000 X127.599 Y109.497
G1 F1200 X105.501 Y87.399 E152.59547
G0 F6000 X106.067 Y87.399
G1 F1200 X127.599 Y108.931 E153.60827
G0 F6000 X127.599 Y108.366
G1 F1200 X106.633 Y87.399 E154.59447
G0 F6000 X107.198 Y87.399
G1 F1200 X127.599 Y107.8 E155.55407
G0 F6000 X127.599 Y107.234
G1 F1200 X107.764 Y87.399 E156.48705
G0 F6000 X108.33 Y87.399
G1 F1200 X127.599 Y106.669 E157.39343
G0 F6000 X127.599 Y106.103
G1 F1200 X108.895 Y87.399 E158.27321
G0 F6000 X109.461 Y87.399
G1 F1200 X127.599 Y105.537 E159.12636
G0 F6000 X127.599 Y104.972
G1 F1200 X110.027 Y87.399 E159.95292
G0 F6000 X110.592 Y87.399
G1 F1200 X127.599 Y104.406 E160.75288
G0 F6000 X127.599 Y103.84
G1 F1200 X111.158 Y87.399 E161.52621
G0 F6000 X111.724 Y87.399
G1 F1200 X127.599 Y103.275 E162.27294
