;FLAVOR:Marlin
;TIME:4556
;Filament used: 5.26505m
;Layer height: 0.2
;MINX:74.747
;MINY:74.34
;MINZ:0.24
;MAXX:145.661
;MAXY:145.662
;MAXZ:66.45
;Generated with Cura_SteamEngine 4.6.1
M140 S50
M105
M190 S50
M104 S200
M105
M109 S200
M82 ;absolute extrusion mode
M201 X500.00 Y500.00 Z100.00 E5000.00 ;Setup machine max acceleration
M203 X500.00 Y500.00 Z10.00 E50.00 ;Setup machine max feedrate
M204 P500.00 R1000.00 T500.00 ;Setup Print/Retract/Travel acceleration
M205 X8.00 Y8.00 Z0.40 E5.00 ;Setup Jerk
M220 S100 ;Reset Feedrate
M221 S100 ;Reset Flowrate

G28 ;Home

G92 E0 ;Reset Extruder
G1 Z2.0 F3000 ;Move Z Axis up
G1 X10.1 Y20 Z0.28 F5000.0 ;Move to start position
G1 X10.1 Y200.0 Z0.28 F1500.0 E15 ;Draw the first line
G1 X10.4 Y200.0 Z0.28 F5000.0 ;Move to side a little
G1 X10.4 Y20 Z0.28 F1500.0 E30 ;Draw the second line
G92 E0 ;Reset Extruder
G1 Z2.0 F3000 ;Move Z Axis up

G92 E0
G92 E0
G1 F2700 E-5
;LAYER_COUNT:274
;LAYER:-6
M107
G0 F12000 X85.318 Y85.757 Z0.24
;TYPE:SUPPORT-INTERFACE
G1 F2700 E0
G1 F1800 X85.905 Y85.173 E0.0661
G1 X86.628 Y84.492 E0.14538
G1 X87.182 Y83.995 E0.20479
G1 X87.998 Y83.302 E0.29025
G1 X88.558 Y82.85 E0.34769
G1 X89.368 Y82.23 E0.42912
G1 X90.015 Y81.762 E0.49286
G1 X90.804 Y81.218 E0.56936
G1 X91.496 Y80.769 E0.63521
G1 X92.311 Y80.268 E0.71157
G1 X93.005 Y79.867 E0.77555
G1 X93.884 Y79.387 E0.8555
G1 X94.56 Y79.041 E0.91612
G1 X95.427 Y78.623 E0.99295
G1 X96.069 Y78.332 E1.04922
G1 X97.013 Y77.934 E1.13099
G1 X97.72 Y77.656 E1.19163
G1 X98.62 Y77.328 E1.2681
G1 X99.31 Y77.096 E1.32621
G1 X100.236 Y76.81 E1.40357
G1 X100.908 Y76.62 E1.45932
G1 X101.84 Y76.38 E1.53614
G1 X102.549 Y76.216 E1.59423
G1 X103.461 Y76.027 E1.66857
G1 X104.133 Y75.904 E1.72311
G1 X105.051 Y75.759 E1.7973
G1 X105.771 Y75.664 E1.85527
G1 X106.688 Y75.563 E1.92891
G1 X107.35 Y75.505 E1.98195
G1 X108.23 Y75.448 E2.05235
G1 X108.84 Y75.423 E2.10108
G1 X109.701 Y75.405 E2.16982
G1 X110.327 Y75.406 E2.21979
G1 X111.264 Y75.427 E2.29461
G1 X111.998 Y75.461 E2.35326
G1 X112.849 Y75.52 E2.42136
G1 X113.551 Y75.586 E2.47764
G1 X114.508 Y75.699 E2.55456
G1 X115.105 Y75.782 E2.60268
G1 X116.032 Y75.933 E2.67765
G1 X116.727 Y76.063 E2.73409
G1 X117.666 Y76.263 E2.81073
G1 X118.366 Y76.43 E2.86817
G1 X119.295 Y76.676 E2.94488
G1 X119.971 Y76.871 E3.00104
G1 X120.884 Y77.159 E3.07746
G1 X121.542 Y77.385 E3.133
G1 X122.397 Y77.7 E3.20573
G1 X123.072 Y77.967 E3.26368
G1 X124.015 Y78.369 E3.34551
G1 X124.675 Y78.67 E3.40341
G1 X125.581 Y79.11 E3.48381
G1 X126.276 Y79.471 E3.54633
G1 X127.162 Y79.96 E3.62711
G1 X127.825 Y80.347 E3.68839
G1 X128.65 Y80.86 E3.76593
G1 X129.296 Y81.284 E3.82762
G1 X130.18 Y81.9 E3.91362
G1 X130.776 Y82.337 E3.97262
G1 X131.575 Y82.955 E4.05325
G1 X132.196 Y83.464 E4.11734
G1 X132.943 Y84.106 E4.19597
G1 X133.56 Y84.668 E4.26259
G1 X134.243 Y85.318 E4.33785
G1 X134.827 Y85.905 E4.40395
G1 X135.508 Y86.628 E4.48323
G1 X136.005 Y87.182 E4.54264
G1 X136.696 Y87.995 E4.62781
G1 X137.15 Y88.558 E4.68555
G1 X137.77 Y89.368 E4.76697
G1 X138.25 Y90.032 E4.83237
G1 X138.782 Y90.804 E4.90721
G1 X139.203 Y91.45 E4.96876
G1 X139.732 Y92.311 E5.04943
G1 X140.133 Y93.005 E5.11341
G1 X140.614 Y93.884 E5.19339
G1 X140.958 Y94.557 E5.25372
G1 X141.368 Y95.406 E5.32898
G1 X141.668 Y96.069 E5.38707
G1 X142.074 Y97.032 E5.4705
G1 X142.344 Y97.72 E5.52949
G1 X142.672 Y98.62 E5.60596
G1 X142.893 Y99.273 E5.66099
G1 X143.189 Y100.232 E5.7411
G1 X143.375 Y100.887 E5.79545
G1 X143.626 Y101.86 E5.87567
G1 X143.784 Y102.549 E5.93209
G1 X143.968 Y103.436 E6.0044
G1 X144.089 Y104.091 E6.05757
G1 X144.238 Y105.026 E6.13315
G1 X144.336 Y105.771 E6.19313
G1 X144.437 Y106.684 E6.26646
G1 X144.495 Y107.349 E6.31974
G1 X144.549 Y108.18 E6.38622
G1 X144.58 Y108.902 E6.4439
G1 X144.597 Y109.711 E6.50849
G1 X144.596 Y110.39 E6.5627
G1 X144.574 Y111.279 E6.63368
G1 X144.543 Y111.942 E6.68666
G1 X144.48 Y112.845 E6.75892
G1 X144.414 Y113.551 E6.81552
G1 X144.302 Y114.503 E6.89204
G1 X144.218 Y115.105 E6.94056
G1 X144.069 Y116.022 E7.01472
G1 X143.939 Y116.718 E7.07123
G1 X143.744 Y117.636 E7.14615
G1 X143.581 Y118.32 E7.20228
G1 X143.324 Y119.295 E7.28276
G1 X143.137 Y119.944 E7.33668
G1 X142.846 Y120.866 E7.41385
G1 X142.615 Y121.542 E7.47088
G1 X142.304 Y122.39 E7.54298
G1 X142.033 Y123.072 E7.60156
G1 X141.631 Y124.015 E7.68339
G1 X141.33 Y124.675 E7.74129
G1 X140.895 Y125.572 E7.82087
G1 X140.541 Y126.254 E7.88221
G1 X140.079 Y127.093 E7.95866
G1 X139.653 Y127.825 E8.02627
G1 X139.146 Y128.641 E8.10295
G1 X138.721 Y129.288 E8.16475
G1 X138.112 Y130.164 E8.24991
G1 X137.665 Y130.774 E8.31028
G1 X137.046 Y131.574 E8.39102
G1 X136.536 Y132.196 E8.45523
G1 X135.894 Y132.943 E8.53385
G1 X135.363 Y133.527 E8.59686
G1 X134.674 Y134.25 E8.67658
G1 X134.109 Y134.811 E8.74014
G1 X133.372 Y135.508 E8.82111
G1 X132.818 Y136.005 E8.88052
G1 X132.012 Y136.69 E8.96496
G1 X131.442 Y137.15 E9.02342
G1 X130.637 Y137.767 E9.10439
G1 X129.985 Y138.238 E9.16859
G1 X129.196 Y138.782 E9.24509
G1 X128.521 Y139.22 E9.30932
G1 X127.685 Y139.734 E9.38766
G1 X126.995 Y140.133 E9.45129
G1 X126.128 Y140.607 E9.53016
G1 X125.438 Y140.96 E9.59203
G1 X124.573 Y141.377 E9.66868
G1 X123.931 Y141.668 E9.72495
G1 X122.991 Y142.064 E9.80637
G1 X122.283 Y142.343 E9.86711
G1 X121.38 Y142.672 E9.94383
G1 X120.69 Y142.904 E10.00194
G1 X119.764 Y143.19 E10.0793
G1 X119.092 Y143.38 E10.13505
G1 X118.16 Y143.62 E10.21187
G1 X117.451 Y143.784 E10.26996
G1 X116.539 Y143.973 E10.34431
G1 X115.867 Y144.096 E10.39884
G1 X114.949 Y144.241 E10.47303
G1 X114.229 Y144.336 E10.531
G1 X113.312 Y144.437 E10.60464
G1 X112.65 Y144.495 E10.65769
G1 X111.799 Y144.55 E10.72576
G1 X111.125 Y144.579 E10.77961
G1 X110.24 Y144.597 E10.85027
G1 X109.59 Y144.596 E10.90216
G1 X108.719 Y144.574 E10.9717
G1 X108.047 Y144.542 E11.02541
G1 X107.151 Y144.48 E11.0971
G1 X106.449 Y144.414 E11.15338
G1 X105.492 Y144.301 E11.23031
G1 X104.889 Y144.217 E11.27891
G1 X103.968 Y144.067 E11.35339
G1 X103.273 Y143.937 E11.40983
G1 X102.334 Y143.737 E11.48647
G1 X101.634 Y143.57 E11.54391
G1 X100.705 Y143.324 E11.62063
G1 X100.029 Y143.129 E11.67679
G1 X99.116 Y142.841 E11.75321
G1 X98.458 Y142.614 E11.80877
G1 X97.598 Y142.298 E11.88191
G1 X96.888 Y142.016 E11.94289
G1 X95.976 Y141.627 E12.02203
G1 X95.325 Y141.33 E12.07915
G1 X94.419 Y140.89 E12.15955
G1 X93.725 Y140.53 E12.22196
G1 X92.836 Y140.038 E12.30307
G1 X92.175 Y139.652 E12.36417
G1 X91.35 Y139.14 E12.44167
G1 X90.704 Y138.716 E12.50336
G1 X89.82 Y138.1 E12.58936
G1 X89.224 Y137.663 E12.64836
G1 X88.43 Y137.049 E12.72848
G1 X87.8 Y136.532 E12.79353
G1 X87.034 Y135.873 E12.87419
G1 X86.44 Y135.332 E12.93833
G1 X85.75 Y134.675 E13.01438
G1 X85.173 Y134.095 E13.07968
G1 X84.492 Y133.372 E13.15897
G1 X83.981 Y132.802 E13.22008
G1 X83.302 Y132.002 E13.30384
G1 X82.843 Y131.434 E13.36213
G1 X82.205 Y130.599 E13.44601
G1 X81.75 Y129.968 E13.50811
G1 X81.212 Y129.187 E13.58381
G1 X80.77 Y128.506 E13.64862
G1 X80.244 Y127.648 E13.72895
G1 X79.864 Y126.99 E13.78961
G1 X79.384 Y126.111 E13.86955
G1 X79.04 Y125.438 E13.92989
G1 X78.628 Y124.585 E14.0055
G1 X78.328 Y123.922 E14.06359
G1 X77.925 Y122.966 E14.14641
G1 X77.655 Y122.277 E14.20548
G1 X77.328 Y121.38 E14.28169
G1 X77.086 Y120.661 E14.34225
G1 X76.81 Y119.764 E14.41716
G1 X76.613 Y119.067 E14.47498
G1 X76.375 Y118.141 E14.5513
G1 X76.215 Y117.446 E14.60823
G1 X76.027 Y116.542 E14.68194
G1 X75.9 Y115.841 E14.7388
G1 X75.759 Y114.954 E14.8105
G1 X75.663 Y114.224 E14.86927
G1 X75.566 Y113.35 E14.93946
G1 X75.504 Y112.639 E14.99644
G1 X75.441 Y111.582 E15.08096
G1 X75.422 Y111.119 E15.11795
G1 X75.404 Y110.343 E15.17991
G1 X75.404 Y109.655 E15.23483
G1 X75.426 Y108.734 E15.30837
G1 X75.458 Y108.05 E15.36303
G1 X75.52 Y107.155 E15.43464
G1 X75.586 Y106.449 E15.49124
G1 X75.698 Y105.497 E15.56776
G1 X75.782 Y104.895 E15.61628
G1 X75.931 Y103.978 E15.69044
G1 X76.061 Y103.282 E15.74696
G1 X76.257 Y102.36 E15.8222
G1 X76.419 Y101.68 E15.878
G1 X76.682 Y100.683 E15.96031
G1 X76.862 Y100.057 E16.0123
G1 X77.154 Y99.134 E16.08958
G1 X77.385 Y98.458 E16.1466
G1 X77.7 Y97.603 E16.21934
G1 X77.967 Y96.928 E16.27728
G1 X78.369 Y95.985 E16.35911
G1 X78.67 Y95.325 E16.41701
G1 X79.11 Y94.419 E16.49741
G1 X79.459 Y93.746 E16.55793
G1 X79.96 Y92.838 E16.64071
G1 X80.347 Y92.175 E16.70199
G1 X80.854 Y91.359 E16.77868
G1 X81.279 Y90.712 E16.84047
G1 X81.914 Y89.798 E16.92931
G1 X82.335 Y89.226 E16.986
G1 X82.955 Y88.425 E17.06686
G1 X83.464 Y87.804 E17.13095
G1 X84.106 Y87.057 E17.20957
G1 X84.668 Y86.44 E17.2762
G1 X85.318 Y85.757 E17.35146
G0 F12000 X84.8 Y86.301
G1 F1800 X84.8 Y133.698 E21.13489
G0 F12000 X86.4 Y135.293
G1 F1800 X86.4 Y84.706 E25.17296
G0 F12000 X88 Y83.3
G1 F1800 X88 Y136.696 E29.43526
G0 F12000 X89.6 Y137.938
G1 F1800 X89.6 Y82.062 E33.89553
G0 F12000 X91.2 Y80.961
G1 F1800 X91.2 Y139.041 E38.53173
G0 F12000 X92.8 Y140.016
G1 F1800 X92.8 Y79.985 E43.32366
G0 F12000 X94.4 Y79.122
G1 F1800 X94.4 Y140.88 E48.25345
G0 F12000 X96 Y141.637
G1 F1800 X96 Y78.363 E53.30425
G0 F12000 X97.6 Y77.703
G1 F1800 X97.6 Y142.298 E58.46051
G0 F12000 X99.2 Y142.867
G1 F1800 X99.2 Y77.132 E63.70776
G0 F12000 X100.8 Y76.65
G1 F1800 X100.8 Y143.349 E69.03196
G0 F12000 X102.4 Y143.751
G1 F1800 X102.4 Y76.25 E74.42018
G0 F12000 X104 Y75.928
G1 F1800 X104 Y144.072 E79.85973
G0 F12000 X105.6 Y144.313
G1 F1800 X105.6 Y75.686 E85.33784
G0 F12000 X107.2 Y75.518
G1 F1800 X107.2 Y144.483 E90.84292
G0 F12000 X108.8 Y144.576
G1 F1800 X108.8 Y75.424 E96.36293
G0 F12000 X110.4 Y75.408
G1 F1800 X110.4 Y144.594 E101.88566
G0 F12000 X112 Y144.538
G1 F1800 X112 Y75.462 E107.3996
G0 F12000 X113.6 Y75.592
G1 F1800 X113.6 Y144.406 E112.89263
G0 F12000 X115.2 Y144.202
G1 F1800 X115.2 Y75.798 E118.35294
G0 F12000 X116.8 Y76.079
G1 F1800 X116.8 Y143.919 E123.76822
G0 F12000 X118.4 Y143.559
G1 F1800 X118.4 Y76.44 E129.12595
G0 F12000 X120 Y76.881
G1 F1800 X120 Y143.118 E134.41327
G0 F12000 X121.6 Y142.592
G1 F1800 X121.6 Y77.407 E139.61662
G0 F12000 X123.2 Y78.022
G1 F1800 X123.2 Y141.976 E144.7217
G0 F12000 X124.8 Y141.268
G1 F1800 X124.8 Y78.731 E149.71368
G0 F12000 X126.4 Y79.54
G1 F1800 X126.4 Y140.459 E154.5765
G0 F12000 X128 Y139.541
G1 F1800 X128 Y80.456 E159.29292
G0 F12000 X129.6 Y81.496
G1 F1800 X129.6 Y138.504 E163.84354
G0 F12000 X131.2 Y137.336
G1 F1800 X131.2 Y82.665 E168.20762
G0 F12000 X132.8 Y83.984
G1 F1800 X132.8 Y136.021 E172.36144
G0 F12000 X134.4 Y134.523
G1 F1800 X134.4 Y85.476 E176.27658
G0 F12000 X136 Y87.177
G1 F1800 X136 Y132.82 E179.92
G0 F12000 X137.6 Y130.859
G1 F1800 X137.6 Y89.146 E183.24971
G0 F12000 X139.2 Y91.446
G1 F1800 X139.2 Y128.555 E186.21191
G0 F12000 X140.8 Y125.756
G1 F1800 X140.8 Y94.248 E188.72702
G0 F12000 X142.4 Y97.874
G1 F1800 X142.4 Y122.129 E190.66316
G1 F2700 E185.66316
G0 F12000 X143.613 Y121.909
G0 X144.301 Y119.722
G0 X144.982 Y116.93
G0 X144 Y116.392
G1 F2700 E190.66316
G1 F1800 X144 Y103.61 E191.68347
G1 F2700 E186.68347
G0 F12000 X145.012 Y103.228
G0 X144.401 Y100.604
G0 X143.651 Y98.194
G0 X142.645 Y95.646
G0 X141.493 Y93.27
G0 X140.105 Y90.886
G0 X138.627 Y88.737
G0 X136.811 Y86.486
G0 X134.99 Y84.561
G0 X132.81 Y82.59
G0 X130.74 Y80.992
G0 X128.285 Y79.383
G0 X126.053 Y78.156
G0 X123.482 Y76.985
G0 X121.17 Y76.133
G0 X118.553 Y75.38
G0 X116.21 Y74.883
G0 X112.93 Y74.459
G0 X109.692 Y74.34
G0 X106.469 Y74.515
G0 X103.253 Y74.983
G0 X100.578 Y75.606
G0 X98.194 Y76.349
G0 X95.646 Y77.355
G0 X93.29 Y78.496
G0 X90.866 Y79.907
G0 X88.737 Y81.373
G0 X86.486 Y83.189
G0 X84.561 Y85.01
G0 X82.59 Y87.19
G0 X83.2 Y88.126
G1 F2700 E191.68347
G1 F1800 X83.2 Y131.875 E195.17571
G0 F12000 X81.6 Y129.75
G1 F1800 X81.6 Y90.249 E198.32885
G0 F12000 X80 Y92.769
G1 F1800 X80 Y127.225 E201.07927
G0 F12000 X78.4 Y124.081
G1 F1800 X78.4 Y95.917 E203.32745
G1 F2700 E198.32745
G0 F12000 X77.382 Y95.586
G0 X76.557 Y97.666
G0 X75.845 Y99.745
G0 X76.8 Y100.272
G1 F2700 E203.32745
G1 F1800 X76.8 Y119.728 E204.88051
G1 F2700 E199.88051
G0 F300 X76.8 Y119.728 Z0.54
G0 F12000 X75.811 Y120.14
G0 X76.684 Y122.719
G0 X77.664 Y125.037
G0 X79 Y127.624
G0 X79.376 Y128.235
G0 X80.874 Y130.571
G0 X81.75 Y129.967
;TIME_ELAPSED:99.375227
;LAYER:-5
M140 S50
;TYPE:SUPPORT
G1 F2700 E204.88051
G1 F1800 X82.205 Y130.598 E204.95813
G1 X82.842 Y131.433 E205.06292
G1 X83.301 Y132.001 E205.13579
G1 X83.98 Y132.801 E205.24049
G1 X84.492 Y133.371 E205.31694
G1 X85.172 Y134.094 E205.41598
G1 X85.75 Y134.674 E205.49768
G1 X86.44 Y135.331 E205.59275
G1 X87.034 Y135.872 E205.67291
G1 X87.8 Y136.531 E205.77374
G1 X88.43 Y137.047 E205.855
G1 X89.224 Y137.662 E205.95521
G1 X89.819 Y138.099 E206.02887
G1 X90.466 Y138.549 E206.10751
G1 X81.452 Y129.535 E207.37948
G1 X81.211 Y129.186 E207.4218
G1 X80.769 Y128.505 E207.50281
G1 X80.243 Y127.646 E207.60331
G1 X79.863 Y126.989 E207.67904
G1 X79.384 Y126.109 E207.77901
G1 X79.324 Y125.993 E207.79204
G1 X94.005 Y140.674 E209.86369
G1 X94.419 Y140.888 E209.91019
G1 X95.325 Y141.329 E210.01074
G1 X95.975 Y141.626 E210.08204
G1 X96.665 Y141.92 E210.15688
G1 X78.081 Y123.336 E212.77928
G1 X77.925 Y122.965 E212.81944
G1 X77.655 Y122.276 E212.89328
G1 X77.327 Y121.379 E212.98858
G1 X77.22 Y121.06 E213.02215
G1 X98.938 Y142.779 E216.08687
G1 X99.115 Y142.84 E216.10555
G1 X100.028 Y143.128 E216.20107
G1 X100.704 Y143.323 E216.27127
G1 X100.965 Y143.392 E216.29821
G1 X76.602 Y119.029 E219.73609
G1 X76.374 Y118.14 E219.82767
G1 X76.215 Y117.445 E219.89881
G1 X76.157 Y117.169 E219.92695
G1 X102.828 Y143.841 E223.69059
G1 X103.272 Y143.935 E223.73587
G1 X103.968 Y144.066 E223.80654
G1 X104.565 Y144.163 E223.86689
G1 X75.835 Y115.433 E227.921
G1 X75.758 Y114.953 E227.96951
G1 X75.663 Y114.223 E228.04296
G1 X75.615 Y113.799 E228.08554
G1 X106.199 Y144.383 E232.40127
G1 X106.448 Y144.413 E232.4263
G1 X107.15 Y144.478 E232.49664
G1 X107.75 Y144.519 E232.55665
G1 X75.48 Y112.25 E237.11022
G1 X75.441 Y111.581 E237.17709
G1 X75.422 Y111.118 E237.22333
G1 X75.413 Y110.768 E237.25826
G1 X109.23 Y144.585 E242.03021
G1 X109.59 Y144.594 E242.06614
G1 X110.239 Y144.596 E242.1309
G1 X110.646 Y144.587 E242.17152
G1 X75.41 Y109.351 E247.1437
G1 X75.425 Y108.733 E247.20538
G1 X75.457 Y108.049 E247.2737
G1 X75.461 Y107.987 E247.2799
G1 X112.008 Y144.535 E252.43715
G1 X112.649 Y144.493 E252.50125
G1 X113.312 Y144.436 E252.56765
G1 X113.322 Y144.435 E252.56865
G1 X75.564 Y106.676 E257.89678
G1 X75.586 Y106.448 E257.91964
G1 X75.697 Y105.496 E258.01527
G1 X75.709 Y105.408 E258.02413
G1 X114.589 Y144.287 E263.51045
G1 X114.949 Y144.24 E263.54668
G1 X115.817 Y144.101 E263.63439
G1 X75.897 Y104.181 E269.26753
G1 X75.93 Y103.977 E269.28815
G1 X76.06 Y103.281 E269.3588
G1 X76.122 Y102.992 E269.38829
G1 X117.004 Y143.875 E275.15725
G1 X117.451 Y143.783 E275.20279
G1 X118.16 Y143.619 E275.2754
G0 F12000 X118.162 Y143.618
G1 F1800 X76.38 Y101.836 E281.1713
G1 X76.419 Y101.679 E281.18744
G1 X76.672 Y100.713 E281.28708
G1 X119.283 Y143.324 E287.29995
G1 X119.764 Y143.189 E287.3498
G1 X120.373 Y143.001 E287.41339
G1 X76.997 Y99.624 E293.53429
G1 X77.153 Y99.133 E293.58569
G1 X77.348 Y98.562 E293.6459
G1 X121.436 Y142.649 E299.86712
G1 X122.282 Y142.342 E299.95692
G1 X122.469 Y142.268 E299.97699
G1 X77.728 Y97.527 E306.29042
G1 X77.967 Y96.927 E306.35487
G1 X78.138 Y96.523 E306.39864
G1 X123.474 Y141.859 E312.79604
G1 X123.931 Y141.666 E312.84554
G1 X124.457 Y141.428 E312.90315
G1 X78.57 Y95.541 E319.3783
G1 X78.67 Y95.324 E319.40214
G1 X79.028 Y94.584 E319.48416
G1 X125.413 Y140.97 E326.02966
G1 X125.437 Y140.958 E326.03234
G1 X126.128 Y140.606 E326.10971
G1 X126.345 Y140.487 E326.13441
G1 X79.509 Y93.652 E332.7434
G1 X79.959 Y92.837 E332.8363
G1 X80.014 Y92.742 E332.84725
G1 X127.253 Y139.981 E339.51318
G1 X127.685 Y139.732 E339.56294
G1 X128.139 Y139.453 E339.61611
G1 X80.542 Y91.856 E346.33256
G1 X80.853 Y91.358 E346.39114
G1 X81.093 Y90.992 E346.43481
G1 X129.005 Y138.904 E353.19571
G1 X129.196 Y138.781 E353.21838
G1 X129.846 Y138.332 E353.29721
G1 X81.666 Y90.151 E360.096
G1 X81.914 Y89.796 E360.13921
G1 X82.257 Y89.328 E360.1971
G1 X130.669 Y137.74 E367.02856
G1 X131.441 Y137.149 E367.12557
