;FLAVOR:Marlin
;TIME:3830
;Filament used: 3.75233m
;Layer height: 0.2
;MINX:66.25
;MINY:90.2
;MINZ:0.2
;MAXX:153.75
;MAXY:129.8
;MAXZ:39.96
;Generated with Cura_SteamEngine 4.6.1
M140 S50
M105
M190 S50
M104 S200
M105
M109 S200
M82 ;absolute extrusion mode
M201 X500.00 Y500.00 Z100.00 E5000.00 ;Setup machine max acceleration
M203 X500.00 Y500.00 Z10.00 E50.00 ;Setup machine max feedrate
M204 P500.00 R1000.00 T500.00 ;Setup Print/Retract/Travel acceleration
M205 X8.00 Y8.00 Z0.40 E5.00 ;Setup Jerk
M220 S100 ;Reset Feedrate
M221 S100 ;Reset Flowrate

G28 ;Home

G92 E0 ;Reset Extruder
G1 Z2.0 F3000 ;Move Z Axis up
G1 X10.1 Y20 Z0.28 F5000.0 ;Move to start position
G1 X10.1 Y200.0 Z0.28 F1500.0 E15 ;Draw the first line
G1 X10.4 Y200.0 Z0.28 F5000.0 ;Move to side a little
G1 X10.4 Y20 Z0.28 F1500.0 E30 ;Draw the second line
G92 E0 ;Reset Extruder
G1 Z2.0 F3000 ;Move Z Axis up

G92 E0
G92 E0
G1 F2700 E-5
;LAYER_COUNT:199
;LAYER:0
M107
G0 F6000 X89.484 Y97.001 Z0.2
;TYPE:SKIRT
G1 F2700 E0
G1 F1200 X112.757 Y96.998 E0.77406
G1 X114.743 Y96.986 E0.84012
G1 X123.738 Y96.985 E1.13929
G1 X124.253 Y96.991 E1.15642
G1 X125.244 Y97.051 E1.18945
G1 X128.311 Y97.387 E1.29206
G1 X130.866 Y97.595 E1.37733
G1 X133.352 Y97.728 E1.46013
G1 X137.011 Y97.8 E1.58185
G1 X142.189 Y97.801 E1.75407
G1 X142.887 Y97.811 E1.77729
G1 X143.789 Y97.864 E1.80734
G1 X144.682 Y97.996 E1.83737
G1 X145.56 Y98.207 E1.8674
G1 X146.416 Y98.495 E1.89744
G1 X147.243 Y98.857 E1.92746
G1 X148.035 Y99.292 E1.95752
G1 X148.786 Y99.794 E1.98756
G1 X149.489 Y100.361 E2.0176
G1 X150.139 Y100.988 E2.04764
G1 X150.731 Y101.67 E2.07768
G1 X151.261 Y102.401 E2.10771
G1 X151.723 Y103.177 E2.13775
G1 X152.116 Y103.99 E2.16778
G1 X152.434 Y104.835 E2.19781
G1 X152.677 Y105.705 E2.22785
G1 X152.842 Y106.593 E2.25789
G1 X152.937 Y107.723 E2.29561
G1 X152.95 Y108.33 E2.3158
G1 X152.949 Y109.39 E2.35106
G1 X152.94 Y110.117 E2.37524
G1 X152.889 Y111.019 E2.40529
G1 X152.758 Y111.913 E2.43534
G1 X152.549 Y112.791 E2.46536
G1 X152.263 Y113.648 E2.49541
G1 X151.902 Y114.476 E2.52545
G1 X151.47 Y115.268 E2.55546
G1 X150.969 Y116.02 E2.58551
G1 X150.403 Y116.724 E2.61556
G1 X149.778 Y117.375 E2.64557
G1 X149.097 Y117.969 E2.67563
G1 X148.366 Y118.5 E2.70568
G1 X147.592 Y118.964 E2.73569
G1 X146.779 Y119.358 E2.76574
G1 X145.935 Y119.678 E2.79576
G1 X145.065 Y119.923 E2.82583
G1 X144.178 Y120.089 E2.85584
G1 X143.472 Y120.165 E2.87946
G1 X140.738 Y120.362 E2.97063
G1 X138.217 Y120.615 E3.0549
G1 X135.699 Y120.941 E3.13934
G1 X133.162 Y121.342 E3.22477
G1 X130.678 Y121.807 E3.30883
G1 X128.246 Y122.334 E3.39159
G1 X127.577 Y122.497 E3.41449
G1 X126.58 Y122.728 E3.44853
G1 X125.692 Y122.892 E3.47857
G1 X124.541 Y122.988 E3.51698
G1 X123.455 Y123.014 E3.55311
G1 X122.211 Y123.022 E3.59449
G1 X121.302 Y123.021 E3.62472
G1 X79.164 Y123.023 E5.02624
G1 X77.676 Y123.01 E5.07573
G1 X77.043 Y122.996 E5.09679
G1 X76.142 Y122.936 E5.12682
G1 X75.25 Y122.796 E5.15686
G1 X74.374 Y122.578 E5.18688
G1 X73.52 Y122.284 E5.21692
G1 X72.695 Y121.915 E5.24698
G1 X71.907 Y121.475 E5.277
G1 X71.16 Y120.967 E5.30704
G1 X70.462 Y120.394 E5.33708
G1 X69.817 Y119.762 E5.36711
G1 X69.23 Y119.076 E5.39714
G1 X68.706 Y118.34 E5.42719
G1 X68.249 Y117.561 E5.45723
G1 X67.863 Y116.745 E5.48726
G1 X67.551 Y115.897 E5.51731
G1 X67.315 Y115.025 E5.54736
G1 X67.157 Y114.136 E5.57739
G1 X67.072 Y113.025 E5.61445
G1 X67.05 Y111.945 E5.65038
G1 X67.051 Y107.719 E5.79093
G1 X67.061 Y107.052 E5.81312
G1 X67.115 Y106.151 E5.84314
G1 X67.248 Y105.257 E5.8732
G1 X67.459 Y104.379 E5.90324
G1 X67.748 Y103.524 E5.93326
G1 X68.11 Y102.697 E5.96328
G1 X68.545 Y101.905 E5.99333
G1 X69.048 Y101.155 E6.02337
G1 X69.615 Y100.452 E6.05341
G1 X70.243 Y99.802 E6.08347
G1 X70.925 Y99.211 E6.11349
G1 X71.657 Y98.682 E6.14352
G1 X72.433 Y98.22 E6.17356
G1 X73.247 Y97.828 E6.20361
G1 X74.092 Y97.51 E6.23364
G1 X74.962 Y97.267 E6.26369
G1 X75.85 Y97.103 E6.29372
G1 X76.981 Y97.009 E6.33147
G1 X77.888 Y96.986 E6.36164
G1 X78.263 Y96.984 E6.37412
G1 X86.924 Y96.986 E6.66218
G1 X89.484 Y97.001 E6.74733
G0 F6000 X89.487 Y96.601
G1 F1200 X112.755 Y96.598 E7.52123
G1 X114.743 Y96.586 E7.58735
G1 X123.742 Y96.585 E7.88666
G1 X124.257 Y96.591 E7.90379
G1 X125.287 Y96.653 E7.93811
G1 X128.35 Y96.988 E8.04059
G1 X130.882 Y97.195 E8.12509
G1 X133.382 Y97.329 E8.20836
G1 X137.019 Y97.4 E8.32935
G1 X142.195 Y97.401 E8.5015
G1 X142.893 Y97.411 E8.52472
G1 X143.812 Y97.464 E8.55533
G1 X144.723 Y97.597 E8.58596
G1 X145.619 Y97.808 E8.61657
G1 X146.493 Y98.096 E8.64718
G1 X147.34 Y98.459 E8.67783
G1 X148.151 Y98.894 E8.70844
G1 X148.921 Y99.398 E8.73905
G1 X149.645 Y99.967 E8.76967
G1 X150.317 Y100.597 E8.80031
G1 X150.932 Y101.282 E8.83093
G1 X151.485 Y102.018 E8.86155
G1 X151.972 Y102.799 E8.89216
G1 X152.389 Y103.62 E8.92279
G1 X152.734 Y104.474 E8.95342
G1 X153.003 Y105.354 E8.98403
G1 X153.195 Y106.255 E9.01467
G1 X153.308 Y107.168 E9.04527
G1 X153.337 Y107.712 E9.06339
G1 X153.35 Y108.33 E9.08394
G1 X153.349 Y109.395 E9.11937
G1 X153.34 Y110.122 E9.14355
G1 X153.289 Y111.041 E9.17416
G1 X153.158 Y111.953 E9.20481
G1 X152.948 Y112.849 E9.23542
G1 X152.662 Y113.724 E9.26603
G1 X152.301 Y114.571 E9.29666
G1 X151.867 Y115.383 E9.32728
G1 X151.365 Y116.155 E9.35791
G1 X150.797 Y116.88 E9.38854
G1 X150.169 Y117.553 E9.41916
G1 X149.485 Y118.169 E9.44977
G1 X148.75 Y118.723 E9.48038
G1 X147.97 Y119.212 E9.511
G1 X147.15 Y119.631 E9.54163
G1 X146.297 Y119.977 E9.57225
G1 X145.417 Y120.248 E9.60287
G1 X144.517 Y120.441 E9.63349
G1 X143.501 Y120.564 E9.66753
G1 X140.771 Y120.76 E9.75856
G1 X138.237 Y121.015 E9.84327
G1 X135.775 Y121.334 E9.92584
G1 X133.226 Y121.737 E10.01167
G1 X130.771 Y122.196 E10.09474
G1 X128.311 Y122.73 E10.17847
G1 X127.668 Y122.886 E10.20047
G1 X126.671 Y123.117 E10.23451
G1 X125.766 Y123.286 E10.26513
G1 X124.551 Y123.387 E10.30568
G1 X123.458 Y123.414 E10.34205
G1 X122.21 Y123.422 E10.38356
G1 X121.302 Y123.421 E10.41376
G1 X79.16 Y123.423 E11.8154
G1 X77.668 Y123.409 E11.86503
G1 X77.035 Y123.395 E11.88609
G1 X76.116 Y123.335 E11.91672
G1 X75.206 Y123.195 E11.94734
G1 X74.312 Y122.977 E11.97795
G1 X73.439 Y122.682 E12.0086
G1 X72.596 Y122.312 E12.03922
G1 X71.788 Y121.871 E12.06983
G1 X71.022 Y121.361 E12.10044
G1 X70.302 Y120.787 E12.13107
G1 X69.635 Y120.152 E12.1617
G1 X69.026 Y119.462 E12.19231
G1 X68.479 Y118.722 E12.22292
G1 X67.998 Y117.937 E12.25354
G1 X67.587 Y117.113 E12.28416
G1 X67.249 Y116.256 E12.3148
G1 X66.987 Y115.374 E12.34541
G1 X66.802 Y114.472 E12.37603
G1 X66.696 Y113.557 E12.40667
G1 X66.672 Y113.034 E12.42408
G1 X66.65 Y111.945 E12.46031
G1 X66.651 Y107.713 E12.60107
G1 X66.661 Y107.046 E12.62325
G1 X66.715 Y106.127 E12.65387
G1 X66.848 Y105.216 E12.68449
G1 X67.06 Y104.32 E12.71512
G1 X67.349 Y103.446 E12.74573
G1 X67.712 Y102.6 E12.77635
G1 X68.148 Y101.789 E12.80698
G1 X68.652 Y101.019 E12.83759
G1 X69.222 Y100.295 E12.86823
G1 X69.852 Y99.624 E12.89885
G1 X70.537 Y99.01 E12.92944
G1 X71.274 Y98.457 E12.96009
G1 X72.055 Y97.971 E12.99068
G1 X72.876 Y97.554 E13.02131
G1 X73.73 Y97.21 E13.05193
G1 X74.611 Y96.941 E13.08257
G1 X75.512 Y96.75 E13.1132
G1 X76.425 Y96.638 E13.1438
G1 X76.97 Y96.609 E13.16195
G1 X77.886 Y96.586 E13.19243
G1 X78.263 Y96.584 E13.20496
G1 X86.924 Y96.586 E13.49303
G1 X89.487 Y96.601 E13.57828
G0 F6000 X89.489 Y96.201
G1 F1200 X112.752 Y96.198 E14.35201
G1 X114.743 Y96.186 E14.41823
G1 X123.747 Y96.185 E14.7177
G1 X124.262 Y96.191 E14.73484
G1 X125.331 Y96.255 E14.77045
G1 X128.391 Y96.59 E14.87284
G1 X130.937 Y96.798 E14.9578
G1 X133.381 Y96.928 E15.0392
G1 X137.027 Y97 E15.16049
G1 X142.201 Y97.001 E15.33258
G1 X142.899 Y97.011 E15.3558
G1 X143.835 Y97.065 E15.38698
G1 X144.763 Y97.197 E15.41816
G1 X145.677 Y97.409 E15.44937
G1 X146.569 Y97.698 E15.48055
G1 X147.434 Y98.061 E15.51175
G1 X148.264 Y98.497 E15.54294
G1 X149.055 Y99.002 E15.57415
G1 X149.799 Y99.573 E15.60534
G1 X150.492 Y100.205 E15.63654
G1 X151.129 Y100.893 E15.66772
G1 X151.704 Y101.634 E15.69892
G1 X152.215 Y102.42 E15.7301
G1 X152.657 Y103.248 E15.76132
G1 X153.026 Y104.11 E15.7925
G1 X153.321 Y105 E15.82369
G1 X153.539 Y105.912 E15.85488
G1 X153.679 Y106.84 E15.88609
G1 X153.737 Y107.701 E15.91479
G1 X153.75 Y108.33 E15.93572
G1 X153.749 Y109.4 E15.97131
G1 X153.74 Y110.127 E15.99549
G1 X153.689 Y111.064 E16.0267
G1 X153.557 Y111.992 E16.05788
G1 X153.348 Y112.906 E16.08906
G1 X153.061 Y113.799 E16.12026
G1 X152.699 Y114.665 E16.15148
G1 X152.265 Y115.496 E16.18266
G1 X151.761 Y116.287 E16.21385
G1 X151.192 Y117.032 E16.24503
G1 X150.561 Y117.727 E16.27625
G1 X149.874 Y118.365 E16.30744
G1 X149.135 Y118.942 E16.33862
G1 X148.349 Y119.454 E16.36982
G1 X147.523 Y119.897 E16.401
G1 X146.661 Y120.269 E16.43222
G1 X145.772 Y120.565 E16.46339
G1 X144.86 Y120.785 E16.49459
G1 X143.53 Y120.963 E16.53922
G1 X140.804 Y121.159 E16.63012
G1 X138.291 Y121.412 E16.71413
G1 X135.823 Y121.731 E16.79689
G1 X133.326 Y122.126 E16.88098
G1 X130.825 Y122.594 E16.96561
G1 X128.412 Y123.117 E17.04773
G1 X127.758 Y123.276 E17.07011
G1 X126.761 Y123.507 E17.10415
G1 X125.839 Y123.68 E17.13535
G1 X124.561 Y123.787 E17.17801
G1 X123.461 Y123.814 E17.2146
G1 X122.21 Y123.822 E17.25621
G1 X121.302 Y123.821 E17.28641
G1 X79.157 Y123.823 E18.68816
G1 X77.659 Y123.809 E18.73799
G1 X77.026 Y123.795 E18.75905
G1 X76.09 Y123.735 E18.79024
G1 X75.163 Y123.594 E18.82143
G1 X74.251 Y123.376 E18.85262
G1 X73.36 Y123.08 E18.88384
G1 X72.499 Y122.71 E18.91501
G1 X71.672 Y122.267 E18.94622
G1 X70.885 Y121.756 E18.97743
G1 X70.146 Y121.18 E19.00859
G1 X69.457 Y120.543 E19.0398
G1 X68.826 Y119.849 E19.071
G1 X68.256 Y119.104 E19.1022
G1 X67.752 Y118.314 E19.13336
G1 X67.317 Y117.483 E19.16456
G1 X66.954 Y116.618 E19.19576
G1 X66.666 Y115.725 E19.22697
G1 X66.455 Y114.812 E19.25813
G1 X66.323 Y113.883 E19.28934
G1 X66.272 Y113.043 E19.31733
G1 X66.25 Y111.945 E19.35386
G1 X66.251 Y107.707 E19.49482
G1 X66.261 Y107.04 E19.517
G1 X66.315 Y106.104 E19.54819
G1 X66.449 Y105.175 E19.57941
G1 X66.661 Y104.262 E19.61058
G1 X66.95 Y103.37 E19.64177
G1 X67.314 Y102.505 E19.67298
G1 X67.751 Y101.675 E19.70418
G1 X68.256 Y100.885 E19.73536
G1 X68.828 Y100.141 E19.76658
G1 X69.46 Y99.449 E19.79775
G1 X70.149 Y98.813 E19.82893
G1 X70.89 Y98.237 E19.86015
G1 X71.677 Y97.727 E19.89134
G1 X72.504 Y97.286 E19.92251
G1 X73.367 Y96.917 E19.95373
G1 X74.257 Y96.623 E19.98491
G1 X75.169 Y96.405 E20.01609
G1 X76.097 Y96.267 E20.0473
G1 X76.959 Y96.209 E20.07603
G1 X77.883 Y96.186 E20.10678
G1 X78.264 Y96.184 E20.11945
G1 X86.925 Y96.186 E20.40751
G1 X89.489 Y96.201 E20.49279
G1 F2700 E15.49279
;MESH:BBQ-P11.stl
G0 F6000 X112.496 Y106.535
G0 X112.502 Y107.62
G0 X123.468 Y107.966
G0 X123.599 Y108.78
G0 X141.968 Y108.782
G0 X141.968 Y109.218
G0 X123.468 Y109.218
G0 X123.65 Y112.212
;TYPE:WALL-INNER
G1 F2700 E20.49279
G1 F1200 X122.33 Y112.222 E20.5367
G1 X121.313 Y112.221 E20.57053
G1 X88.998 Y112.215 E21.64533
G1 X88.238 Y112.221 E21.6706
G1 X79.171 Y112.223 E21.97217
G1 X77.85 Y112.212 E22.01611
G1 X77.85 Y107.902 E22.15946
G1 X77.85 Y107.786 E22.16332
G1 X78.017 Y107.784 E22.16888
G1 X78.133 Y107.784 E22.17274
G1 X86.729 Y107.785 E22.45864
G1 X88.998 Y107.801 E22.53411
G1 X112.502 Y107.8 E23.31585
G1 X114.769 Y107.786 E23.39126
G1 X123.65 Y107.784 E23.68664
G1 X123.65 Y108.004 E23.69396
G1 X123.751 Y108.6 E23.71406
G1 X142.15 Y108.6 E24.32602
G1 X142.15 Y109.4 E24.35262
G1 X123.65 Y109.4 E24.96794
G1 X123.65 Y112.212 E25.06146
G0 F6000 X124.05 Y112.609
;TYPE:WALL-OUTER
G1 F1200 X122.333 Y112.622 E25.11857
G1 X121.313 Y112.621 E25.1525
G1 X88.999 Y112.615 E26.22727
G1 X88.241 Y112.621 E26.25248
G1 X79.168 Y112.623 E26.55425
G1 X77.45 Y112.609 E26.61139
G1 X77.45 Y107.391 E26.78494
G1 X78.012 Y107.384 E26.80364
G1 X86.732 Y107.385 E27.09366
G1 X88.999 Y107.401 E27.16907
G1 X112.501 Y107.4 E27.95075
G1 X114.767 Y107.386 E28.02612
G1 X124.05 Y107.384 E28.33487
G1 X124.05 Y107.97 E28.35436
G1 X124.089 Y108.2 E28.36212
G1 X142.55 Y108.2 E28.97613
G1 X142.55 Y109.8 E29.02935
G1 X124.05 Y109.8 E29.64466
G1 X124.05 Y112.609 E29.73809
G0 F6000 X123.78 Y112.34
G0 X123.54 Y111.825
G0 X123.26 Y111.825
;TYPE:SKIN
G1 F1200 X122.327 Y111.832 E29.76912
G1 X121.313 Y111.831 E29.80285
G1 X88.996 Y111.825 E30.87772
G1 X88.235 Y111.831 E30.90303
G1 X79.175 Y111.833 E31.20437
G1 X78.24 Y111.826 E31.23546
G1 X78.24 Y108.174 E31.35693
G1 X86.727 Y108.175 E31.63921
G1 X88.996 Y108.191 E31.71468
G1 X112.504 Y108.19 E32.49656
G1 X114.771 Y108.176 E32.57196
G1 X123.283 Y108.174 E32.85507
G1 X123.421 Y108.99 E32.8826
G1 X141.76 Y108.99 E33.49255
G1 X141.76 Y109.01 E33.49322
G1 X123.26 Y109.01 E34.10853
G1 X123.26 Y111.825 E34.20216
G1 F2700 E29.20216
G0 F6000 X123.54 Y111.825
G0 X123.468 Y109.218
G0 X141.968 Y109.218
G0 X141.968 Y108.782
G0 X123.599 Y108.78
G0 X123.468 Y107.966
G0 X123.042 Y107.894
G0 X123.042 Y108.334
G1 F2700 E34.20216
G1 F1200 X123.169 Y108.461 E34.20813
G0 F6000 X123.099 Y108.957
G1 F1200 X122.476 Y108.334 E34.23744
G0 F6000 X121.91 Y108.334
G1 F1200 X123.099 Y109.523 E34.29336
G0 F6000 X123.099 Y110.088
G1 F1200 X121.345 Y108.334 E34.37587
G0 F6000 X120.78 Y108.335
G1 F1200 X123.099 Y110.654 E34.48494
G0 F6000 X123.099 Y111.22
G1 F1200 X120.214 Y108.335 E34.62065
G0 F6000 X119.648 Y108.335
G1 F1200 X122.98 Y111.666 E34.77735
G0 F6000 X122.418 Y111.67
G1 F1200 X119.083 Y108.335 E34.93422
G0 F6000 X118.518 Y108.335
G1 F1200 X121.853 Y111.671 E35.09111
G0 F6000 X121.287 Y111.67
G1 F1200 X117.952 Y108.335 E35.24798
G0 F6000 X117.386 Y108.335
G1 F1200 X120.721 Y111.67 E35.40485
G0 F6000 X120.155 Y111.67
G1 F1200 X116.821 Y108.336 E35.56167
G0 F6000 X116.256 Y108.336
G1 F1200 X119.59 Y111.67 E35.71849
G0 F6000 X119.024 Y111.67
G1 F1200 X115.69 Y108.336 E35.87531
G0 F6000 X115.124 Y108.336
G1 F1200 X118.458 Y111.67 E36.03213
G0 F6000 X117.893 Y111.67
G1 F1200 X114.56 Y108.337 E36.1889
G0 F6000 X113.998 Y108.341
G1 F1200 X117.326 Y111.669 E36.34544
G0 F6000 X116.761 Y111.669
G1 F1200 X113.436 Y108.345 E36.50182
G0 F6000 X112.873 Y108.347
G1 F1200 X116.195 Y111.669 E36.65807
G0 F6000 X115.629 Y111.669
G1 F1200 X112.309 Y108.349 E36.81424
G0 F6000 X111.744 Y108.349
G1 F1200 X115.063 Y111.669 E36.97038
G0 F6000 X114.498 Y111.669
G1 F1200 X111.178 Y108.349 E37.12654
G0 F6000 X110.612 Y108.349
G1 F1200 X113.931 Y111.669 E37.28268
G0 F6000 X113.366 Y111.669
G1 F1200 X110.047 Y108.349 E37.43882
G0 F6000 X109.481 Y108.349
G1 F1200 X112.8 Y111.669 E37.59496
G0 F6000 X112.234 Y111.669
G1 F1200 X108.915 Y108.349 E37.75109
G0 F6000 X108.349 Y108.349
G1 F1200 X111.669 Y111.669 E37.90726
G0 F6000 X111.103 Y111.669
G1 F1200 X107.784 Y108.349 E38.0634
G0 F6000 X107.218 Y108.349
G1 F1200 X110.537 Y111.668 E38.21951
G0 F6000 X109.971 Y111.668
G1 F1200 X106.652 Y108.349 E38.37563
G0 F6000 X106.087 Y108.349
G1 F1200 X109.405 Y111.668 E38.53172
G0 F6000 X108.839 Y111.668
G1 F1200 X105.521 Y108.349 E38.68781
G0 F6000 X104.955 Y108.349
G1 F1200 X108.274 Y111.668 E38.84393
G0 F6000 X107.708 Y111.668
G1 F1200 X104.39 Y108.349 E39.00002
G0 F6000 X103.824 Y108.349
G1 F1200 X107.142 Y111.668 E39.15611
G0 F6000 X106.576 Y111.667
G1 F1200 X103.258 Y108.349 E39.31218
G0 F6000 X102.693 Y108.349
G1 F1200 X106.01 Y111.667 E39.46823
G0 F6000 X105.445 Y111.667
G1 F1200 X102.127 Y108.349 E39.62429
G0 F6000 X101.561 Y108.349
G1 F1200 X104.879 Y111.667 E39.78036
G0 F6000 X104.313 Y111.667
G1 F1200 X100.996 Y108.349 E39.93641
G0 F6000 X100.43 Y108.349
G1 F1200 X103.748 Y111.667 E40.09248
G0 F6000 X103.181 Y111.667
G1 F1200 X99.864 Y108.349 E40.24852
G0 F6000 X99.299 Y108.349
G1 F1200 X102.616 Y111.667 E40.40457
G0 F6000 X102.05 Y111.667
G1 F1200 X98.733 Y108.349 E40.56061
G0 F6000 X98.167 Y108.349
G1 F1200 X101.484 Y111.667 E40.71666
G0 F6000 X100.918 Y111.667
G1 F1200 X97.601 Y108.349 E40.8727
G0 F6000 X97.036 Y108.349
G1 F1200 X100.353 Y111.667 E41.02875
G0 F6000 X99.787 Y111.667
G1 F1200 X96.47 Y108.349 E41.18479
G0 F6000 X95.904 Y108.349
G1 F1200 X99.221 Y111.666 E41.34081
G0 F6000 X98.655 Y111.666
G1 F1200 X95.339 Y108.349 E41.49681
G0 F6000 X94.773 Y108.349
G1 F1200 X98.089 Y111.666 E41.65281
