;FLAVOR:Marlin
;TIME:598
;Filament used: 0.778939m
;Layer height: 0.2
;MINX:89.028
;MINY:84.337
;MINZ:0.24
;MAXX:136.085
;MAXY:136.297
;MAXZ:2.93
;Generated with Cura_SteamEngine 4.6.1
M140 S50
M105
M190 S50
M104 S200
M105
M109 S200
M82 ;absolute extrusion mode
M201 X500.00 Y500.00 Z100.00 E5000.00 ;Setup machine max acceleration
M203 X500.00 Y500.00 Z10.00 E50.00 ;Setup machine max feedrate
M204 P500.00 R1000.00 T500.00 ;Setup Print/Retract/Travel acceleration
M205 X8.00 Y8.00 Z0.40 E5.00 ;Setup Jerk
M220 S100 ;Reset Feedrate
M221 S100 ;Reset Flowrate

G28 ;Home

G92 E0 ;Reset Extruder
G1 Z2.0 F3000 ;Move Z Axis up
G1 X10.1 Y20 Z0.28 F5000.0 ;Move to start position
G1 X10.1 Y200.0 Z0.28 F1500.0 E15 ;Draw the first line
G1 X10.4 Y200.0 Z0.28 F5000.0 ;Move to side a little
G1 X10.4 Y20 Z0.28 F1500.0 E30 ;Draw the second line
G92 E0 ;Reset Extruder
G1 Z2.0 F3000 ;Move Z Axis up

G92 E0
G92 E0
G1 F2700 E-5
;LAYER_COUNT:10
;LAYER:-6
M107
G0 F12000 X93.871 Y90.257 Z0.24
;TYPE:SUPPORT-INTERFACE
G1 F2700 E0
G1 F1800 X94.49 Y89.614 E0.07125
G1 X94.633 Y89.477 E0.08705
G1 X95.294 Y88.885 E0.15789
G1 X95.416 Y88.783 E0.17058
G1 X96.127 Y88.233 E0.24233
G1 X96.249 Y88.145 E0.25434
G1 X97.008 Y87.644 E0.32694
G1 X97.169 Y87.545 E0.34202
G1 X97.95 Y87.106 E0.41354
G1 X98.084 Y87.037 E0.42557
G1 X98.878 Y86.664 E0.4956
G1 X99.063 Y86.585 E0.51165
G1 X99.887 Y86.27 E0.58207
G1 X100.08 Y86.204 E0.59835
G1 X100.911 Y85.954 E0.66763
G1 X101.07 Y85.912 E0.68075
G1 X101.948 Y85.715 E0.75258
G1 X102.135 Y85.682 E0.76774
G1 X102.985 Y85.556 E0.83633
G1 X103.2 Y85.533 E0.85359
G1 X104.249 Y85.46 E0.93753
G1 X104.754 Y85.452 E0.97785
G1 X105.878 Y85.453 E1.06757
G1 X106.971 Y85.496 E1.15488
G1 X107.411 Y85.488 E1.19001
G1 X107.414 Y85.518 E1.19242
G1 X108.972 Y85.408 E1.31709
G1 X109.477 Y85.4 E1.35741
G1 X110.6 Y85.401 E1.44705
G1 X111.724 Y85.446 E1.53685
G1 X113.1 Y85.598 E1.64735
G1 X113.104 Y85.578 E1.64898
G1 X113.306 Y85.592 E1.66515
G1 X113.729 Y85.579 E1.69893
G1 X114.208 Y85.548 E1.73724
G1 X114.622 Y85.541 E1.7703
G1 X115.832 Y85.541 E1.86688
G1 X116.956 Y85.586 E1.95668
G1 X117.873 Y85.688 E2.03033
G1 X118.048 Y85.713 E2.04444
G1 X118.943 Y85.878 E2.11709
G1 X119.071 Y85.907 E2.12756
G1 X119.729 Y86.011 E2.18074
G1 X120.218 Y86.033 E2.21981
G1 X120.473 Y86.034 E2.24017
G1 X121.597 Y86.079 E2.32996
G1 X122.514 Y86.181 E2.40361
G1 X122.689 Y86.206 E2.41772
G1 X123.578 Y86.37 E2.48988
G1 X123.701 Y86.398 E2.49995
G1 X124.595 Y86.632 E2.57372
G1 X124.758 Y86.681 E2.58731
G1 X125.6 Y86.968 E2.65832
G1 X125.766 Y87.031 E2.67249
G1 X126.569 Y87.372 E2.74213
G1 X126.758 Y87.46 E2.75877
G1 X127.669 Y87.934 E2.84075
G1 X128.448 Y88.409 E2.91358
G1 X128.599 Y88.509 E2.92803
G1 X129.313 Y89.02 E2.99812
G1 X129.461 Y89.133 E3.01298
G1 X130.152 Y89.709 E3.08479
G1 X130.265 Y89.81 E3.09689
G1 X130.914 Y90.435 E3.16881
G1 X131.034 Y90.56 E3.18265
G1 X131.637 Y91.231 E3.25466
G1 X131.733 Y91.347 E3.26668
G1 X132.283 Y92.059 E3.3385
G1 X132.396 Y92.218 E3.35407
G1 X132.886 Y92.956 E3.42478
G1 X132.962 Y93.082 E3.43652
G1 X133.479 Y94.011 E3.52139
G1 X133.869 Y94.841 E3.5946
G1 X133.929 Y94.984 E3.60697
G1 X134.258 Y95.843 E3.6804
G1 X134.31 Y95.993 E3.69307
G1 X134.565 Y96.843 E3.76391
G1 X134.611 Y97.016 E3.7782
G1 X134.81 Y97.902 E3.85069
G1 X134.835 Y98.041 E3.86196
G1 X134.968 Y98.94 E3.9345
G1 X134.986 Y99.102 E3.94752
G1 X135.062 Y100.188 E4.03442
G1 X135.07 Y100.685 E4.07409
G1 X135.074 Y120.615 E5.66499
G1 X135.037 Y121.625 E5.74567
G1 X135.026 Y121.774 E5.7576
G1 X134.928 Y122.669 E5.82947
G1 X134.902 Y122.849 E5.84398
G1 X134.74 Y123.727 E5.91525
G1 X134.71 Y123.861 E5.92621
G1 X134.479 Y124.746 E5.99922
G1 X134.427 Y124.918 E6.01357
G1 X134.14 Y125.76 E6.08458
G1 X134.077 Y125.926 E6.09875
G1 X133.732 Y126.741 E6.1694
G1 X133.66 Y126.894 E6.18289
G1 X133.248 Y127.696 E6.25487
G1 X133.166 Y127.844 E6.26837
G1 X132.701 Y128.605 E6.33956
G1 X132.591 Y128.771 E6.35546
G1 X132.093 Y129.468 E6.42384
G1 X131.981 Y129.613 E6.43846
G1 X131.406 Y130.306 E6.51034
G1 X131.303 Y130.421 E6.52267
G1 X130.664 Y131.084 E6.59617
G1 X130.547 Y131.197 E6.60915
G1 X129.895 Y131.783 E6.67913
G1 X129.754 Y131.9 E6.69376
G1 X128.924 Y132.537 E6.77727
G1 X128.169 Y133.036 E6.84952
G1 X128.016 Y133.13 E6.86385
G1 X127.229 Y133.573 E6.93594
G1 X127.089 Y133.646 E6.94854
G1 X126.269 Y134.031 E7.02085
G1 X126.117 Y134.095 E7.03402
G1 X125.284 Y134.414 E7.10522
G1 X125.112 Y134.472 E7.11971
G1 X124.103 Y134.772 E7.20374
G1 X123.199 Y134.975 E7.2777
G1 X123.069 Y134.998 E7.28824
G1 X122.164 Y135.132 E7.36126
G1 X121.996 Y135.15 E7.37475
G1 X120.922 Y135.225 E7.46069
G1 X120.414 Y135.233 E7.50125
G1 X119.286 Y135.232 E7.59129
G1 X118.162 Y135.187 E7.68108
G1 X117.245 Y135.085 E7.75473
G1 X117.07 Y135.06 E7.76885
G1 X116.175 Y134.895 E7.84149
G1 X116.047 Y134.866 E7.85197
G1 X115.389 Y134.762 E7.90514
G1 X114.9 Y134.74 E7.94422
G1 X114.645 Y134.739 E7.96457
G1 X113.521 Y134.694 E8.05437
G1 X112.112 Y134.538 E8.16753
G1 X112.11 Y134.552 E8.16866
G1 X111.515 Y134.562 E8.21616
G1 X111.063 Y134.592 E8.25232
G1 X110.541 Y134.6 E8.29399
G1 X109.413 Y134.599 E8.38403
G1 X108.344 Y134.557 E8.46943
G1 X107.681 Y134.548 E8.52236
G1 X106.327 Y134.644 E8.63071
G1 X105.819 Y134.652 E8.67127
G1 X104.69 Y134.651 E8.76139
G1 X103.566 Y134.606 E8.85119
G1 X102.649 Y134.504 E8.92484
G1 X102.474 Y134.479 E8.93895
G1 X101.585 Y134.315 E9.01111
G1 X101.462 Y134.287 E9.02118
G1 X100.568 Y134.053 E9.09495
G1 X100.405 Y134.004 E9.10853
G1 X99.563 Y133.717 E9.17954
G1 X99.397 Y133.654 E9.19371
G1 X98.594 Y133.313 E9.26335
G1 X98.405 Y133.225 E9.28
G1 X97.494 Y132.751 E9.36197
G1 X96.715 Y132.276 E9.4348
G1 X96.564 Y132.176 E9.44926
G1 X95.85 Y131.665 E9.51935
G1 X95.702 Y131.552 E9.53421
G1 X95.011 Y130.976 E9.60602
G1 X94.898 Y130.875 E9.61812
G1 X94.249 Y130.25 E9.69004
G1 X94.129 Y130.125 E9.70387
G1 X93.526 Y129.454 E9.77588
G1 X93.429 Y129.336 E9.78808
G1 X92.871 Y128.614 E9.86092
G1 X92.767 Y128.467 E9.87529
G1 X92.274 Y127.724 E9.94647
G1 X92.201 Y127.603 E9.95775
G1 X91.749 Y126.798 E10.03144
G1 X91.677 Y126.659 E10.04394
G1 X91.289 Y125.831 E10.11693
G1 X91.229 Y125.689 E10.12924
G1 X90.905 Y124.842 E10.20162
G1 X90.848 Y124.677 E10.21556
G1 X90.598 Y123.842 E10.28514
G1 X90.552 Y123.669 E10.29943
G1 X90.35 Y122.768 E10.37313
G1 X90.328 Y122.644 E10.38319
G1 X90.193 Y121.73 E10.45694
G1 X90.176 Y121.57 E10.46978
G1 X90.101 Y120.497 E10.55564
G1 X90.093 Y119.995 E10.59572
G1 X90.094 Y100.066 E12.18654
G1 X90.13 Y99.06 E12.26689
G1 X90.14 Y98.925 E12.2777
G1 X90.242 Y98.007 E12.35143
G1 X90.267 Y97.832 E12.36554
G1 X90.429 Y96.954 E12.43681
G1 X90.459 Y96.82 E12.44777
G1 X90.692 Y95.928 E12.52136
G1 X90.737 Y95.778 E12.53386
G1 X91.035 Y94.904 E12.60757
G1 X91.092 Y94.755 E12.62031
G1 X91.445 Y93.926 E12.69223
G1 X91.515 Y93.777 E12.70537
G1 X91.922 Y92.986 E12.77638
G1 X92.004 Y92.838 E12.78989
G1 X92.469 Y92.077 E12.86107
G1 X92.571 Y91.923 E12.87582
G1 X93.075 Y91.217 E12.94506
G1 X93.194 Y91.064 E12.96053
G1 X93.767 Y90.374 E13.03213
G1 X93.871 Y90.257 E13.04462
G0 F12000 X94.4 Y89.707
G1 F1800 X94.4 Y130.395 E16.29252
G0 F12000 X96 Y131.772
G1 F1800 X96 Y88.331 E19.76017
G0 F12000 X97.6 Y87.302
G1 F1800 X97.6 Y132.806 E23.39249
G0 F12000 X99.2 Y133.57
G1 F1800 X99.2 Y86.532 E27.14727
G0 F12000 X100.8 Y85.987
G1 F1800 X100.8 Y134.113 E30.98889
G0 F12000 X102.4 Y134.465
G1 F1800 X102.4 Y85.642 E34.88616
G0 F12000 X104 Y85.477
G1 F1800 X104 Y134.623 E38.8092
G0 F12000 X105.6 Y134.651
G1 F1800 X105.6 Y85.453 E42.7364
G0 F12000 X107.2 Y85.491
G1 F1800 X107.2 Y134.583 E46.65514
G0 F12000 X108.8 Y134.574
G1 F1800 X108.8 Y85.42 E50.57882
G0 F12000 X110.4 Y85.401
G1 F1800 X110.4 Y134.599 E54.50602
G0 F12000 X112 Y134.554
G1 F1800 X112 Y85.477 E58.42356
G0 F12000 X113.6 Y85.582
G1 F1800 X113.6 Y134.697 E62.34413
G0 F12000 X115.2 Y134.753
G1 F1800 X115.2 Y85.541 E66.27244
G0 F12000 X116.8 Y85.58
G1 F1800 X116.8 Y135.01 E70.21816
G0 F12000 X118.4 Y135.196
G1 F1800 X118.4 Y85.778 E74.16292
G0 F12000 X120 Y86.024
G1 F1800 X120 Y135.232 E78.09091
G0 F12000 X121.6 Y135.178
G1 F1800 X121.6 Y86.08 E82.01013
G0 F12000 X123.2 Y86.301
G1 F1800 X123.2 Y134.975 E85.8955
G0 F12000 X124.8 Y134.565
G1 F1800 X124.8 Y86.696 E89.71661
G0 F12000 X126.4 Y87.301
G1 F1800 X126.4 Y133.97 E93.44193
G0 F12000 X128 Y133.14
G1 F1800 X128 Y88.136 E97.03434
G0 F12000 X129.6 Y89.249
G1 F1800 X129.6 Y132.019 E100.44843
G0 F12000 X131.2 Y130.528
G1 F1800 X131.2 Y90.745 E103.62408
G0 F12000 X132.8 Y92.827
G1 F1800 X132.8 Y128.443 E106.4671
G0 F12000 X134.4 Y124.998
G1 F1800 X134.4 Y96.293 E108.75846
G1 F2700 E103.75846
G0 F12000 X135.326 Y95.675
G0 X134.845 Y94.416
G0 X133.885 Y92.551
G0 X133.143 Y91.432
G0 X131.81 Y89.831
G0 X130.853 Y88.908
G0 X129.209 Y87.637
G0 X128.05 Y86.928
G0 X126.17 Y86.046
G0 X124.88 Y85.606
G0 X122.853 Y85.154
G0 X116.886 Y84.514
G0 X109.374 Y84.337
G0 X104.005 Y84.406
G0 X101.955 Y84.632
G0 X100.629 Y84.927
G0 X98.672 Y85.595
G0 X97.44 Y86.171
G0 X95.652 Y87.264
G0 X94.592 Y88.084
G0 X93.096 Y89.527
G0 X91.933 Y90.984
G0 X92.8 Y91.602
G1 F2700 E108.75846
G1 F1800 X92.8 Y128.513 E111.70486
G0 F12000 X91.2 Y125.613
G1 F1800 X91.2 Y94.501 E114.18835
G1 F2700 E109.18835
G0 F300 X91.2 Y94.501 Z0.54
G0 F12000 X90.221 Y94.084
G0 X91.089 Y92.294
G0 X92.225 Y90.576
G0 X93.096 Y89.527
G0 X94.592 Y88.084
G0 X95.652 Y87.264
G0 X97.44 Y86.171
G0 X98.672 Y85.595
G0 X100.629 Y84.927
G0 X101.955 Y84.632
G0 X104.209 Y84.396
G0 X109.991 Y84.343
G0 X114.168 Y84.484
G0 X114.621 Y85.54
;TIME_ELAPSED:58.118840
;LAYER:-5
M140 S50
;TYPE:SUPPORT
G1 F2700 E114.18835
G1 F1800 X114.206 Y85.547 E114.22976
G1 X113.855 Y85.571 E114.26487
G1 X135.07 Y106.786 E117.25853
G1 X135.07 Y108.2 E117.39962
G1 X112.39 Y85.52 E120.60002
G1 X111.723 Y85.446 E120.66698
G1 X110.867 Y85.412 E120.75246
G1 X135.071 Y109.615 E124.16783
G1 X135.071 Y111.029 E124.30892
G1 X109.441 Y85.4 E127.92552
G1 X108.971 Y85.407 E127.97242
G1 X108.097 Y85.47 E128.05986
G1 X135.072 Y112.444 E131.86625
G1 X135.072 Y113.859 E132.00744
G1 X106.698 Y85.485 E136.01132
G1 X105.877 Y85.453 E136.0933
G1 X105.251 Y85.452 E136.15576
G1 X135.072 Y115.273 E140.36383
G1 X135.072 Y116.688 E140.50502
G1 X103.871 Y85.487 E144.90782
G1 X103.199 Y85.533 E144.97503
G1 X102.984 Y85.555 E144.99659
G1 X102.585 Y85.615 E145.03685
G1 X135.073 Y118.103 E149.62126
G1 X135.073 Y119.517 E149.76235
G1 X101.395 Y85.839 E154.51468
G1 X101.069 Y85.912 E154.54801
G1 X100.91 Y85.953 E154.5644
G1 X100.284 Y86.142 E154.62964
G1 X135.062 Y120.92 E159.53719
G1 X135.036 Y121.625 E159.60759
G1 X135.025 Y121.774 E159.6225
G1 X134.973 Y122.246 E159.66988
G1 X99.243 Y86.515 E164.71184
G1 X99.062 Y86.584 E164.73116
G1 X98.877 Y86.664 E164.75128
G1 X98.265 Y86.952 E164.81876
G1 X134.786 Y123.472 E169.9722
G1 X134.739 Y123.726 E169.99798
G1 X134.709 Y123.861 E170.01178
G1 X134.512 Y124.613 E170.08934
G1 X97.345 Y87.445 E175.33408
G1 X97.168 Y87.544 E175.35431
G1 X97.007 Y87.643 E175.37317
G1 X96.479 Y87.993 E175.43638
G1 X134.167 Y125.681 E180.75456
G1 X134.139 Y125.76 E180.76293
G1 X134.075 Y125.925 E180.78059
G1 X133.755 Y126.684 E180.86278
G1 X95.663 Y88.591 E186.23804
G1 X95.415 Y88.782 E186.26927
G1 X95.293 Y88.885 E186.2852
G1 X94.897 Y89.24 E186.33827
G1 X133.283 Y127.626 E191.75495
G1 X133.247 Y127.696 E191.7628
G1 X133.165 Y127.843 E191.7796
G1 X132.756 Y128.513 E191.85792
G1 X94.178 Y89.936 E197.30163
G1 X93.87 Y90.257 E197.34601
G1 X93.766 Y90.373 E197.36156
G1 X93.51 Y90.682 E197.4016
G1 X132.177 Y129.348 E202.85786
G1 X132.092 Y129.467 E202.87245
G1 X131.98 Y129.612 E202.89073
G1 X131.548 Y130.134 E202.95834
G1 X92.889 Y91.474 E208.41361
G1 X92.57 Y91.922 E208.46849
G1 X92.468 Y92.076 E208.48692
G1 X92.319 Y92.319 E208.51536
G1 X130.869 Y130.869 E213.95518
G1 X130.664 Y131.082 E213.98468
G1 X130.546 Y131.195 E214.00098
G1 X130.143 Y131.557 E214.05504
G1 X91.802 Y93.216 E219.46537
G1 X91.515 Y93.776 E219.52815
G1 X91.445 Y93.925 E219.54458
G1 X91.34 Y94.168 E219.57099
G1 X129.367 Y132.195 E224.93701
G1 X128.923 Y132.535 E224.99281
G1 X128.543 Y132.786 E225.03826
G1 X90.939 Y95.182 E230.34459
G1 X90.737 Y95.777 E230.40728
G1 X90.692 Y95.927 E230.42291
G1 X90.604 Y96.261 E230.45737
G1 X127.668 Y133.324 E235.68743
G1 X127.229 Y133.571 E235.73769
G1 X127.089 Y133.645 E235.7535
G1 X126.738 Y133.809 E235.79215
G1 X90.343 Y97.414 E240.92788
G1 X90.267 Y97.831 E240.97017
G1 X90.242 Y98.006 E240.98781
G1 X90.17 Y98.655 E241.05297
G1 X125.749 Y134.234 E246.07355
G1 X125.284 Y134.413 E246.12327
G1 X125.111 Y134.471 E246.14147
G1 X124.695 Y134.594 E246.18476
G1 X90.096 Y99.995 E251.06705
G1 X90.093 Y100.065 E251.07404
G1 X90.093 Y101.406 E251.20785
G1 X123.575 Y134.889 E255.93259
G1 X123.199 Y134.973 E255.97103
G1 X123.068 Y134.997 E255.98432
G1 X122.371 Y135.099 E256.05461
G1 X90.093 Y102.821 E260.60938
G1 X90.093 Y104.235 E260.75047
G1 X121.071 Y135.213 E265.1218
G1 X120.922 Y135.224 E265.13671
G1 X120.413 Y135.232 E265.1875
G1 X119.674 Y135.231 E265.26124
G1 X90.093 Y105.649 E269.43551
G1 X90.093 Y107.063 E269.5766
G1 X118.217 Y135.188 E273.54527
G1 X118.161 Y135.186 E273.55086
G1 X117.245 Y135.084 E273.64283
G1 X117.07 Y135.058 E273.66048
G1 X116.584 Y134.969 E273.70978
G1 X90.093 Y108.477 E277.44802
G1 X90.093 Y109.892 E277.58921
G1 X114.941 Y134.74 E281.09553
G1 X114.9 Y134.739 E281.09962
G1 X114.645 Y134.738 E281.12506
G1 X113.521 Y134.693 E281.23731
G1 X113.474 Y134.687 E281.24203
G1 X90.093 Y111.306 E284.54135
G1 X90.093 Y112.72 E284.68244
G1 X111.926 Y134.553 E287.76331
G1 X111.514 Y134.561 E287.80442
G1 X111.063 Y134.591 E287.84952
G1 X110.556 Y134.598 E287.90012
G1 X90.093 Y114.134 E290.78774
G1 X90.093 Y115.549 E290.92893
G1 X109.131 Y134.587 E293.6154
G1 X108.343 Y134.556 E293.69408
G1 X107.681 Y134.546 E293.76015
G1 X107.676 Y134.546 E293.76064
G1 X90.093 Y116.963 E296.2418
G1 X90.093 Y118.377 E296.38289
G1 X106.356 Y134.64 E298.67777
G1 X106.326 Y134.643 E298.68078
G1 X105.818 Y134.651 E298.73147
G1 X104.951 Y134.65 E298.81798
G1 X90.093 Y119.791 E300.91468
G1 X90.093 Y119.993 E300.93483
G1 X90.1 Y120.496 E300.98503
G1 X90.154 Y121.267 E301.06215
G1 X103.482 Y134.595 E302.94287
G1 X102.649 Y134.503 E303.02649
G1 X102.474 Y134.478 E303.04413
G1 X101.832 Y134.359 E303.10928
G1 X90.381 Y122.908 E304.72514
G1 X90.552 Y123.668 E304.80287
G1 X90.597 Y123.841 E304.82071
G1 X90.848 Y124.676 E304.90771
G1 X90.904 Y124.841 E304.92509
G1 X90.907 Y124.848 E304.92585
G1 X99.884 Y133.825 E306.19261
G1 X99.562 Y133.716 E306.22653
G1 X99.396 Y133.653 E306.24424
G1 X98.594 Y133.312 E306.3312
G1 X98.405 Y133.224 E306.352
G1 X97.493 Y132.75 E306.45456
G1 X97.239 Y132.595 E306.48425
G1 X96.715 Y132.275 E306.54551
G1 X96.563 Y132.175 E306.56367
G1 X95.849 Y131.664 E306.65128
G1 X95.701 Y131.55 E306.66992
G1 X95.01 Y130.975 E306.75961
G1 X94.897 Y130.874 E306.77474
G1 X94.248 Y130.249 E306.86464
G1 X94.128 Y130.124 E306.88193
G1 X93.526 Y129.452 E306.97195
G1 X93.428 Y129.335 E306.98718
G1 X92.87 Y128.613 E307.07823
G1 X92.767 Y128.466 E307.09614
G1 X92.274 Y127.723 E307.18511
G1 X92.201 Y127.601 E307.1993
G0 F12000 X92.142 Y127.497
G1 F1800 X97.239 Y132.595 E307.91861
G1 F2700 E302.91861
G0 F12000 X96.687 Y133.505
G0 X95.045 Y132.39
G0 X93.49 Y130.997
G0 X92.594 Y129.996
G0 X91.374 Y128.292
G0 X90.727 Y127.138
G0 X89.906 Y125.211
G0 X89.52 Y123.93
G0 X89.138 Y121.872
G0 X89.028 Y119.998
G0 X89.068 Y98.995
G0 X89.215 Y97.668
G0 X89.669 Y95.634
G0 X90.101 Y94.364
G0 X90.98 Y92.49
G0 X91.699 Y91.314
G0 X92.955 Y89.684
G0 X93.904 Y88.7
G0 X95.497 Y87.375
G0 X96.622 Y86.631
G0 X98.449 Y85.69
G0 X99.748 Y85.192
G0 X101.745 Y84.67
G0 X103.097 Y84.474
G0 X104.747 Y84.387
G0 X109.515 Y84.347
G0 X114.604 Y84.477
G0 X114.621 Y85.54
G1 F2700 E307.91861
G1 F1800 X115.24 Y85.541 E307.98038
G1 X135.07 Y105.371 E310.7786
G1 X135.07 Y103.957 E310.91969
G1 X116.688 Y85.576 E313.51352
G1 X116.954 Y85.586 E313.54008
G1 X117.872 Y85.687 E313.63223
G1 X118.047 Y85.712 E313.64987
G1 X118.283 Y85.756 E313.67382
G1 X135.069 Y102.542 E316.04251
G1 X135.069 Y101.128 E316.1836
G1 X119.962 Y86.021 E318.31536
