;FLAVOR:Marlin
;TIME:2054
;Filament used: 1.72168m
;Layer height: 0.2
;MINX:79
;MINY:79
;MINZ:0.2
;MAXX:141
;MAXY:141
;MAXZ:17.96
;Generated with Cura_SteamEngine 4.6.1
M140 S50
M105
M190 S50
M104 S200
M105
M109 S200
M82 ;absolute extrusion mode
M201 X500.00 Y500.00 Z100.00 E5000.00 ;Setup machine max acceleration
M203 X500.00 Y500.00 Z10.00 E50.00 ;Setup machine max feedrate
M204 P500.00 R1000.00 T500.00 ;Setup Print/Retract/Travel acceleration
M205 X8.00 Y8.00 Z0.40 E5.00 ;Setup Jerk
M220 S100 ;Reset Feedrate
M221 S100 ;Reset Flowrate

G28 ;Home

G92 E0 ;Reset Extruder
G1 Z2.0 F3000 ;Move Z Axis up
G1 X10.1 Y20 Z0.28 F5000.0 ;Move to start position
G1 X10.1 Y200.0 Z0.28 F1500.0 E15 ;Draw the first line
G1 X10.4 Y200.0 Z0.28 F5000.0 ;Move to side a little
G1 X10.4 Y20 Z0.28 F1500.0 E30 ;Draw the second line
G92 E0 ;Reset Extruder
G1 Z2.0 F3000 ;Move Z Axis up

G92 E0
G92 E0
G1 F2700 E-5
;LAYER_COUNT:76
;LAYER:0
M107
G0 F6000 X126.87 Y79.815 Z0.2
;TYPE:SKIRT
G1 F2700 E0
G1 F1200 X127.9 Y79.882 E0.03433
G1 X128.409 Y79.941 E0.05137
G1 X129.301 Y80.084 E0.08142
G1 X130.217 Y80.319 E0.11287
G1 X130.904 Y80.529 E0.13677
G1 X131.755 Y80.831 E0.1668
G1 X132.334 Y81.086 E0.18784
G1 X132.605 Y81.216 E0.19784
G1 X133.498 Y81.701 E0.23164
G1 X133.746 Y81.852 E0.2413
G1 X134.38 Y82.271 E0.26657
G1 X134.676 Y82.483 E0.27868
G1 X135.583 Y83.214 E0.31743
G1 X135.847 Y83.453 E0.32927
G1 X136.569 Y84.176 E0.36325
G1 X136.719 Y84.342 E0.3707
G1 X137.063 Y84.744 E0.38829
G1 X137.242 Y84.964 E0.39773
G1 X137.729 Y85.613 E0.42471
G1 X137.862 Y85.806 E0.43251
G1 X138.341 Y86.572 E0.46256
G1 X138.614 Y87.089 E0.482
G1 X138.933 Y87.737 E0.50603
G1 X139.296 Y88.564 E0.53607
G1 X139.621 Y89.552 E0.57066
G1 X139.77 Y90.097 E0.58945
G1 X140.037 Y91.406 E0.63389
G1 X140.081 Y91.728 E0.64469
G1 X140.173 Y92.892 E0.68353
G1 X140.2 Y94.284 E0.72984
G1 X140.199 Y125.983 E1.78415
G1 X140.189 Y126.747 E1.80956
G1 X140.171 Y127.239 E1.82594
G1 X140.151 Y127.565 E1.8368
G1 X140.051 Y128.491 E1.86778
G1 X139.997 Y128.842 E1.87959
G1 X139.8 Y129.811 E1.91248
G1 X139.723 Y130.113 E1.92285
G1 X139.461 Y130.977 E1.95287
G1 X139.218 Y131.602 E1.97518
G1 X138.95 Y132.229 E1.99786
G1 X138.559 Y133.043 E2.02789
G1 X137.966 Y134.013 E2.06571
G1 X137.563 Y134.597 E2.08931
G1 X137.018 Y135.317 E2.11934
G1 X136.62 Y135.769 E2.13937
G1 X136.42 Y135.983 E2.14911
G1 X135.669 Y136.708 E2.18383
G1 X135.389 Y136.952 E2.19618
G1 X134.591 Y137.581 E2.22998
G1 X134.319 Y137.774 E2.24107
G1 X133.592 Y138.244 E2.26987
G1 X133.412 Y138.35 E2.27681
G1 X132.509 Y138.823 E2.31072
G1 X132.03 Y139.044 E2.32826
G1 X130.862 Y139.498 E2.36994
G1 X130.668 Y139.56 E2.37672
G1 X130.001 Y139.748 E2.39977
G1 X129.672 Y139.829 E2.41104
G1 X128.759 Y140.01 E2.44199
G1 X128.501 Y140.049 E2.45067
G1 X127.557 Y140.147 E2.48224
G1 X127.294 Y140.162 E2.491
G1 X126.928 Y140.177 E2.50318
G1 X125.716 Y140.2 E2.5435
G1 X93.983 Y140.199 E3.59894
G1 X93.244 Y140.189 E3.62353
G1 X92.75 Y140.17 E3.63997
G1 X92.428 Y140.15 E3.6507
G1 X91.524 Y140.054 E3.68094
G1 X91.222 Y140.008 E3.6911
G1 X90.475 Y139.865 E3.71639
G1 X90.266 Y139.817 E3.72352
G1 X89.373 Y139.569 E3.75435
G1 X88.964 Y139.435 E3.76867
G1 X87.836 Y138.989 E3.80901
G1 X87.503 Y138.834 E3.82123
G1 X86.502 Y138.299 E3.85898
G1 X86.254 Y138.148 E3.86863
G1 X85.62 Y137.729 E3.89391
G1 X85.324 Y137.517 E3.90602
G1 X84.403 Y136.773 E3.9454
G1 X84.129 Y136.524 E3.95771
G1 X83.383 Y135.771 E3.99297
G1 X83.232 Y135.602 E4.0005
G1 X82.918 Y135.234 E4.01659
G1 X82.75 Y135.027 E4.02546
G1 X82.256 Y134.365 E4.05293
G1 X82.121 Y134.168 E4.06088
G1 X81.644 Y133.401 E4.09092
G1 X81.384 Y132.907 E4.10949
G1 X81.067 Y132.263 E4.13336
G1 X80.704 Y131.436 E4.1634
G1 X80.497 Y130.846 E4.18419
G1 X80.436 Y130.654 E4.1909
G1 X80.26 Y130.033 E4.21236
G1 X80.172 Y129.68 E4.22446
G1 X79.963 Y128.594 E4.26125
G1 X79.919 Y128.272 E4.27206
G1 X79.827 Y127.108 E4.31089
G1 X79.8 Y125.716 E4.3572
G1 X79.801 Y93.951 E5.41371
G1 X79.811 Y93.24 E5.43736
G1 X79.829 Y92.755 E5.4535
G1 X79.849 Y92.431 E5.4643
G1 X79.948 Y91.513 E5.49501
G1 X79.994 Y91.213 E5.5051
G1 X80.132 Y90.486 E5.52971
G1 X80.18 Y90.276 E5.53688
G1 X80.429 Y89.381 E5.56778
G1 X80.562 Y88.974 E5.58202
G1 X81.011 Y87.835 E5.62274
G1 X81.168 Y87.498 E5.6351
G1 X81.708 Y86.49 E5.67314
G1 X81.86 Y86.241 E5.68284
G1 X82.277 Y85.612 E5.70794
G1 X82.49 Y85.315 E5.7201
G1 X83.234 Y84.395 E5.75945
G1 X83.476 Y84.129 E5.77141
G1 X84.216 Y83.395 E5.80608
G1 X84.398 Y83.232 E5.8142
G1 X84.792 Y82.897 E5.8314
G1 X84.99 Y82.737 E5.83987
G1 X85.717 Y82.201 E5.86991
G1 X86.11 Y81.95 E5.88542
G1 X86.616 Y81.643 E5.90511
G1 X87.817 Y81.019 E5.95012
G1 X88.114 Y80.889 E5.96091
G1 X89.003 Y80.548 E5.99257
G1 X89.236 Y80.471 E6.00074
G1 X89.999 Y80.252 E6.02714
G1 X90.328 Y80.171 E6.03841
G1 X91.241 Y79.99 E6.06936
G1 X91.499 Y79.951 E6.07804
G1 X92.425 Y79.854 E6.10901
G1 X92.663 Y79.84 E6.11694
G1 X93.052 Y79.824 E6.12989
G1 X94.332 Y79.8 E6.17247
G1 X125.95 Y79.803 E7.22409
G1 X126.87 Y79.815 E7.25469
G0 F6000 X126.876 Y79.415
G1 F1200 X127.947 Y79.485 E7.29039
G1 X128.456 Y79.544 E7.30743
G1 X129.365 Y79.689 E7.33805
G1 X130.334 Y79.936 E7.37131
G1 X131.021 Y80.146 E7.3952
G1 X131.889 Y80.453 E7.42582
G1 X132.507 Y80.726 E7.44829
G1 X132.778 Y80.856 E7.45829
G1 X133.706 Y81.359 E7.4934
G1 X133.954 Y81.51 E7.50306
G1 X134.613 Y81.946 E7.52934
G1 X134.909 Y82.158 E7.54145
G1 X135.851 Y82.918 E7.5817
G1 X136.115 Y83.157 E7.59355
G1 X136.866 Y83.908 E7.62887
G1 X137.016 Y84.074 E7.63631
G1 X137.373 Y84.491 E7.65457
G1 X137.552 Y84.711 E7.664
G1 X138.058 Y85.386 E7.69206
G1 X138.191 Y85.579 E7.69986
G1 X138.68 Y86.359 E7.73048
G1 X138.973 Y86.912 E7.75129
G1 X139.292 Y87.56 E7.77532
G1 X139.662 Y88.403 E7.80594
G1 X140.007 Y89.447 E7.84251
G1 X140.156 Y89.992 E7.8613
G1 X140.36 Y90.889 E7.89189
G1 X140.433 Y91.352 E7.90748
G1 X140.477 Y91.674 E7.91829
G1 X140.573 Y92.884 E7.95866
G1 X140.6 Y94.284 E8.00524
G1 X140.599 Y125.989 E9.05975
G1 X140.589 Y126.753 E9.08516
G1 X140.57 Y127.263 E9.10214
G1 X140.55 Y127.589 E9.113
G1 X140.447 Y128.552 E9.14521
G1 X140.393 Y128.903 E9.15702
G1 X140.187 Y129.91 E9.19121
G1 X140.11 Y130.212 E9.20158
G1 X139.844 Y131.093 E9.23219
G1 X139.586 Y131.759 E9.25594
G1 X139.318 Y132.386 E9.27862
G1 X138.92 Y133.216 E9.30924
G1 X138.295 Y134.24 E9.34914
G1 X137.892 Y134.824 E9.37274
G1 X137.337 Y135.559 E9.40337
G1 X136.912 Y136.042 E9.42477
G1 X136.712 Y136.256 E9.43451
G1 X135.932 Y137.009 E9.47057
G1 X135.652 Y137.253 E9.48292
G1 X134.822 Y137.907 E9.51807
G1 X134.55 Y138.1 E9.52916
G1 X133.795 Y138.589 E9.55908
G1 X133.615 Y138.695 E9.56603
G1 X132.677 Y139.186 E9.60124
G1 X132.198 Y139.407 E9.61879
G1 X130.984 Y139.879 E9.66211
G1 X130.79 Y139.941 E9.66888
G1 X130.097 Y140.137 E9.69284
G1 X129.768 Y140.218 E9.70411
G1 X128.818 Y140.406 E9.73632
G1 X128.56 Y140.445 E9.74499
G1 X127.58 Y140.547 E9.77776
G1 X127.317 Y140.562 E9.78653
G1 X126.936 Y140.577 E9.79921
G1 X125.716 Y140.6 E9.83979
G1 X93.978 Y140.599 E10.8954
G1 X93.239 Y140.589 E10.91998
G1 X92.725 Y140.57 E10.93709
G1 X92.403 Y140.55 E10.94782
G1 X91.464 Y140.449 E10.97923
G1 X91.162 Y140.403 E10.98939
G1 X90.385 Y140.255 E11.0157
G1 X90.176 Y140.207 E11.02283
G1 X89.249 Y139.949 E11.05484
G1 X88.84 Y139.815 E11.06915
G1 X87.667 Y139.352 E11.1111
G1 X87.334 Y139.197 E11.12331
G1 X86.294 Y138.641 E11.16254
G1 X86.046 Y138.49 E11.17219
G1 X85.387 Y138.054 E11.19848
G1 X85.091 Y137.842 E11.21058
G1 X84.134 Y137.069 E11.2515
G1 X83.86 Y136.82 E11.26382
G1 X83.085 Y136.038 E11.30043
G1 X82.934 Y135.869 E11.30797
G1 X82.608 Y135.486 E11.3247
G1 X82.44 Y135.279 E11.33357
G1 X81.926 Y134.591 E11.36213
G1 X81.791 Y134.394 E11.37007
G1 X81.304 Y133.613 E11.40069
G1 X81.025 Y133.083 E11.42061
G1 X80.708 Y132.439 E11.44448
G1 X80.337 Y131.596 E11.47512
G1 X80.116 Y130.968 E11.49726
G1 X80.055 Y130.776 E11.50396
G1 X79.872 Y130.13 E11.52629
G1 X79.784 Y129.777 E11.53839
G1 X79.567 Y128.648 E11.57663
G1 X79.523 Y128.326 E11.58744
G1 X79.427 Y127.116 E11.62781
G1 X79.4 Y125.716 E11.67438
G1 X79.401 Y93.945 E12.73109
G1 X79.411 Y93.234 E12.75474
G1 X79.43 Y92.73 E12.77151
G1 X79.45 Y92.406 E12.78231
G1 X79.552 Y91.452 E12.81422
G1 X79.598 Y91.152 E12.82432
G1 X79.742 Y90.397 E12.84988
G1 X79.79 Y90.187 E12.85705
G1 X80.048 Y89.256 E12.88918
G1 X80.181 Y88.849 E12.90342
G1 X80.649 Y87.666 E12.94573
G1 X80.806 Y87.329 E12.9581
G1 X81.367 Y86.282 E12.99761
G1 X81.519 Y86.033 E13.00731
G1 X81.952 Y85.378 E13.03342
G1 X82.165 Y85.081 E13.04558
G1 X82.938 Y84.126 E13.08644
G1 X83.18 Y83.86 E13.09841
G1 X83.949 Y83.097 E13.13444
G1 X84.131 Y82.934 E13.14256
G1 X84.541 Y82.585 E13.16047
G1 X84.739 Y82.425 E13.16894
G1 X85.479 Y81.878 E13.19954
G1 X85.903 Y81.608 E13.21626
G1 X86.409 Y81.301 E13.23595
G1 X87.216 Y80.858 E13.26657
G1 X87.657 Y80.652 E13.28276
G1 X87.954 Y80.522 E13.29354
G1 X88.878 Y80.168 E13.32645
G1 X89.111 Y80.091 E13.33461
G1 X89.903 Y79.863 E13.36202
G1 X90.232 Y79.782 E13.37329
G1 X91.182 Y79.594 E13.4055
G1 X91.44 Y79.555 E13.41418
G1 X92.402 Y79.454 E13.44635
G1 X92.64 Y79.44 E13.45428
G1 X93.044 Y79.424 E13.46773
G1 X94.332 Y79.4 E13.51058
G1 X125.95 Y79.403 E14.5622
G1 X126.876 Y79.415 E14.593
G0 F6000 X126.882 Y79.015
G1 F1200 X127.993 Y79.087 E14.63003
G1 X128.502 Y79.146 E14.64707
G1 X129.428 Y79.294 E14.67826
G1 X130.451 Y79.553 E14.71336
G1 X131.138 Y79.763 E14.73725
G1 X132.022 Y80.076 E14.76844
G1 X132.68 Y80.365 E14.79235
G1 X132.951 Y80.495 E14.80234
G1 X133.914 Y81.018 E14.83879
G1 X134.162 Y81.169 E14.84845
G1 X134.846 Y81.621 E14.87572
G1 X135.142 Y81.833 E14.88783
G1 X136.119 Y82.621 E14.92957
G1 X136.383 Y82.86 E14.94142
G1 X137.163 Y83.64 E14.97811
G1 X137.313 Y83.806 E14.98555
G1 X137.684 Y84.239 E15.00451
G1 X137.863 Y84.459 E15.01395
G1 X138.388 Y85.159 E15.04305
G1 X138.521 Y85.352 E15.05084
G1 X139.019 Y86.146 E15.08202
G1 X139.332 Y86.736 E15.10423
G1 X139.651 Y87.384 E15.12825
G1 X140.029 Y88.242 E15.15944
G1 X140.393 Y89.341 E15.19794
G1 X140.542 Y89.886 E15.21674
G1 X140.75 Y90.801 E15.24795
G1 X140.83 Y91.298 E15.26469
G1 X140.874 Y91.62 E15.2755
G1 X140.973 Y92.875 E15.31737
G1 X141 Y94.284 E15.36424
G1 X140.999 Y125.994 E16.41892
G1 X140.989 Y126.758 E16.44433
G1 X140.969 Y127.288 E16.46197
G1 X140.949 Y127.614 E16.47284
G1 X140.842 Y128.613 E16.50625
G1 X140.788 Y128.964 E16.51806
G1 X140.575 Y130.009 E16.55354
G1 X140.498 Y130.311 E16.5639
G1 X140.228 Y131.209 E16.59509
G1 X139.954 Y131.916 E16.62031
G1 X139.686 Y132.543 E16.64299
G1 X139.281 Y133.389 E16.67418
G1 X138.625 Y134.468 E16.71618
G1 X138.222 Y135.052 E16.73978
G1 X137.656 Y135.8 E16.77098
G1 X137.205 Y136.315 E16.79375
G1 X137.005 Y136.529 E16.80349
G1 X136.195 Y137.311 E16.84094
G1 X135.915 Y137.555 E16.85329
G1 X135.054 Y138.233 E16.88974
G1 X134.782 Y138.426 E16.90084
G1 X133.998 Y138.934 E16.93191
G1 X133.818 Y139.04 E16.93886
G1 X132.844 Y139.549 E16.97541
G1 X132.365 Y139.77 E16.99295
G1 X131.106 Y140.26 E17.03789
G1 X130.912 Y140.322 E17.04466
G1 X130.193 Y140.525 E17.06951
G1 X129.864 Y140.606 E17.08078
G1 X128.878 Y140.801 E17.11421
G1 X128.62 Y140.84 E17.12289
G1 X127.602 Y140.946 E17.15693
G1 X127.339 Y140.961 E17.16569
G1 X126.945 Y140.977 E17.17881
G1 X125.716 Y141 E17.21969
G1 X93.972 Y140.999 E18.2755
G1 X93.233 Y140.989 E18.30008
G1 X92.7 Y140.969 E18.31782
G1 X92.378 Y140.949 E18.32855
G1 X91.404 Y140.845 E18.36113
G1 X91.102 Y140.799 E18.37129
G1 X90.296 Y140.645 E18.39858
G1 X90.087 Y140.597 E18.40572
G1 X89.124 Y140.329 E18.43896
G1 X88.715 Y140.195 E18.45328
G1 X87.498 Y139.715 E18.49679
G1 X87.165 Y139.56 E18.50901
G1 X86.086 Y138.982 E18.54972
G1 X85.838 Y138.831 E18.55938
G1 X85.154 Y138.379 E18.58665
G1 X84.858 Y138.167 E18.59876
G1 X83.865 Y137.365 E18.64121
G1 X83.591 Y137.116 E18.65352
G1 X82.786 Y136.304 E18.69155
G1 X82.635 Y136.135 E18.69909
G1 X82.297 Y135.738 E18.71643
G1 X82.129 Y135.531 E18.7253
G1 X81.596 Y134.817 E18.75493
G1 X81.461 Y134.62 E18.76288
G1 X80.964 Y133.825 E18.79406
G1 X80.666 Y133.26 E18.81531
G1 X80.349 Y132.616 E18.83918
G1 X79.971 Y131.758 E18.87036
G1 X79.734 Y131.089 E18.89397
G1 X79.673 Y130.897 E18.90067
G1 X79.484 Y130.227 E18.92383
G1 X79.396 Y129.874 E18.93593
G1 X79.17 Y128.702 E18.97562
G1 X79.126 Y128.38 E18.98643
G1 X79.027 Y127.125 E19.0283
G1 X79 Y125.716 E19.07518
G1 X79.001 Y93.939 E20.13208
G1 X79.011 Y93.228 E20.15573
G1 X79.031 Y92.705 E20.17314
G1 X79.051 Y92.381 E20.18394
G1 X79.157 Y91.392 E20.21702
G1 X79.203 Y91.092 E20.22712
G1 X79.353 Y90.308 E20.25367
G1 X79.401 Y90.098 E20.26083
G1 X79.668 Y89.132 E20.29416
G1 X79.801 Y88.725 E20.30841
G1 X80.286 Y87.497 E20.35232
G1 X80.443 Y87.16 E20.36468
G1 X81.025 Y86.074 E20.40566
G1 X81.177 Y85.825 E20.41537
G1 X81.627 Y85.145 E20.44249
G1 X81.84 Y84.848 E20.45464
G1 X82.642 Y83.857 E20.49705
G1 X82.884 Y83.591 E20.50901
G1 X83.682 Y82.799 E20.5464
G1 X83.864 Y82.636 E20.55453
G1 X84.289 Y82.274 E20.5731
G1 X84.487 Y82.114 E20.58156
G1 X85.241 Y81.556 E20.61276
G1 X85.695 Y81.266 E20.63068
G1 X86.201 Y80.959 E20.65036
G1 X87.023 Y80.507 E20.68157
G1 X87.496 Y80.286 E20.69893
G1 X87.793 Y80.156 E20.70971
G1 X88.752 Y79.789 E20.74387
G1 X88.985 Y79.712 E20.75203
G1 X89.807 Y79.475 E20.78048
G1 X90.136 Y79.394 E20.79175
G1 X91.122 Y79.199 E20.82518
G1 X91.38 Y79.16 E20.83386
G1 X92.378 Y79.055 E20.86724
G1 X92.616 Y79.041 E20.87516
G1 X93.036 Y79.024 E20.88915
G1 X94.332 Y79 E20.93226
G1 X125.95 Y79.003 E21.98388
G1 X126.882 Y79.015 E22.01488
G1 F2700 E17.01488
;MESH:BigTable.stl
G0 F6000 X126.631 Y89.337
G0 X126.631 Y90.423
G0 X92.946 Y90.813
G0 X92.215 Y91.061
G0 X91.572 Y91.521
G0 X91.084 Y92.168
G0 X90.825 Y92.885
G0 X90.771 Y93.435
G0 X90.782 Y126.806
G0 X90.946 Y127.53
G0 X91.336 Y128.216
G0 X91.864 Y128.711
G0 X93.118 Y129.383
;TYPE:WALL-INNER
G1 F2700 E22.01488
G1 F1200 X92.839 Y129.339 E22.02427
G1 X92.621 Y129.285 E22.03174
G1 X92.37 Y129.198 E22.04058
G1 X92.089 Y129.067 E22.05089
G1 X91.822 Y128.904 E22.06129
G1 X91.638 Y128.768 E22.0689
G1 X91.401 Y128.551 E22.07959
G1 X91.198 Y128.318 E22.08987
G1 X91.034 Y128.085 E22.09935
G1 X90.891 Y127.828 E22.10913
G1 X90.785 Y127.588 E22.11786
G1 X90.698 Y127.319 E22.12726
G1 X90.654 Y127.123 E22.13394
G1 X90.611 Y126.822 E22.14405
G1 X90.602 Y126.598 E22.15151
G1 X90.6 Y125.756 E22.17951
G1 X90.6 Y93.424 E23.25488
G1 X90.617 Y93.117 E23.26511
G1 X90.66 Y92.842 E23.27436
G1 X90.715 Y92.619 E23.282
G1 X90.803 Y92.367 E23.29088
G1 X90.933 Y92.089 E23.30109
G1 X91.096 Y91.822 E23.31149
G1 X91.232 Y91.638 E23.3191
G1 X91.449 Y91.401 E23.32979
G1 X91.682 Y91.198 E23.34007
G1 X91.918 Y91.032 E23.34967
G1 X92.133 Y90.91 E23.35789
G1 X92.429 Y90.779 E23.36865
G1 X92.673 Y90.7 E23.37719
G1 X92.911 Y90.646 E23.3853
G1 X93.17 Y90.612 E23.39399
G1 X93.409 Y90.602 E23.40195
G1 X94.399 Y90.6 E23.43487
G1 X126.622 Y90.603 E24.50662
G1 X126.868 Y90.615 E24.51481
G1 X127.104 Y90.649 E24.52274
G1 X127.15 Y90.658 E24.5243
G1 X127.382 Y90.715 E24.53224
G1 X127.658 Y90.813 E24.54198
G1 X127.905 Y90.93 E24.55107
G1 X128.188 Y91.102 E24.56209
G1 X128.356 Y91.227 E24.56905
G1 X128.599 Y91.449 E24.58
G1 X128.802 Y91.682 E24.59028
G1 X128.966 Y91.915 E24.59976
G1 X129.109 Y92.172 E24.60954
G1 X129.215 Y92.412 E24.61826
G1 X129.302 Y92.681 E24.62767
G1 X129.346 Y92.877 E24.63435
G1 X129.389 Y93.178 E24.64446
G1 X129.398 Y93.402 E24.65192
G1 X129.4 Y94.244 E24.67992
G1 X129.4 Y126.576 E25.75529
G1 X129.383 Y126.883 E25.76552
G1 X129.34 Y127.155 E25.77468
G1 X129.275 Y127.412 E25.78349
G1 X129.199 Y127.626 E25.79105
G1 X129.067 Y127.911 E25.80149
G1 X128.901 Y128.183 E25.81209
G1 X128.75 Y128.384 E25.82045
G1 X128.554 Y128.597 E25.83008
G1 X128.318 Y128.802 E25.84048
G1 X128.085 Y128.966 E25.84995
G1 X127.829 Y129.108 E25.85969
G1 X127.588 Y129.215 E25.86846
G1 X127.317 Y129.302 E25.87793
G1 X127.089 Y129.354 E25.88571
G1 X126.83 Y129.388 E25.89439
G1 X126.591 Y129.398 E25.90235
G1 X125.756 Y129.4 E25.93012
G1 X93.427 Y129.4 E27.00539
G1 X93.118 Y129.383 E27.01568
G0 F6000 X93.072 Y129.781
;TYPE:WALL-OUTER
G1 F1200 X92.763 Y129.732 E27.02609
G1 X92.5 Y129.667 E27.0351
