;FLAVOR:Marlin
;TIME:2895
;Filament used: 3.62176m
;Layer height: 0.2
;MINX:79
;MINY:79.001
;MINZ:0.2
;MAXX:141
;MAXY:141
;MAXZ:29.96
;Generated with Cura_SteamEngine 4.6.1
M140 S50
M105
M190 S50
M104 S200
M105
M109 S200
M82 ;absolute extrusion mode
M201 X500.00 Y500.00 Z100.00 E5000.00 ;Setup machine max acceleration
M203 X500.00 Y500.00 Z10.00 E50.00 ;Setup machine max feedrate
M204 P500.00 R1000.00 T500.00 ;Setup Print/Retract/Travel acceleration
M205 X8.00 Y8.00 Z0.40 E5.00 ;Setup Jerk
M220 S100 ;Reset Feedrate
M221 S100 ;Reset Flowrate

G28 ;Home

G92 E0 ;Reset Extruder
G1 Z2.0 F3000 ;Move Z Axis up
G1 X10.1 Y20 Z0.28 F5000.0 ;Move to start position
G1 X10.1 Y200.0 Z0.28 F1500.0 E15 ;Draw the first line
G1 X10.4 Y200.0 Z0.28 F5000.0 ;Move to side a little
G1 X10.4 Y20 Z0.28 F1500.0 E30 ;Draw the second line
G92 E0 ;Reset Extruder
G1 Z2.0 F3000 ;Move Z Axis up

G92 E0
G92 E0
G1 F2700 E-5
;LAYER_COUNT:126
;LAYER:0
M107
G0 F6000 X126.779 Y79.812 Z0.2
;TYPE:SKIRT
G1 F2700 E0
G1 F1200 X127.254 Y79.83 E0.01581
G1 X127.564 Y79.849 E0.02614
G1 X128.491 Y79.949 E0.05715
G1 X128.842 Y80.003 E0.06896
G1 X129.732 Y80.18 E0.09914
G1 X129.947 Y80.233 E0.10651
G1 X130.814 Y80.488 E0.13657
G1 X131.367 Y80.696 E0.15622
G1 X132.081 Y80.988 E0.18187
G1 X132.901 Y81.367 E0.21192
G1 X133.537 Y81.725 E0.23619
G1 X133.758 Y81.86 E0.24481
G1 X134.38 Y82.271 E0.2696
G1 X134.676 Y82.483 E0.28171
G1 X135.583 Y83.214 E0.32046
G1 X135.847 Y83.453 E0.3323
G1 X136.569 Y84.176 E0.36629
G1 X136.719 Y84.342 E0.37373
G1 X137.316 Y85.067 E0.40497
G1 X137.641 Y85.501 E0.423
G1 X138.36 Y86.604 E0.46679
G1 X138.492 Y86.838 E0.47573
G1 X138.914 Y87.672 E0.50681
G1 X139.072 Y88.024 E0.51965
G1 X139.443 Y88.975 E0.5536
G1 X139.521 Y89.209 E0.5618
G1 X139.752 Y90.01 E0.58953
G1 X139.833 Y90.341 E0.60086
G1 X140.009 Y91.23 E0.63101
G1 X140.048 Y91.486 E0.63962
G1 X140.147 Y92.433 E0.67129
G1 X140.161 Y92.675 E0.67935
G1 X140.177 Y93.095 E0.69333
G1 X140.2 Y94.595 E0.74323
G1 X140.196 Y126.093 E1.79085
G1 X140.185 Y126.87 E1.8167
G1 X140.15 Y127.587 E1.84058
G1 X140.124 Y127.894 E1.85082
G1 X139.942 Y129.129 E1.89234
G1 X139.849 Y129.572 E1.9074
G1 X139.569 Y130.625 E1.94364
G1 X139.446 Y131.004 E1.95689
G1 X138.992 Y132.158 E1.99814
G1 X138.838 Y132.489 E2.01028
G1 X138.375 Y133.368 E2.04332
G1 X138.27 Y133.546 E2.0502
G1 X137.761 Y134.326 E2.08117
G1 X137.444 Y134.766 E2.09921
G1 X136.619 Y135.77 E2.14243
G1 X136.418 Y135.985 E2.15222
G1 X135.753 Y136.634 E2.18313
G1 X135.597 Y136.773 E2.19008
G1 X134.906 Y137.336 E2.21972
G1 X134.482 Y137.652 E2.23731
G1 X133.374 Y138.372 E2.28126
G1 X133.101 Y138.525 E2.29167
G1 X132.253 Y138.949 E2.3232
G1 X132.012 Y139.056 E2.33197
G1 X131.254 Y139.357 E2.3591
G1 X130.958 Y139.461 E2.36953
G1 X130.051 Y139.733 E2.40103
G1 X129.691 Y139.823 E2.41337
G1 X128.695 Y140.02 E2.44714
G1 X128.374 Y140.067 E2.45793
G1 X127.098 Y140.173 E2.50051
G1 X125.706 Y140.199 E2.54682
G1 X125.283 Y140.2 E2.56089
G1 X93.983 Y140.199 E3.60193
G1 X93.245 Y140.189 E3.62648
G1 X92.753 Y140.171 E3.64286
G1 X92.43 Y140.151 E3.65362
G1 X91.509 Y140.051 E3.68443
G1 X91.158 Y139.997 E3.69624
G1 X90.268 Y139.82 E3.72642
G1 X90.053 Y139.767 E3.73379
G1 X89.186 Y139.512 E3.76385
G1 X88.631 Y139.303 E3.78357
G1 X87.915 Y139.01 E3.8093
G1 X87.095 Y138.631 E3.83935
G1 X86.456 Y138.272 E3.86373
G1 X86.232 Y138.135 E3.87246
G1 X85.604 Y137.718 E3.89753
G1 X85.313 Y137.509 E3.90945
G1 X84.403 Y136.773 E3.94838
G1 X84.129 Y136.524 E3.96069
G1 X83.383 Y135.771 E3.99594
G1 X83.232 Y135.602 E4.00348
G1 X82.918 Y135.234 E4.01957
G1 X82.75 Y135.027 E4.02844
G1 X82.213 Y134.301 E4.05847
G1 X81.95 Y133.89 E4.0747
G1 X81.643 Y133.384 E4.09439
G1 X81.023 Y132.191 E4.13911
G1 X80.894 Y131.897 E4.14978
G1 X80.549 Y131 E4.18175
G1 X80.47 Y130.761 E4.19012
G1 X80.246 Y129.98 E4.21715
G1 X80.161 Y129.632 E4.22906
G1 X79.974 Y128.664 E4.26185
G1 X79.929 Y128.351 E4.27237
G1 X79.826 Y127.07 E4.31511
G1 X79.8 Y125.406 E4.37046
G1 X79.801 Y93.983 E5.4156
G1 X79.811 Y93.245 E5.44015
G1 X79.829 Y92.755 E5.45645
G1 X79.849 Y92.431 E5.46725
G1 X79.955 Y91.47 E5.49941
G1 X80.014 Y91.096 E5.512
G1 X80.22 Y90.109 E5.54554
G1 X80.297 Y89.814 E5.55568
G1 X80.563 Y88.951 E5.58571
G1 X80.799 Y88.352 E5.60713
G1 X81.062 Y87.742 E5.62922
G1 X81.456 Y86.929 E5.65927
G1 X81.725 Y86.463 E5.67716
G1 X81.86 Y86.242 E5.68578
G1 X82.273 Y85.617 E5.71069
G1 X82.488 Y85.317 E5.72297
G1 X83.234 Y84.395 E5.76242
G1 X83.476 Y84.129 E5.77438
G1 X84.205 Y83.405 E5.80855
G1 X84.382 Y83.246 E5.81646
G1 X84.788 Y82.9 E5.83421
G1 X84.991 Y82.736 E5.84288
G1 X85.718 Y82.2 E5.87293
G1 X86.11 Y81.95 E5.88839
G1 X86.616 Y81.643 E5.90808
G1 X87.809 Y81.023 E5.95279
G1 X88.103 Y80.894 E5.96347
G1 X88.988 Y80.553 E5.99502
G1 X89.22 Y80.476 E6.00315
G1 X89.972 Y80.258 E6.02919
G1 X90.326 Y80.17 E6.04132
G1 X91.382 Y79.966 E6.07709
G1 X91.684 Y79.924 E6.08723
G1 X92.892 Y79.829 E6.12754
G1 X94.383 Y79.802 E6.17713
G1 X126.025 Y79.801 E7.22955
G1 X126.779 Y79.812 E7.25463
G0 F6000 X126.785 Y79.412
G1 F1200 X127.278 Y79.431 E7.27104
G1 X127.588 Y79.45 E7.28137
G1 X128.552 Y79.553 E7.31362
G1 X128.903 Y79.607 E7.32543
G1 X129.828 Y79.792 E7.3568
G1 X130.043 Y79.845 E7.36417
G1 X130.927 Y80.104 E7.39481
G1 X131.518 Y80.326 E7.4158
G1 X132.232 Y80.618 E7.44146
G1 X133.069 Y81.003 E7.4721
G1 X133.746 Y81.383 E7.49793
G1 X133.967 Y81.518 E7.50654
G1 X134.613 Y81.946 E7.53231
G1 X134.909 Y82.158 E7.54442
G1 X135.851 Y82.918 E7.58468
G1 X136.115 Y83.157 E7.59652
G1 X136.866 Y83.908 E7.63185
G1 X137.016 Y84.074 E7.63929
G1 X137.636 Y84.827 E7.67173
G1 X137.961 Y85.261 E7.68977
G1 X138.708 Y86.407 E7.73526
G1 X138.84 Y86.641 E7.7442
G1 X139.278 Y87.508 E7.77651
G1 X139.436 Y87.86 E7.78934
G1 X139.822 Y88.849 E7.82465
G1 X139.9 Y89.083 E7.83286
G1 X140.14 Y89.915 E7.86166
G1 X140.221 Y90.246 E7.87299
G1 X140.404 Y91.17 E7.90432
G1 X140.443 Y91.426 E7.91293
G1 X140.546 Y92.41 E7.94584
G1 X140.56 Y92.652 E7.9539
G1 X140.577 Y93.089 E7.96845
G1 X140.6 Y94.595 E8.01854
G1 X140.596 Y126.099 E9.06637
G1 X140.585 Y126.876 E9.09222
G1 X140.548 Y127.621 E9.11702
G1 X140.522 Y127.928 E9.12727
G1 X140.334 Y129.211 E9.1704
G1 X140.241 Y129.654 E9.18546
G1 X139.949 Y130.748 E9.22312
G1 X139.826 Y131.127 E9.23637
G1 X139.355 Y132.326 E9.27921
G1 X139.201 Y132.657 E9.29136
G1 X138.72 Y133.572 E9.32574
G1 X138.615 Y133.75 E9.33261
G1 X138.085 Y134.56 E9.36481
G1 X137.768 Y135 E9.38284
G1 X136.911 Y136.043 E9.42774
G1 X136.71 Y136.258 E9.43753
G1 X136.019 Y136.933 E9.46966
G1 X135.863 Y137.072 E9.47661
G1 X135.145 Y137.657 E9.50741
G1 X134.721 Y137.973 E9.525
G1 X133.569 Y138.721 E9.57069
G1 X133.296 Y138.874 E9.5811
G1 X132.415 Y139.315 E9.61386
G1 X132.174 Y139.422 E9.62263
G1 X131.387 Y139.735 E9.6508
G1 X131.091 Y139.839 E9.66124
G1 X130.148 Y140.122 E9.69399
G1 X129.788 Y140.212 E9.70633
G1 X128.753 Y140.416 E9.74141
G1 X128.432 Y140.463 E9.7522
G1 X127.106 Y140.573 E9.79646
G1 X125.707 Y140.599 E9.843
G1 X125.284 Y140.6 E9.85707
G1 X93.977 Y140.599 E10.89834
G1 X93.239 Y140.589 E10.92289
G1 X92.728 Y140.57 E10.9399
G1 X92.405 Y140.55 E10.95066
G1 X91.448 Y140.447 E10.98267
G1 X91.097 Y140.393 E10.99449
G1 X90.172 Y140.208 E11.02586
G1 X89.957 Y140.155 E11.03323
G1 X89.073 Y139.896 E11.06386
G1 X88.479 Y139.673 E11.08497
G1 X87.763 Y139.38 E11.1107
G1 X86.927 Y138.995 E11.14131
G1 X86.247 Y138.613 E11.16725
G1 X86.023 Y138.476 E11.17599
G1 X85.371 Y138.043 E11.20202
G1 X85.08 Y137.834 E11.21393
G1 X84.134 Y137.069 E11.2544
G1 X83.86 Y136.82 E11.26671
G1 X83.085 Y136.038 E11.30333
G1 X82.934 Y135.869 E11.31087
G1 X82.608 Y135.486 E11.3276
G1 X82.44 Y135.279 E11.33646
G1 X81.891 Y134.539 E11.36711
G1 X81.608 Y134.097 E11.38457
G1 X81.301 Y133.591 E11.40425
G1 X80.858 Y132.784 E11.43487
G1 X80.656 Y132.352 E11.45073
G1 X80.527 Y132.058 E11.46141
G1 X80.17 Y131.126 E11.49461
G1 X80.091 Y130.887 E11.50298
G1 X79.858 Y130.075 E11.53107
G1 X79.773 Y129.727 E11.54299
G1 X79.578 Y128.72 E11.5771
G1 X79.533 Y128.407 E11.58762
G1 X79.426 Y127.076 E11.63203
G1 X79.4 Y125.406 E11.68759
G1 X79.401 Y93.977 E12.73292
G1 X79.411 Y93.239 E12.75747
G1 X79.43 Y92.73 E12.77441
G1 X79.45 Y92.406 E12.7852
G1 X79.559 Y91.407 E12.81863
G1 X79.618 Y91.033 E12.83122
G1 X79.833 Y90.008 E12.86606
G1 X79.91 Y89.713 E12.8762
G1 X80.181 Y88.833 E12.90682
G1 X80.432 Y88.193 E12.92969
G1 X80.695 Y87.583 E12.95178
G1 X81.096 Y86.754 E12.98241
G1 X81.383 Y86.254 E13.00158
G1 X81.518 Y86.033 E13.0102
G1 X81.948 Y85.384 E13.03609
G1 X82.163 Y85.084 E13.04837
G1 X82.938 Y84.126 E13.08935
G1 X83.18 Y83.86 E13.10131
G1 X83.937 Y83.107 E13.13683
G1 X84.114 Y82.948 E13.14474
G1 X84.537 Y82.589 E13.16319
G1 X84.74 Y82.425 E13.17187
G1 X85.48 Y81.878 E13.20248
G1 X85.903 Y81.608 E13.21917
G1 X86.409 Y81.301 E13.23885
G1 X87.216 Y80.858 E13.26947
G1 X87.648 Y80.656 E13.28533
G1 X87.942 Y80.527 E13.29601
G1 X88.862 Y80.174 E13.32879
G1 X89.094 Y80.097 E13.33692
G1 X89.876 Y79.87 E13.364
G1 X90.23 Y79.782 E13.37613
G1 X91.327 Y79.57 E13.41329
G1 X91.629 Y79.528 E13.42344
G1 X92.884 Y79.429 E13.46531
G1 X94.383 Y79.402 E13.51517
G1 X126.031 Y79.401 E14.56779
G1 X126.785 Y79.412 E14.59287
G0 F6000 X126.79 Y79.012
G1 F1200 X127.303 Y79.032 E14.60995
G1 X127.613 Y79.051 E14.62028
G1 X128.613 Y79.158 E14.65373
G1 X128.964 Y79.212 E14.66554
G1 X129.924 Y79.404 E14.6981
G1 X130.139 Y79.457 E14.70546
G1 X131.039 Y79.72 E14.73665
G1 X131.67 Y79.956 E14.75906
G1 X132.384 Y80.248 E14.78471
G1 X133.236 Y80.639 E14.81589
G1 X133.954 Y81.042 E14.84328
G1 X134.175 Y81.177 E14.85189
G1 X134.846 Y81.621 E14.87865
G1 X135.142 Y81.833 E14.89076
G1 X136.119 Y82.621 E14.93251
G1 X136.383 Y82.86 E14.94435
G1 X137.163 Y83.64 E14.98104
G1 X137.313 Y83.806 E14.98848
G1 X137.956 Y84.587 E15.02213
G1 X138.281 Y85.021 E15.04017
G1 X138.811 Y85.795 E15.07137
G1 X139.057 Y86.21 E15.08741
G1 X139.189 Y86.444 E15.09635
G1 X139.643 Y87.344 E15.12987
G1 X139.801 Y87.696 E15.14271
G1 X140.202 Y88.722 E15.17935
G1 X140.28 Y88.956 E15.18755
G1 X140.529 Y89.82 E15.21746
G1 X140.61 Y90.151 E15.22879
G1 X140.8 Y91.109 E15.26127
G1 X140.839 Y91.365 E15.26989
G1 X140.946 Y92.387 E15.30406
G1 X140.96 Y92.629 E15.31213
G1 X140.976 Y93.082 E15.3272
G1 X141 Y94.595 E15.37753
G1 X140.996 Y126.105 E16.42556
G1 X140.985 Y126.882 E16.4514
G1 X140.947 Y127.654 E16.47711
G1 X140.921 Y127.961 E16.48736
G1 X140.725 Y129.293 E16.53214
G1 X140.632 Y129.736 E16.54719
G1 X140.33 Y130.872 E16.58629
G1 X140.207 Y131.251 E16.59954
G1 X139.717 Y132.495 E16.64401
G1 X139.563 Y132.826 E16.65616
G1 X139.064 Y133.775 E16.69182
G1 X138.959 Y133.953 E16.69869
G1 X138.41 Y134.794 E16.73209
G1 X138.093 Y135.234 E16.75013
G1 X137.203 Y136.316 E16.79673
G1 X137.002 Y136.531 E16.80652
G1 X136.285 Y137.232 E16.83987
G1 X136.129 Y137.371 E16.84682
G1 X135.384 Y137.978 E16.87878
G1 X134.96 Y138.294 E16.89637
G1 X134.185 Y138.822 E16.92756
G1 X133.765 Y139.07 E16.94378
G1 X133.492 Y139.223 E16.95419
G1 X132.578 Y139.681 E16.98819
G1 X132.337 Y139.788 E16.99696
G1 X131.519 Y140.112 E17.02623
G1 X131.223 Y140.216 E17.03666
G1 X130.245 Y140.51 E17.07063
G1 X129.885 Y140.6 E17.08297
G1 X128.811 Y140.812 E17.11938
G1 X128.49 Y140.859 E17.13017
G1 X127.113 Y140.973 E17.17613
G1 X125.708 Y140.999 E17.22287
G1 X125.285 Y141 E17.23694
G1 X93.972 Y140.999 E18.27841
G1 X93.234 Y140.989 E18.30296
G1 X92.703 Y140.969 E18.32063
G1 X92.38 Y140.949 E18.3314
G1 X91.387 Y140.842 E18.36461
G1 X91.036 Y140.788 E18.37643
G1 X90.076 Y140.596 E18.40899
G1 X89.861 Y140.543 E18.41635
G1 X88.961 Y140.28 E18.44754
G1 X88.328 Y140.044 E18.47001
G1 X87.612 Y139.751 E18.49574
G1 X86.76 Y139.359 E18.52693
G1 X86.039 Y138.954 E18.55444
G1 X85.815 Y138.817 E18.56317
G1 X85.137 Y138.367 E18.59024
G1 X84.846 Y138.158 E18.60215
G1 X83.865 Y137.365 E18.64411
G1 X83.591 Y137.116 E18.65642
G1 X82.786 Y136.304 E18.69445
G1 X82.635 Y136.135 E18.70199
G1 X82.297 Y135.738 E18.71933
G1 X82.129 Y135.531 E18.7282
G1 X81.57 Y134.778 E18.75939
G1 X81.266 Y134.305 E18.77809
G1 X80.959 Y133.799 E18.79778
G1 X80.507 Y132.977 E18.82898
G1 X80.29 Y132.513 E18.84601
G1 X80.161 Y132.219 E18.85669
G1 X79.79 Y131.251 E18.89117
G1 X79.711 Y131.012 E18.89954
G1 X79.469 Y130.17 E18.92868
G1 X79.384 Y129.822 E18.9406
G1 X79.182 Y128.777 E18.976
G1 X79.137 Y128.464 E18.98651
G1 X79.027 Y127.083 E19.03259
G1 X79 Y125.406 E19.08838
G1 X79.001 Y93.972 E20.13388
G1 X79.011 Y93.234 E20.15842
G1 X79.031 Y92.705 E20.17603
G1 X79.051 Y92.381 E20.18683
G1 X79.164 Y91.345 E20.22149
G1 X79.223 Y90.971 E20.23408
G1 X79.446 Y89.907 E20.27024
G1 X79.523 Y89.612 E20.28038
G1 X79.798 Y88.715 E20.31159
G1 X80.065 Y88.035 E20.33588
G1 X80.328 Y87.425 E20.35798
G1 X80.736 Y86.58 E20.38919
G1 X81.042 Y86.046 E20.40966
G1 X81.177 Y85.825 E20.41827
G1 X81.623 Y85.151 E20.44515
G1 X81.838 Y84.851 E20.45743
G1 X82.642 Y83.857 E20.49995
G1 X82.884 Y83.591 E20.51191
G1 X83.67 Y82.81 E20.54876
G1 X83.847 Y82.651 E20.55668
G1 X84.285 Y82.277 E20.57583
G1 X84.488 Y82.113 E20.58451
G1 X85.242 Y81.556 E20.61569
G1 X85.695 Y81.266 E20.63358
G1 X86.201 Y80.959 E20.65327
G1 X87.023 Y80.507 E20.68447
G1 X87.487 Y80.29 E20.7015
G1 X87.781 Y80.161 E20.71218
G1 X88.736 Y79.794 E20.74621
G1 X88.968 Y79.717 E20.75434
G1 X89.779 Y79.482 E20.78242
G1 X90.133 Y79.394 E20.79456
G1 X91.272 Y79.174 E20.83314
G1 X91.574 Y79.132 E20.84328
G1 X92.877 Y79.029 E20.88676
G1 X94.383 Y79.002 E20.93685
G1 X126.036 Y79.001 E21.98964
G1 X126.79 Y79.012 E22.01472
G1 F2700 E17.01472
;MESH:CornerSeat.stl
G0 F6000 X126.562 Y89.336
G0 X126.563 Y90.42
G0 X128.083 Y91.238
G0 X128.672 Y91.792
G0 X129.06 Y92.487
G0 X129.217 Y93.176
G0 X129.216 Y126.839
G0 X129.041 Y127.565
G0 X128.62 Y128.273
G0 X128.009 Y128.813
G0 X127.309 Y129.127
G0 X125.258 Y129.4
;TYPE:WALL-INNER
G1 F2700 E22.01472
G1 F1200 X93.427 Y129.4 E23.07342
G1 X93.117 Y129.383 E23.08375
G1 X92.845 Y129.34 E23.09291
G1 X92.588 Y129.275 E23.10172
G1 X92.374 Y129.199 E23.10928
G1 X92.089 Y129.067 E23.11972
G1 X91.822 Y128.904 E23.13013
G1 X91.638 Y128.768 E23.13774
G1 X91.401 Y128.551 E23.14842
G1 X91.198 Y128.318 E23.1587
G1 X91.032 Y128.082 E23.1683
G1 X90.91 Y127.867 E23.17652
G1 X90.779 Y127.571 E23.18729
G1 X90.701 Y127.329 E23.19574
G1 X90.654 Y127.123 E23.20277
G1 X90.611 Y126.822 E23.21288
G1 X90.602 Y126.598 E23.22034
G1 X90.6 Y125.258 E23.26491
G1 X90.6 Y93.424 E24.32371
G1 X90.617 Y93.117 E24.33394
G1 X90.66 Y92.845 E24.3431
G1 X90.725 Y92.588 E24.35192
G1 X90.802 Y92.371 E24.35957
G1 X90.933 Y92.089 E24.36992
G1 X91.096 Y91.822 E24.38032
G1 X91.232 Y91.638 E24.38793
G1 X91.449 Y91.401 E24.39862
G1 X91.682 Y91.198 E24.4089
G1 X91.918 Y91.032 E24.41849
G1 X92.133 Y90.91 E24.42672
G1 X92.429 Y90.779 E24.43748
G1 X92.671 Y90.701 E24.44594
G1 X92.877 Y90.654 E24.45297
G1 X93.178 Y90.611 E24.46308
G1 X93.409 Y90.602 E24.47077
G1 X126.573 Y90.6 E25.57381
G1 X126.883 Y90.617 E25.58413
G1 X127.163 Y90.661 E25.59356
G1 X127.367 Y90.709 E25.60053
G1 X127.626 Y90.801 E25.60967
G1 X127.916 Y90.935 E25.6203
G1 X128.18 Y91.097 E25.6306
G1 X128.356 Y91.227 E25.63788
G1 X128.599 Y91.449 E25.64882
G1 X128.808 Y91.688 E25.65938
G1 X128.946 Y91.882 E25.6673
G1 X129.092 Y92.138 E25.6771
G1 X129.221 Y92.429 E25.68769
G1 X129.3 Y92.673 E25.69622
G1 X129.354 Y92.911 E25.70434
G1 X129.388 Y93.17 E25.71303
G1 X129.398 Y93.402 E25.72075
G1 X129.4 Y94.742 E25.76532
G1 X129.397 Y126.643 E26.82635
G1 X129.386 Y126.858 E26.83351
G1 X129.341 Y127.152 E26.8434
G1 X129.285 Y127.381 E26.85124
G1 X129.198 Y127.63 E26.86002
G1 X129.067 Y127.911 E26.87033
G1 X128.901 Y128.183 E26.88093
G1 X128.75 Y128.384 E26.88929
G1 X128.558 Y128.593 E26.89873
G1 X128.312 Y128.807 E26.90957
G1 X128.101 Y128.957 E26.91818
G1 X127.845 Y129.101 E26.92795
G1 X127.585 Y129.215 E26.9374
G1 X127.349 Y129.293 E26.94566
G1 X127.116 Y129.347 E26.95362
G1 X126.822 Y129.389 E26.9635
G1 X126.591 Y129.398 E26.97118
G1 X125.258 Y129.4 E27.01552
G0 F6000 X125.259 Y129.8
;TYPE:WALL-OUTER
G1 F1200 X93.425 Y129.8 E28.07432
G1 X93.072 Y129.781 E28.08608
G1 X92.761 Y129.732 E28.09655
G1 X92.473 Y129.659 E28.10643
G1 X92.219 Y129.569 E28.1154
