;FLAVOR:Marlin
;TIME:4254
;Filament used: 3.16185m
;Layer height: 0.2
;MINX:39.236
;MINY:69.344
;MINZ:0.24
;MAXX:180.764
;MAXY:150.66
;MAXZ:38.25
;Generated with Cura_SteamEngine 4.6.1
M140 S50
M105
M190 S50
M104 S200
M105
M109 S200
M82 ;absolute extrusion mode
M201 X500.00 Y500.00 Z100.00 E5000.00 ;Setup machine max acceleration
M203 X500.00 Y500.00 Z10.00 E50.00 ;Setup machine max feedrate
M204 P500.00 R1000.00 T500.00 ;Setup Print/Retract/Travel acceleration
M205 X8.00 Y8.00 Z0.40 E5.00 ;Setup Jerk
M220 S100 ;Reset Feedrate
M221 S100 ;Reset Flowrate

G28 ;Home

G92 E0 ;Reset Extruder
G1 Z2.0 F3000 ;Move Z Axis up
G1 X10.1 Y20 Z0.28 F5000.0 ;Move to start position
G1 X10.1 Y200.0 Z0.28 F1500.0 E15 ;Draw the first line
G1 X10.4 Y200.0 Z0.28 F5000.0 ;Move to side a little
G1 X10.4 Y20 Z0.28 F1500.0 E30 ;Draw the second line
G92 E0 ;Reset Extruder
G1 Z2.0 F3000 ;Move Z Axis up

G92 E0
G92 E0
G1 F2700 E-5
;LAYER_COUNT:213
;LAYER:-6
M107
G0 F12000 X67.686 Y75.139 Z0.24
;TYPE:SUPPORT-INTERFACE
G1 F2700 E0
G1 F1800 X68.34 Y74.553 E0.0701
G1 X68.466 Y74.447 E0.08324
G1 X69.184 Y73.893 E0.15563
G1 X69.324 Y73.793 E0.16936
G1 X70.336 Y73.136 E0.26568
G1 X71.572 Y72.407 E0.38022
G1 X72.371 Y71.972 E0.45284
G1 X72.536 Y71.889 E0.46759
G1 X73.352 Y71.52 E0.53907
G1 X73.484 Y71.466 E0.55046
G1 X74.494 Y71.101 E0.63618
G1 X75.368 Y70.851 E0.70875
G1 X75.54 Y70.808 E0.7229
G1 X76.394 Y70.629 E0.79255
G1 X76.585 Y70.596 E0.80802
G1 X77.447 Y70.481 E0.87744
G1 X77.643 Y70.462 E0.89316
G1 X78.537 Y70.408 E0.96465
G1 X78.675 Y70.405 E0.97567
G1 X79.616 Y70.417 E1.05079
G1 X79.752 Y70.424 E1.06166
G1 X80.657 Y70.503 E1.13418
G1 X80.814 Y70.522 E1.1468
G1 X81.702 Y70.664 E1.21859
G1 X81.883 Y70.7 E1.23332
G1 X82.759 Y70.907 E1.30517
G1 X82.91 Y70.948 E1.31766
G1 X83.759 Y71.216 E1.38873
G1 X83.922 Y71.274 E1.40254
G1 X84.758 Y71.607 E1.47437
G1 X84.92 Y71.679 E1.48852
G1 X85.713 Y72.062 E1.55882
G1 X85.876 Y72.147 E1.57349
G1 X86.422 Y72.455 E1.62353
G1 X87.627 Y73.17 E1.73538
G1 X88.432 Y73.687 E1.81175
G1 X88.56 Y73.777 E1.82424
G1 X89.402 Y74.413 E1.90847
G1 X90.082 Y75.006 E1.98049
G1 X90.197 Y75.114 E1.99309
G1 X90.948 Y75.878 E2.0786
G1 X91.529 Y76.557 E2.14994
G1 X91.658 Y76.72 E2.16653
G1 X92.179 Y77.426 E2.23657
G1 X92.268 Y77.556 E2.24915
G1 X92.749 Y78.322 E2.32135
G1 X92.843 Y78.486 E2.33644
G1 X93.408 Y79.571 E2.43408
G1 X94.42 Y81.738 E2.625
G1 X94.774 Y82.573 E2.69739
G1 X94.838 Y82.739 E2.71159
G1 X95.129 Y83.595 E2.78376
G1 X95.171 Y83.735 E2.79543
G1 X95.435 Y84.761 E2.88
G1 X95.569 Y85.445 E2.93564
G1 X96.022 Y88.123 E3.15244
G1 X96.174 Y88.775 E3.20588
G1 X96.413 Y89.415 E3.26042
G1 X96.731 Y90.019 E3.31491
G1 X97.122 Y90.579 E3.36943
G1 X97.581 Y91.085 E3.42396
G1 X98.099 Y91.528 E3.47837
G1 X98.671 Y91.903 E3.53296
G1 X99.284 Y92.203 E3.58744
G1 X99.93 Y92.424 E3.64194
G1 X100.6 Y92.56 E3.69652
G1 X101.33 Y92.611 E3.75493
G1 X118.669 Y92.611 E5.139
G1 X119.337 Y92.569 E5.19243
G1 X120.008 Y92.44 E5.24697
G1 X120.657 Y92.227 E5.3015
G1 X121.274 Y91.935 E5.35599
G1 X121.849 Y91.567 E5.41048
G1 X122.373 Y91.129 E5.465
G1 X122.837 Y90.629 E5.51945
G1 X123.236 Y90.073 E5.57408
G1 X123.56 Y89.473 E5.62851
G1 X123.807 Y88.836 E5.68304
G1 X123.978 Y88.124 E5.7415
G1 X124.447 Y85.365 E5.96489
G1 X124.628 Y84.49 E6.03622
G1 X124.67 Y84.316 E6.0505
G1 X124.92 Y83.44 E6.12322
G1 X124.968 Y83.292 E6.13564
G1 X125.338 Y82.289 E6.22098
G1 X125.623 Y81.64 E6.27756
G1 X126.644 Y79.466 E6.46928
G1 X127.15 Y78.494 E6.55676
G1 X127.602 Y77.753 E6.62604
G1 X127.711 Y77.589 E6.64176
G1 X128.215 Y76.883 E6.711
G1 X128.334 Y76.73 E6.72648
G1 X129.011 Y75.923 E6.81056
G1 X129.636 Y75.274 E6.88248
G1 X129.761 Y75.154 E6.89632
G1 X130.43 Y74.554 E6.96805
G1 X130.565 Y74.442 E6.98205
G1 X131.256 Y73.908 E7.05176
G1 X131.427 Y73.786 E7.06853
G1 X132.456 Y73.119 E7.16641
G1 X133.666 Y72.405 E7.27856
G1 X134.464 Y71.971 E7.35108
G1 X134.629 Y71.889 E7.36578
G1 X135.45 Y71.517 E7.43773
G1 X135.576 Y71.466 E7.44858
G1 X136.443 Y71.148 E7.5223
G1 X136.61 Y71.094 E7.53631
G1 X137.461 Y70.851 E7.60695
G1 X137.637 Y70.808 E7.62142
G1 X138.492 Y70.628 E7.69116
G1 X138.669 Y70.598 E7.70549
G1 X139.731 Y70.462 E7.79096
G1 X140.776 Y70.405 E7.8745
G1 X141.692 Y70.418 E7.94763
G1 X141.851 Y70.426 E7.96033
G1 X142.759 Y70.504 E8.03308
G1 X142.931 Y70.526 E8.04692
G1 X143.783 Y70.663 E8.11581
G1 X143.989 Y70.703 E8.13256
G1 X144.847 Y70.906 E8.20294
G1 X144.998 Y70.949 E8.21547
G1 X145.869 Y71.223 E8.28836
G1 X146.019 Y71.276 E8.30106
G1 X146.851 Y71.608 E8.37256
G1 X147.027 Y71.686 E8.38793
G1 X147.96 Y72.143 E8.47086
G1 X148.527 Y72.463 E8.52283
G1 X149.694 Y73.154 E8.63109
G1 X150.65 Y73.774 E8.72205
G1 X151.383 Y74.324 E8.7952
G1 X151.501 Y74.419 E8.80729
G1 X152.189 Y75.02 E8.88021
G1 X152.298 Y75.123 E8.89218
G1 X153.044 Y75.883 E8.97719
G1 X153.634 Y76.574 E9.04972
G1 X153.752 Y76.722 E9.06483
G1 X154.268 Y77.423 E9.13431
G1 X154.358 Y77.555 E9.14707
G1 X154.85 Y78.338 E9.22088
G1 X154.923 Y78.465 E9.23258
G1 X155.501 Y79.576 E9.33254
G1 X156.489 Y81.687 E9.5186
G1 X156.865 Y82.57 E9.59521
G1 X156.929 Y82.738 E9.60956
G1 X157.214 Y83.571 E9.67983
G1 X157.265 Y83.74 E9.69393
G1 X157.525 Y84.75 E9.77718
G1 X157.661 Y85.448 E9.83394
G1 X158.27 Y89.079 E10.12783
G1 X158.437 Y90.517 E10.24339
G1 X158.734 Y94.818 E10.58753
G1 X158.766 Y95.514 E10.64315
G1 X158.87 Y100.395 E11.03286
G1 X158.866 Y119.925 E12.59183
G1 X158.766 Y124.477 E12.95528
G1 X158.735 Y125.172 E13.01081
G1 X158.424 Y129.62 E13.36674
G1 X158.248 Y131.071 E13.48341
G1 X157.654 Y134.587 E13.76805
G1 X157.464 Y135.509 E13.84319
G1 X157.419 Y135.692 E13.85824
G1 X157.176 Y136.554 E13.92973
G1 X157.125 Y136.708 E13.94268
G1 X156.754 Y137.709 E14.02789
G1 X156.464 Y138.37 E14.08551
G1 X155.467 Y140.493 E14.27273
G1 X154.951 Y141.489 E14.36228
G1 X154.48 Y142.26 E14.4344
G1 X154.378 Y142.414 E14.44914
G1 X153.866 Y143.129 E14.51934
G1 X153.753 Y143.277 E14.5342
G1 X153.08 Y144.077 E14.61765
G1 X152.457 Y144.724 E14.68935
G1 X152.315 Y144.86 E14.70505
G1 X151.66 Y145.447 E14.77526
G1 X151.534 Y145.553 E14.7884
G1 X150.818 Y146.105 E14.86057
G1 X150.68 Y146.204 E14.87412
G1 X149.664 Y146.864 E14.97084
G1 X148.437 Y147.588 E15.08456
G1 X147.629 Y148.028 E15.158
G1 X147.468 Y148.109 E15.17239
G1 X146.648 Y148.48 E15.24423
G1 X146.516 Y148.534 E15.25561
G1 X145.506 Y148.899 E15.34134
G1 X144.632 Y149.149 E15.4139
G1 X144.462 Y149.192 E15.4279
G1 X143.606 Y149.371 E15.49771
G1 X143.415 Y149.404 E15.51318
G1 X142.553 Y149.519 E15.5826
G1 X142.357 Y149.538 E15.59832
G1 X141.463 Y149.592 E15.66981
G1 X141.325 Y149.595 E15.68083
G1 X140.384 Y149.583 E15.75595
G1 X140.248 Y149.576 E15.76682
G1 X139.343 Y149.497 E15.83934
G1 X139.186 Y149.478 E15.85196
G1 X138.298 Y149.336 E15.92375
G1 X138.117 Y149.3 E15.93848
G1 X137.241 Y149.093 E16.01033
G1 X137.09 Y149.052 E16.02282
G1 X136.241 Y148.784 E16.09389
G1 X136.078 Y148.726 E16.1077
G1 X135.237 Y148.391 E16.17996
G1 X135.08 Y148.321 E16.19368
G1 X134.287 Y147.938 E16.26398
G1 X134.124 Y147.853 E16.27865
G1 X133.578 Y147.545 E16.32869
G1 X132.373 Y146.83 E16.44054
G1 X131.563 Y146.31 E16.51737
G1 X131.443 Y146.226 E16.52907
G1 X130.705 Y145.673 E16.60268
G1 X130.591 Y145.581 E16.61437
G1 X129.908 Y144.985 E16.68673
G1 X129.784 Y144.869 E16.70029
G1 X129.05 Y144.12 E16.784
G1 X128.463 Y143.433 E16.85613
G1 X128.342 Y143.28 E16.8717
G1 X127.821 Y142.574 E16.94174
G1 X127.732 Y142.444 E16.95432
G1 X127.251 Y141.678 E17.02652
G1 X127.161 Y141.521 E17.04096
G1 X126.596 Y140.438 E17.13847
G1 X125.58 Y138.262 E17.33017
G1 X125.226 Y137.427 E17.40256
G1 X125.162 Y137.261 E17.41677
G1 X124.871 Y136.405 E17.48894
G1 X124.829 Y136.265 E17.5006
G1 X124.562 Y135.225 E17.58631
G1 X124.424 Y134.517 E17.64389
G1 X123.978 Y131.877 E17.85761
G1 X123.826 Y131.225 E17.91106
G1 X123.587 Y130.585 E17.96559
G1 X123.269 Y129.981 E18.02008
G1 X122.878 Y129.421 E18.0746
G1 X122.419 Y128.915 E18.12913
G1 X121.901 Y128.472 E18.18354
G1 X121.329 Y128.097 E18.23814
G1 X120.716 Y127.797 E18.29261
G1 X120.07 Y127.576 E18.34711
G1 X119.4 Y127.44 E18.40169
G1 X118.67 Y127.389 E18.4601
G1 X101.331 Y127.389 E19.84417
G1 X100.663 Y127.431 E19.8976
G1 X99.992 Y127.56 E19.95215
G1 X99.343 Y127.773 E20.00667
G1 X98.726 Y128.065 E20.06116
G1 X98.151 Y128.433 E20.11565
G1 X97.627 Y128.871 E20.17017
G1 X97.163 Y129.371 E20.22462
G1 X96.764 Y129.927 E20.27925
G1 X96.44 Y130.527 E20.33368
G1 X96.193 Y131.164 E20.38822
G1 X96.022 Y131.876 E20.44667
G1 X95.559 Y134.603 E20.66746
G1 X95.371 Y135.513 E20.74164
G1 X95.33 Y135.684 E20.75567
G1 X95.084 Y136.547 E20.82731
G1 X95.032 Y136.708 E20.84081
G1 X94.664 Y137.706 E20.92572
G1 X94.377 Y138.36 E20.98273
G1 X93.389 Y140.468 E21.16857
G1 X92.934 Y141.353 E21.248
G1 X92.851 Y141.503 E21.26168
G1 X92.398 Y142.247 E21.33122
G1 X92.289 Y142.411 E21.34693
G1 X91.785 Y143.117 E21.41618
G1 X91.666 Y143.27 E21.43165
G1 X91.093 Y143.96 E21.50324
G1 X90.989 Y144.077 E21.51574
G1 X90.364 Y144.726 E21.58766
G1 X90.239 Y144.846 E21.60149
G1 X89.57 Y145.446 E21.67323
G1 X89.435 Y145.558 E21.68723
G1 X88.744 Y146.092 E21.75694
G1 X88.573 Y146.214 E21.77371
G1 X87.549 Y146.878 E21.87113
G1 X86.336 Y147.593 E21.98353
G1 X85.536 Y148.029 E22.05625
G1 X85.373 Y148.11 E22.07078
G1 X84.55 Y148.483 E22.14291
G1 X84.424 Y148.534 E22.15376
G1 X83.557 Y148.852 E22.22748
G1 X83.39 Y148.906 E22.24149
G1 X82.544 Y149.148 E22.31173
G1 X82.363 Y149.192 E22.3266
G1 X81.512 Y149.371 E22.39601
G1 X81.331 Y149.402 E22.41067
G1 X80.269 Y149.538 E22.49614
G1 X79.224 Y149.595 E22.57968
G1 X78.308 Y149.582 E22.6528
G1 X78.149 Y149.574 E22.66551
G1 X77.241 Y149.496 E22.73826
G1 X77.069 Y149.474 E22.7521
G1 X76.215 Y149.337 E22.82114
G1 X76.011 Y149.297 E22.83774
G1 X75.153 Y149.094 E22.90812
G1 X75.002 Y149.051 E22.92065
G1 X74.131 Y148.777 E22.99354
G1 X73.981 Y148.724 E23.00623
G1 X73.149 Y148.392 E23.07774
G1 X72.973 Y148.314 E23.09311
G1 X72.04 Y147.857 E23.17604
G1 X71.473 Y147.537 E23.22801
G1 X70.305 Y146.846 E23.33634
G1 X69.478 Y146.314 E23.41483
G1 X69.338 Y146.217 E23.42843
G1 X68.617 Y145.676 E23.50038
G1 X68.494 Y145.577 E23.51299
G1 X67.811 Y144.98 E23.5854
G1 X67.7 Y144.875 E23.59759
G1 X67.053 Y144.222 E23.67097
G1 X66.95 Y144.11 E23.68312
G1 X66.362 Y143.422 E23.75536
G1 X66.248 Y143.278 E23.77002
G1 X65.724 Y142.566 E23.84059
G1 X65.641 Y142.444 E23.85237
G1 X65.15 Y141.662 E23.92608
G1 X65.073 Y141.528 E23.93841
G1 X64.496 Y140.418 E24.03827
G1 X63.494 Y138.275 E24.22711
G1 X63.134 Y137.427 E24.30065
G1 X63.071 Y137.262 E24.31475
G1 X62.783 Y136.42 E24.38579
G1 X62.735 Y136.26 E24.39912
G1 X62.475 Y135.25 E24.48237
G1 X62.335 Y134.531 E24.54084
G1 X61.729 Y130.911 E24.83383
G1 X61.562 Y129.473 E24.94939
G1 X61.265 Y125.172 E25.29353
G1 X61.234 Y124.477 E25.34906
G1 X61.13 Y119.605 E25.73805
G1 X61.134 Y100.075 E27.29702
G1 X61.234 Y95.523 E27.66047
G1 X61.266 Y94.818 E27.7168
G1 X61.576 Y90.376 E28.07225
G1 X61.752 Y88.929 E28.1886
G1 X62.346 Y85.413 E28.47324
G1 X62.536 Y84.491 E28.54839
G1 X62.582 Y84.303 E28.56384
G1 X62.821 Y83.457 E28.63401
G1 X62.875 Y83.293 E28.64779
G1 X63.246 Y82.291 E28.73309
G1 X63.544 Y81.613 E28.7922
G1 X64.533 Y79.507 E28.97793
G1 X65.049 Y78.511 E29.06747
G1 X65.523 Y77.735 E29.14005
G1 X65.622 Y77.586 E29.15433
G1 X66.134 Y76.871 E29.22453
G1 X66.247 Y76.723 E29.2394
G1 X66.823 Y76.032 E29.3112
G1 X66.924 Y75.919 E29.3233
G1 X67.543 Y75.276 E29.39455
G1 X67.686 Y75.139 E29.41036
G0 F12000 X67.2 Y75.632
G1 F1800 X67.2 Y144.37 E34.89732
G0 F12000 X68.8 Y145.813
G1 F1800 X68.8 Y74.189 E40.61466
G0 F12000 X70.4 Y73.098
G1 F1800 X70.4 Y146.902 E46.50601
G0 F12000 X72 Y147.834
G1 F1800 X72 Y72.173 E52.5456
G0 F12000 X73.6 Y71.424
G1 F1800 X73.6 Y148.571 E58.70381
G0 F12000 X75.2 Y149.105
G1 F1800 X75.2 Y70.899 E64.94655
G0 F12000 X76.8 Y70.567
G1 F1800 X76.8 Y149.43 E71.24173
G0 F12000 X78.4 Y149.583
G1 F1800 X78.4 Y70.416 E77.56119
G0 F12000 X80 Y70.446
G1 F1800 X80 Y149.553 E83.87585
G0 F12000 X81.6 Y149.353
G1 F1800 X81.6 Y70.648 E90.15842
G0 F12000 X83.2 Y71.04
G1 F1800 X83.2 Y148.961 E96.37841
G0 F12000 X84.8 Y148.37
G1 F1800 X84.8 Y71.626 E102.50445
G0 F12000 X86.4 Y72.443
G1 F1800 X86.4 Y147.556 E108.5003
G0 F12000 X88 Y146.586
G1 F1800 X88 Y73.41 E114.34152
G0 F12000 X89.6 Y74.586
G1 F1800 X89.6 Y145.42 E119.9958
G0 F12000 X91.2 Y143.832
G1 F1800 X91.2 Y76.173 E125.39663
G0 F12000 X92.8 Y78.411
G1 F1800 X92.8 Y141.587 E130.43961
G0 F12000 X94.4 Y138.308
G1 F1800 X94.4 Y81.696 E134.95863
G1 F2700 E129.95863
G0 F12000 X95.395 Y81.312
G0 X96.142 Y83.264
G0 X96.525 Y84.871
G0 X97.049 Y87.816
G0 X96 Y87.993
G1 F2700 E134.95863
G1 F1800 X96 Y132.006 E138.47194
G0 F12000 X97.6 Y128.901
G1 F1800 X97.6 Y91.102 E141.48922
G0 F12000 X99.2 Y92.162
G1 F1800 X99.2 Y127.841 E144.33727
G0 F12000 X100.8 Y127.423
G1 F1800 X100.8 Y92.574 E147.11907
G0 F12000 X102.4 Y92.611
G1 F1800 X102.4 Y127.389 E149.8952
G0 F12000 X104 Y127.389
G1 F1800 X104 Y92.611 E152.67133
G0 F12000 X105.6 Y92.611
G1 F1800 X105.6 Y127.389 E155.44746
G0 F12000 X107.2 Y127.389
G1 F1800 X107.2 Y92.611 E158.22359
G0 F12000 X108.8 Y92.611
G1 F1800 X108.8 Y127.389 E160.99972
G0 F12000 X110.4 Y127.389
G1 F1800 X110.4 Y92.611 E163.77585
G0 F12000 X112 Y92.611
G1 F1800 X112 Y127.389 E166.55198
G0 F12000 X113.6 Y127.389
G1 F1800 X113.6 Y92.611 E169.32811
G0 F12000 X115.2 Y92.611
G1 F1800 X115.2 Y127.389 E172.10424
G0 F12000 X116.8 Y127.389
G1 F1800 X116.8 Y92.611 E174.88037
G0 F12000 X118.4 Y92.611
G1 F1800 X118.4 Y127.389 E177.6565
G0 F12000 X120 Y127.561
G1 F1800 X120 Y92.441 E180.45993
G0 F12000 X121.6 Y91.726
G1 F1800 X121.6 Y128.274 E183.37735
G0 F12000 X123.2 Y129.882
G1 F1800 X123.2 Y90.123 E186.55108
G1 F2700 E181.55108
G0 F12000 X122.59 Y89.028
G0 X123.643 Y84.036
G0 X124.8 Y83.86
G1 F2700 E186.55108
G1 F1800 X124.8 Y136.152 E190.72526
G0 F12000 X126.4 Y140.018
G1 F1800 X126.4 Y79.985 E195.51735
G0 F12000 X128 Y77.184
G1 F1800 X128 Y142.816 E200.75638
G0 F12000 X129.6 Y144.681
G1 F1800 X129.6 Y75.311 E206.29379
G0 F12000 X131.2 Y73.951
G1 F1800 X131.2 Y146.043 E212.04849
G0 F12000 X132.8 Y147.083
G1 F1800 X132.8 Y72.916 E217.96882
G0 F12000 X134.4 Y72.005
G1 F1800 X134.4 Y147.992 E224.03443
G0 F12000 X136 Y148.694
G1 F1800 X136 Y71.31 E230.21156
G0 F12000 X137.6 Y70.817
G1 F1800 X137.6 Y149.177 E236.46659
G0 F12000 X139.2 Y149.479
G1 F1800 X139.2 Y70.53 E242.76864
G0 F12000 X140.8 Y70.406
G1 F1800 X140.8 Y149.588 E249.08929
G0 F12000 X142.4 Y149.534
G1 F1800 X142.4 Y70.474 E255.4002
G0 F12000 X144 Y70.706
G1 F1800 X144 Y149.289 E261.67304
G0 F12000 X145.6 Y148.866
G1 F1800 X145.6 Y71.139 E267.87754
G0 F12000 X147.2 Y71.771
G1 F1800 X147.2 Y148.231 E273.98091
G0 F12000 X148.8 Y147.374
G1 F1800 X148.8 Y72.625 E279.9477
G0 F12000 X150.4 Y73.612
G1 F1800 X150.4 Y146.386 E285.75683
G0 F12000 X152 Y145.143
G1 F1800 X152 Y74.855 E291.36753
G0 F12000 X153.6 Y76.535
G1 F1800 X153.6 Y143.459 E296.70969
G0 F12000 X155.2 Y141.009
G1 F1800 X155.2 Y78.998 E301.65968
G0 F12000 X156.8 Y82.418
G1 F1800 X156.8 Y137.585 E306.06334
G1 F2700 E301.06334
G0 F12000 X157.807 Y137.943
G0 X158.45 Y135.961
G0 X159.138 Y132.13
G0 X159.457 Y129.941
G0 X158.4 Y129.818
G1 F2700 E306.06334
G1 F1800 X158.4 Y90.199 E309.2259
G1 F2700 E304.2259
G0 F12000 X159.459 Y90.073
G0 X159.301 Y88.77
G0 X158.531 Y84.376
G0 X157.928 Y82.37
G0 X156.394 Y78.981
G0 X155.759 Y77.783
G0 X154.593 Y76.069
G0 X153.711 Y75.037
G0 X152.191 Y73.609
G0 X151.118 Y72.803
G0 X148.305 Y71.123
G0 X146.401 Y70.282
G0 X145.115 Y69.877
G0 X143.079 Y69.471
G0 X141.731 Y69.354
G0 X78.502 Y69.344
G0 X76.416 Y69.545
G0 X75.087 Y69.824
G0 X73.106 Y70.47
G0 X71.883 Y71.026
G0 X69.723 Y72.263
G0 X68.544 Y73.042
G0 X66.957 Y74.362
G0 X66.022 Y75.331
G0 X64.75 Y76.976
G0 X65.6 Y77.619
G1 F2700 E309.2259
G1 F1800 X65.6 Y142.378 E314.39525
G0 F12000 X64 Y139.357
G1 F1800 X64 Y80.641 E319.08221
G1 F2700 E314.08221
G0 F12000 X63.035 Y80.19
G0 X62.197 Y82.047
G0 X62.087 Y82.355
G0 X61.498 Y84.251
G0 X62.4 Y85.15
G1 F2700 E319.08221
G1 F1800 X62.4 Y134.864 E323.0506
G1 F2700 E318.0506
G0 F300 X62.4 Y134.864 Z0.54
G0 F12000 X61.431 Y135.463
