;FLAVOR:Marlin
;TIME:2684
;Filament used: 3.02522m
;Layer height: 0.2
;MINX:79
;MINY:79.001
;MINZ:0.2
;MAXX:141
;MAXY:141
;MAXZ:29.96
;Generated with Cura_SteamEngine 4.6.1
M140 S50
M105
M190 S50
M104 S200
M105
M109 S200
M82 ;absolute extrusion mode
M201 X500.00 Y500.00 Z100.00 E5000.00 ;Setup machine max acceleration
M203 X500.00 Y500.00 Z10.00 E50.00 ;Setup machine max feedrate
M204 P500.00 R1000.00 T500.00 ;Setup Print/Retract/Travel acceleration
M205 X8.00 Y8.00 Z0.40 E5.00 ;Setup Jerk
M220 S100 ;Reset Feedrate
M221 S100 ;Reset Flowrate

G28 ;Home

G92 E0 ;Reset Extruder
G1 Z2.0 F3000 ;Move Z Axis up
G1 X10.1 Y20 Z0.28 F5000.0 ;Move to start position
G1 X10.1 Y200.0 Z0.28 F1500.0 E15 ;Draw the first line
G1 X10.4 Y200.0 Z0.28 F5000.0 ;Move to side a little
G1 X10.4 Y20 Z0.28 F1500.0 E30 ;Draw the second line
G92 E0 ;Reset Extruder
G1 Z2.0 F3000 ;Move Z Axis up

G92 E0
G92 E0
G1 F2700 E-5
;LAYER_COUNT:126
;LAYER:0
M107
G0 F6000 X126.779 Y79.812 Z0.2
;TYPE:SKIRT
G1 F2700 E0
G1 F1200 X127.254 Y79.83 E0.01581
G1 X127.564 Y79.849 E0.02614
G1 X128.491 Y79.949 E0.05715
G1 X128.842 Y80.003 E0.06896
G1 X129.732 Y80.18 E0.09914
G1 X129.947 Y80.233 E0.10651
G1 X130.814 Y80.488 E0.13657
G1 X131.367 Y80.696 E0.15622
G1 X132.081 Y80.988 E0.18187
G1 X132.901 Y81.367 E0.21192
G1 X133.537 Y81.725 E0.23619
G1 X133.758 Y81.86 E0.24481
G1 X134.38 Y82.271 E0.2696
G1 X134.676 Y82.483 E0.28171
G1 X135.598 Y83.229 E0.32116
G1 X135.862 Y83.469 E0.33303
G1 X136.602 Y84.215 E0.36798
G1 X136.84 Y84.481 E0.37985
G1 X137.505 Y85.306 E0.41509
G1 X137.719 Y85.602 E0.42724
G1 X138.307 Y86.514 E0.46333
G1 X138.462 Y86.785 E0.47371
G1 X138.914 Y87.672 E0.50683
G1 X139.072 Y88.024 E0.51966
G1 X139.443 Y88.975 E0.55361
G1 X139.521 Y89.209 E0.56181
G1 X139.75 Y90.004 E0.58933
G1 X139.831 Y90.334 E0.60063
G1 X140.01 Y91.235 E0.63119
G1 X140.049 Y91.492 E0.63983
G1 X140.146 Y92.418 E0.6708
G1 X140.159 Y92.637 E0.6781
G1 X140.175 Y93.047 E0.69174
G1 X140.198 Y94.336 E0.73462
G1 X140.2 Y97.338 E0.83447
G1 X140.199 Y125.99 E1.78744
G1 X140.189 Y126.749 E1.81269
G1 X140.171 Y127.242 E1.82909
G1 X140.151 Y127.567 E1.83992
G1 X140.058 Y128.448 E1.86939
G1 X140.013 Y128.749 E1.87951
G1 X139.858 Y129.559 E1.90694
G1 X139.809 Y129.769 E1.91411
G1 X139.572 Y130.619 E1.94346
G1 X139.44 Y131.023 E1.9576
G1 X138.992 Y132.158 E1.99818
G1 X138.838 Y132.489 E2.01033
G1 X138.375 Y133.368 E2.04337
G1 X138.27 Y133.546 E2.05024
G1 X137.761 Y134.326 E2.08122
G1 X137.444 Y134.766 E2.09926
G1 X136.619 Y135.77 E2.14248
G1 X136.418 Y135.985 E2.15227
G1 X135.753 Y136.634 E2.18317
G1 X135.597 Y136.773 E2.19012
G1 X134.906 Y137.336 E2.21977
G1 X134.482 Y137.652 E2.23736
G1 X133.375 Y138.371 E2.28126
G1 X133.111 Y138.519 E2.29133
G1 X132.304 Y138.926 E2.32139
G1 X131.875 Y139.107 E2.33687
G1 X131.329 Y139.323 E2.3564
G1 X130.051 Y139.733 E2.40104
G1 X129.691 Y139.823 E2.41339
G1 X128.695 Y140.02 E2.44715
G1 X128.374 Y140.067 E2.45794
G1 X127.098 Y140.173 E2.50053
G1 X125.706 Y140.199 E2.54684
G1 X125.283 Y140.2 E2.56091
G1 X93.983 Y140.199 E3.60195
G1 X93.245 Y140.189 E3.6265
G1 X92.753 Y140.171 E3.64287
G1 X92.43 Y140.151 E3.65364
G1 X91.509 Y140.051 E3.68445
G1 X91.158 Y139.997 E3.69626
G1 X90.268 Y139.82 E3.72644
G1 X90.053 Y139.767 E3.73381
G1 X89.315 Y139.555 E3.75934
G1 X89.065 Y139.473 E3.7681
G1 X88.412 Y139.234 E3.79122
G1 X88.19 Y139.144 E3.79919
G1 X87.563 Y138.865 E3.82202
G1 X87.347 Y138.76 E3.83
G1 X86.512 Y138.305 E3.86163
G1 X86.26 Y138.152 E3.87144
G1 X85.604 Y137.718 E3.8976
G1 X85.313 Y137.509 E3.90952
G1 X84.403 Y136.773 E3.94844
G1 X84.129 Y136.524 E3.96076
G1 X83.383 Y135.771 E3.99601
G1 X83.232 Y135.602 E4.00355
G1 X82.918 Y135.234 E4.01964
G1 X82.75 Y135.027 E4.02851
G1 X82.256 Y134.365 E4.05598
G1 X82.121 Y134.168 E4.06392
G1 X81.644 Y133.401 E4.09396
G1 X81.399 Y132.938 E4.11139
G1 X81.112 Y132.36 E4.13285
G1 X80.615 Y131.176 E4.17556
G1 X80.528 Y130.926 E4.18436
G1 X80.264 Y130.041 E4.21508
G1 X80.175 Y129.684 E4.22732
G1 X79.982 Y128.708 E4.26041
G1 X79.935 Y128.39 E4.2711
G1 X79.826 Y127.07 E4.31515
G1 X79.8 Y125.406 E4.3705
G1 X79.801 Y93.983 E5.41564
G1 X79.811 Y93.245 E5.44018
G1 X79.827 Y92.787 E5.45543
G1 X79.84 Y92.565 E5.46282
G1 X79.907 Y91.856 E5.48651
G1 X79.96 Y91.445 E5.50029
G1 X80.163 Y90.346 E5.53746
G1 X80.236 Y90.045 E5.54777
G1 X80.488 Y89.178 E5.5778
G1 X80.743 Y88.503 E5.60179
G1 X81.027 Y87.826 E5.62621
G1 X81.413 Y87.01 E5.65624
G1 X82.017 Y86.009 E5.69512
G1 X82.384 Y85.473 E5.71673
G1 X82.926 Y84.752 E5.74673
G1 X83.253 Y84.375 E5.76333
G1 X83.473 Y84.133 E5.7742
G1 X84.201 Y83.408 E5.80838
G1 X84.379 Y83.248 E5.81634
G1 X84.788 Y82.9 E5.8342
G1 X84.991 Y82.736 E5.84288
G1 X85.718 Y82.2 E5.87292
G1 X86.11 Y81.95 E5.88838
G1 X86.616 Y81.643 E5.90807
G1 X87.809 Y81.023 E5.95279
G1 X88.103 Y80.894 E5.96347
G1 X88.988 Y80.553 E5.99501
G1 X89.22 Y80.476 E6.00314
G1 X89.972 Y80.258 E6.02918
G1 X90.326 Y80.17 E6.04131
G1 X91.382 Y79.966 E6.07709
G1 X91.684 Y79.924 E6.08723
G1 X92.892 Y79.829 E6.12753
G1 X94.383 Y79.802 E6.17713
G1 X126.025 Y79.801 E7.22955
G1 X126.779 Y79.812 E7.25463
G0 F6000 X126.785 Y79.412
G1 F1200 X127.278 Y79.431 E7.27104
G1 X127.588 Y79.45 E7.28137
G1 X128.552 Y79.553 E7.31361
G1 X128.903 Y79.607 E7.32542
G1 X129.828 Y79.792 E7.3568
G1 X130.043 Y79.845 E7.36416
G1 X130.927 Y80.104 E7.3948
G1 X131.518 Y80.326 E7.4158
G1 X132.232 Y80.618 E7.44146
G1 X133.069 Y81.003 E7.4721
G1 X133.746 Y81.383 E7.49792
G1 X133.967 Y81.518 E7.50653
G1 X134.613 Y81.946 E7.53231
G1 X134.909 Y82.158 E7.54442
G1 X135.867 Y82.933 E7.5854
G1 X136.131 Y83.173 E7.59727
G1 X136.901 Y83.948 E7.6336
G1 X137.139 Y84.214 E7.64548
G1 X137.829 Y85.072 E7.6821
G1 X138.043 Y85.368 E7.69424
G1 X138.654 Y86.315 E7.73173
G1 X138.809 Y86.586 E7.74211
G1 X139.278 Y87.508 E7.77652
G1 X139.436 Y87.86 E7.78935
G1 X139.822 Y88.849 E7.82466
G1 X139.9 Y89.083 E7.83286
G1 X140.138 Y89.908 E7.86142
G1 X140.219 Y90.238 E7.87273
G1 X140.405 Y91.175 E7.9045
G1 X140.444 Y91.432 E7.91314
G1 X140.545 Y92.394 E7.94532
G1 X140.558 Y92.613 E7.95261
G1 X140.575 Y93.039 E7.96679
G1 X140.598 Y94.336 E8.00994
G1 X140.6 Y97.338 E8.10978
G1 X140.599 Y125.996 E9.06295
G1 X140.589 Y126.755 E9.0882
G1 X140.57 Y127.266 E9.10521
G1 X140.55 Y127.591 E9.11604
G1 X140.453 Y128.507 E9.14667
G1 X140.408 Y128.808 E9.1568
G1 X140.248 Y129.65 E9.1853
G1 X140.199 Y129.86 E9.19248
G1 X139.952 Y130.743 E9.22297
G1 X139.82 Y131.147 E9.23711
G1 X139.355 Y132.326 E9.27926
G1 X139.201 Y132.657 E9.2914
G1 X138.72 Y133.572 E9.32579
G1 X138.615 Y133.75 E9.33266
G1 X138.085 Y134.56 E9.36485
G1 X137.768 Y135 E9.38289
G1 X136.911 Y136.043 E9.42779
G1 X136.71 Y136.258 E9.43758
G1 X136.019 Y136.933 E9.46971
G1 X135.863 Y137.072 E9.47666
G1 X135.145 Y137.657 E9.50746
G1 X134.721 Y137.973 E9.52505
G1 X133.57 Y138.72 E9.57069
G1 X133.306 Y138.868 E9.58075
G1 X132.485 Y139.283 E9.61135
G1 X132.022 Y139.479 E9.62807
G1 X131.476 Y139.695 E9.6476
G1 X130.606 Y139.996 E9.67822
G1 X130.148 Y140.122 E9.69402
G1 X129.788 Y140.212 E9.70636
G1 X128.753 Y140.416 E9.74145
G1 X128.432 Y140.463 E9.75224
G1 X127.106 Y140.573 E9.79649
G1 X125.707 Y140.599 E9.84303
G1 X125.284 Y140.6 E9.8571
G1 X93.977 Y140.599 E10.89838
G1 X93.239 Y140.589 E10.92293
G1 X92.728 Y140.57 E10.93993
G1 X92.405 Y140.55 E10.9507
G1 X91.448 Y140.447 E10.98271
G1 X91.097 Y140.393 E10.99452
G1 X90.172 Y140.208 E11.0259
G1 X89.957 Y140.155 E11.03326
G1 X89.19 Y139.935 E11.0598
G1 X88.94 Y139.853 E11.06855
G1 X88.262 Y139.604 E11.09257
G1 X88.04 Y139.514 E11.10054
G1 X87.388 Y139.224 E11.12428
G1 X87.172 Y139.119 E11.13226
G1 X86.305 Y138.647 E11.1651
G1 X86.053 Y138.494 E11.1749
G1 X85.371 Y138.043 E11.2021
G1 X85.08 Y137.834 E11.21401
G1 X84.134 Y137.069 E11.25448
G1 X83.86 Y136.82 E11.26679
G1 X83.085 Y136.038 E11.30341
G1 X82.934 Y135.869 E11.31095
G1 X82.608 Y135.486 E11.32768
G1 X82.44 Y135.279 E11.33654
G1 X81.926 Y134.591 E11.36511
G1 X81.791 Y134.394 E11.37305
G1 X81.304 Y133.613 E11.40366
G1 X81.041 Y133.116 E11.42237
G1 X80.754 Y132.538 E11.44383
G1 X80.237 Y131.308 E11.48821
G1 X80.15 Y131.058 E11.49701
G1 X79.876 Y130.138 E11.52894
G1 X79.787 Y129.781 E11.54118
G1 X79.586 Y128.767 E11.57556
G1 X79.539 Y128.449 E11.58625
G1 X79.426 Y127.076 E11.63207
G1 X79.4 Y125.406 E11.68762
G1 X79.401 Y93.977 E12.73295
G1 X79.411 Y93.239 E12.7575
G1 X79.428 Y92.763 E12.77334
G1 X79.441 Y92.541 E12.78074
G1 X79.51 Y91.805 E12.80533
G1 X79.563 Y91.394 E12.81911
G1 X79.775 Y90.252 E12.85774
G1 X79.848 Y89.951 E12.86804
G1 X80.103 Y89.066 E12.89868
G1 X80.374 Y88.349 E12.92417
G1 X80.658 Y87.672 E12.94859
G1 X81.051 Y86.839 E12.97922
G1 X81.687 Y85.783 E13.02022
G1 X82.054 Y85.247 E13.04183
G1 X82.606 Y84.511 E13.07243
G1 X82.957 Y84.106 E13.09025
G1 X83.177 Y83.864 E13.10113
G1 X83.934 Y83.111 E13.13665
G1 X84.112 Y82.951 E13.14461
G1 X84.537 Y82.589 E13.16317
G1 X84.74 Y82.425 E13.17185
G1 X85.48 Y81.878 E13.20246
G1 X85.903 Y81.608 E13.21915
G1 X86.409 Y81.301 E13.23884
G1 X87.216 Y80.858 E13.26946
G1 X87.648 Y80.656 E13.28532
G1 X87.942 Y80.527 E13.296
G1 X88.862 Y80.174 E13.32877
G1 X89.094 Y80.097 E13.3369
G1 X89.876 Y79.87 E13.36398
G1 X90.23 Y79.782 E13.37612
G1 X91.327 Y79.57 E13.41328
G1 X91.629 Y79.528 E13.42342
G1 X92.884 Y79.429 E13.46529
G1 X94.383 Y79.402 E13.51515
G1 X126.031 Y79.401 E14.56777
G1 X126.785 Y79.412 E14.59285
G0 F6000 X126.79 Y79.012
G1 F1200 X127.303 Y79.032 E14.60993
G1 X127.613 Y79.051 E14.62026
G1 X128.613 Y79.158 E14.65371
G1 X128.964 Y79.212 E14.66552
G1 X129.924 Y79.404 E14.69808
G1 X130.139 Y79.457 E14.70545
G1 X131.039 Y79.72 E14.73663
G1 X131.67 Y79.956 E14.75904
G1 X132.384 Y80.248 E14.7847
G1 X133.236 Y80.639 E14.81588
G1 X133.954 Y81.042 E14.84326
G1 X134.175 Y81.177 E14.85187
G1 X134.846 Y81.621 E14.87864
G1 X135.142 Y81.833 E14.89074
G1 X136.136 Y82.637 E14.93327
G1 X136.4 Y82.877 E14.94513
G1 X137.199 Y83.681 E14.98283
G1 X137.437 Y83.947 E14.9947
G1 X138.153 Y84.837 E15.0327
G1 X138.367 Y85.133 E15.04485
G1 X139.002 Y86.117 E15.0838
G1 X139.157 Y86.388 E15.09418
G1 X139.643 Y87.344 E15.12985
G1 X139.801 Y87.696 E15.14268
G1 X140.202 Y88.722 E15.17932
G1 X140.28 Y88.956 E15.18752
G1 X140.527 Y89.813 E15.21719
G1 X140.608 Y90.143 E15.22849
G1 X140.8 Y91.115 E15.26144
G1 X140.839 Y91.372 E15.27009
G1 X140.945 Y92.37 E15.30347
G1 X140.958 Y92.589 E15.31077
G1 X140.975 Y93.031 E15.32548
G1 X140.998 Y94.336 E15.36889
G1 X141 Y97.338 E15.46874
G1 X140.999 Y126.001 E16.42207
G1 X140.989 Y126.76 E16.44732
G1 X140.969 Y127.291 E16.46499
G1 X140.949 Y127.616 E16.47582
G1 X140.849 Y128.566 E16.50759
G1 X140.804 Y128.867 E16.51772
G1 X140.637 Y129.741 E16.54731
G1 X140.588 Y129.951 E16.55448
G1 X140.332 Y130.867 E16.58612
G1 X140.2 Y131.271 E16.60025
G1 X139.717 Y132.495 E16.64402
G1 X139.563 Y132.826 E16.65616
G1 X139.064 Y133.775 E16.69182
G1 X138.959 Y133.953 E16.6987
G1 X138.41 Y134.794 E16.7321
G1 X138.093 Y135.234 E16.75014
G1 X137.203 Y136.316 E16.79674
G1 X137.002 Y136.531 E16.80652
G1 X136.285 Y137.232 E16.83988
G1 X136.129 Y137.371 E16.84683
G1 X135.384 Y137.978 E16.87879
G1 X134.96 Y138.294 E16.89638
G1 X134.185 Y138.822 E16.92757
G1 X133.766 Y139.069 E16.94374
G1 X133.502 Y139.217 E16.95381
G1 X132.665 Y139.64 E16.985
G1 X132.17 Y139.851 E17.0029
G1 X131.624 Y140.067 E17.02243
G1 X130.737 Y140.374 E17.05365
G1 X130.245 Y140.51 E17.07062
G1 X129.885 Y140.6 E17.08297
G1 X128.811 Y140.812 E17.11938
G1 X128.49 Y140.859 E17.13017
G1 X127.113 Y140.973 E17.17612
G1 X125.708 Y140.999 E17.22286
G1 X125.285 Y141 E17.23693
G1 X93.972 Y140.999 E18.27841
G1 X93.234 Y140.989 E18.30295
G1 X92.703 Y140.969 E18.32063
G1 X92.38 Y140.949 E18.33139
G1 X91.387 Y140.842 E18.36461
G1 X91.036 Y140.788 E18.37642
G1 X90.076 Y140.596 E18.40898
G1 X89.861 Y140.543 E18.41635
G1 X89.066 Y140.315 E18.44386
G1 X88.816 Y140.233 E18.45261
G1 X88.111 Y139.975 E18.47758
G1 X87.889 Y139.885 E18.48554
G1 X87.213 Y139.584 E18.51016
G1 X86.997 Y139.479 E18.51814
G1 X86.097 Y138.989 E18.55223
G1 X85.845 Y138.836 E18.56203
G1 X85.137 Y138.367 E18.59028
G1 X84.846 Y138.158 E18.60219
G1 X83.865 Y137.365 E18.64415
G1 X83.591 Y137.116 E18.65646
G1 X82.786 Y136.304 E18.69449
G1 X82.635 Y136.135 E18.70203
G1 X82.297 Y135.738 E18.71937
G1 X82.129 Y135.531 E18.72824
G1 X81.596 Y134.817 E18.75788
G1 X81.461 Y134.62 E18.76582
G1 X80.964 Y133.825 E18.797
G1 X80.683 Y133.294 E18.81698
G1 X80.396 Y132.716 E18.83845
G1 X79.859 Y131.439 E18.88452
G1 X79.772 Y131.189 E18.89333
G1 X79.488 Y130.235 E18.92643
G1 X79.399 Y129.878 E18.93867
G1 X79.19 Y128.825 E18.97438
G1 X79.143 Y128.507 E18.98507
G1 X79.046 Y127.575 E19.01623
G1 X79.027 Y127.083 E19.03261
G1 X79 Y125.406 E19.0884
G1 X79.001 Y93.972 E20.13389
G1 X79.011 Y93.234 E20.15844
G1 X79.042 Y92.518 E20.18228
G1 X79.113 Y91.754 E20.2078
G1 X79.166 Y91.343 E20.22158
G1 X79.386 Y90.157 E20.2617
G1 X79.459 Y89.856 E20.272
G1 X79.719 Y88.955 E20.30319
G1 X80.005 Y88.194 E20.33023
G1 X80.289 Y87.517 E20.35465
G1 X80.689 Y86.668 E20.38587
G1 X81.357 Y85.557 E20.42898
G1 X81.724 Y85.021 E20.45059
G1 X82.286 Y84.271 E20.48176
G1 X82.661 Y83.837 E20.50084
G1 X82.881 Y83.595 E20.51172
G1 X83.666 Y82.813 E20.54857
G1 X83.844 Y82.653 E20.55653
G1 X84.285 Y82.277 E20.5758
G1 X84.488 Y82.113 E20.58448
G1 X85.242 Y81.556 E20.61566
G1 X85.695 Y81.266 E20.63355
G1 X86.201 Y80.959 E20.65324
G1 X87.023 Y80.507 E20.68444
G1 X87.487 Y80.29 E20.70148
G1 X87.781 Y80.161 E20.71215
G1 X88.736 Y79.794 E20.74618
G1 X88.968 Y79.717 E20.75431
G1 X89.779 Y79.482 E20.7824
G1 X90.133 Y79.394 E20.79453
G1 X91.272 Y79.174 E20.83311
G1 X91.574 Y79.132 E20.84325
G1 X92.877 Y79.029 E20.88673
G1 X94.383 Y79.002 E20.93682
G1 X126.036 Y79.001 E21.98961
G1 X126.79 Y79.012 E22.01469
G1 F2700 E17.01469
;MESH:MiddleSeat.stl
G0 F6000 X126.562 Y89.336
G0 X126.563 Y90.42
G0 X128.253 Y91.363
G0 X128.807 Y91.983
G0 X129.136 Y92.721
G0 X129.227 Y93.402
G0 X129.212 Y126.871
G0 X129.041 Y127.564
G0 X128.62 Y128.273
G0 X128.009 Y128.813
G0 X127.309 Y129.127
G0 X125.258 Y129.4
;TYPE:WALL-INNER
G1 F2700 E22.01469
G1 F1200 X93.427 Y129.4 E23.07339
G1 X93.117 Y129.383 E23.08372
G1 X92.837 Y129.339 E23.09314
G1 X92.602 Y129.281 E23.1012
G1 X92.348 Y129.19 E23.11017
G1 X92.095 Y129.07 E23.11948
G1 X91.819 Y128.901 E23.13025
G1 X91.638 Y128.768 E23.13772
G1 X91.401 Y128.551 E23.14841
G1 X91.198 Y128.318 E23.15868
G1 X91.034 Y128.085 E23.16816
G1 X90.893 Y127.833 E23.17776
G1 X90.785 Y127.585 E23.18676
G1 X90.707 Y127.349 E23.19503
G1 X90.653 Y127.116 E23.20298
G1 X90.611 Y126.822 E23.21286
G1 X90.602 Y126.598 E23.22032
G1 X90.6 Y125.258 E23.26489
G1 X90.6 Y93.424 E24.32369
G1 X90.617 Y93.119 E24.33385
G1 X90.654 Y92.872 E24.34216
G1 X90.723 Y92.592 E24.35175
G1 X90.802 Y92.371 E24.35955
G1 X90.935 Y92.083 E24.3701
G1 X91.074 Y91.853 E24.37904
G1 X91.232 Y91.638 E24.38792
G1 X91.449 Y91.401 E24.3986
G1 X91.682 Y91.198 E24.40888
G1 X91.918 Y91.032 E24.41848
G1 X92.133 Y90.91 E24.4267
G1 X92.429 Y90.779 E24.43747
G1 X92.671 Y90.701 E24.44592
G1 X92.877 Y90.654 E24.45295
G1 X93.178 Y90.611 E24.46307
G1 X93.409 Y90.602 E24.47075
G1 X126.573 Y90.6 E25.57379
G1 X126.883 Y90.617 E25.58412
G1 X127.163 Y90.661 E25.59355
G1 X127.367 Y90.709 E25.60052
G1 X127.626 Y90.801 E25.60966
G1 X127.916 Y90.935 E25.62028
G1 X128.18 Y91.097 E25.63059
G1 X128.356 Y91.227 E25.63786
G1 X128.594 Y91.444 E25.64858
G1 X128.791 Y91.666 E25.65845
G1 X128.949 Y91.887 E25.66748
G1 X129.092 Y92.138 E25.67709
G1 X129.221 Y92.429 E25.68768
G1 X129.3 Y92.673 E25.69621
G1 X129.354 Y92.911 E25.70433
G1 X129.388 Y93.17 E25.71301
G1 X129.398 Y93.402 E25.72074
G1 X129.4 Y97.395 E25.85355
G1 X129.4 Y126.575 E26.82408
G1 X129.383 Y126.882 E26.8343
G1 X129.339 Y127.161 E26.8437
G1 X129.285 Y127.379 E26.85117
G1 X129.198 Y127.63 E26.86
G1 X129.067 Y127.911 E26.87031
G1 X128.901 Y128.183 E26.88091
G1 X128.75 Y128.384 E26.88927
G1 X128.558 Y128.593 E26.89871
G1 X128.312 Y128.807 E26.90956
G1 X128.101 Y128.957 E26.91817
G1 X127.845 Y129.101 E26.92794
G1 X127.585 Y129.215 E26.93738
G1 X127.349 Y129.293 E26.94565
G1 X127.116 Y129.347 E26.9536
G1 X126.822 Y129.389 E26.96348
