;FLAVOR:Marlin
;TIME:2636
;Filament used: 1.75157m
;Layer height: 0.2
;MINX:54.5
;MINY:74
;MINZ:0.2
;MAXX:165.5
;MAXY:146
;MAXZ:1.88
;Generated with Cura_SteamEngine 4.6.1
M140 S50
M105
M190 S50
M104 S200
M105
M109 S200
M82 ;absolute extrusion mode
M201 X500.00 Y500.00 Z100.00 E5000.00 ;Setup machine max acceleration
M203 X500.00 Y500.00 Z10.00 E50.00 ;Setup machine max feedrate
M204 P500.00 R1000.00 T500.00 ;Setup Print/Retract/Travel acceleration
M205 X8.00 Y8.00 Z0.40 E5.00 ;Setup Jerk
M220 S100 ;Reset Feedrate
M221 S100 ;Reset Flowrate

G28 ;Home

G92 E0 ;Reset Extruder
G1 Z2.0 F3000 ;Move Z Axis up
G1 X10.1 Y20 Z0.28 F5000.0 ;Move to start position
G1 X10.1 Y200.0 Z0.28 F1500.0 E15 ;Draw the first line
G1 X10.4 Y200.0 Z0.28 F5000.0 ;Move to side a little
G1 X10.4 Y20 Z0.28 F1500.0 E30 ;Draw the second line
G92 E0 ;Reset Extruder
G1 Z2.0 F3000 ;Move Z Axis up

G92 E0
G92 E0
G1 F2700 E-5
;LAYER_COUNT:10
;LAYER:0
M107
G0 F6000 X154.637 Y74.811 Z0.2
;TYPE:SKIRT
G1 F2700 E0
G1 F1200 X155.539 Y74.864 E0.03005
G1 X156.432 Y74.996 E0.06008
G1 X157.31 Y75.207 E0.09011
G1 X158.166 Y75.495 E0.12015
G1 X158.993 Y75.857 E0.15018
G1 X159.785 Y76.292 E0.18023
G1 X160.536 Y76.794 E0.21027
G1 X161.239 Y77.361 E0.24031
G1 X161.889 Y77.988 E0.27035
G1 X162.481 Y78.67 E0.30039
G1 X163.011 Y79.401 E0.33042
G1 X163.473 Y80.177 E0.36046
G1 X163.866 Y80.99 E0.39049
G1 X164.184 Y81.835 E0.42052
G1 X164.427 Y82.705 E0.45056
G1 X164.592 Y83.593 E0.4806
G1 X164.687 Y84.723 E0.51832
G1 X164.7 Y85.33 E0.53851
G1 X164.699 Y134.39 E2.17026
G1 X164.69 Y135.117 E2.19444
G1 X164.639 Y136.019 E2.22449
G1 X164.508 Y136.913 E2.25454
G1 X164.299 Y137.791 E2.28456
G1 X164.013 Y138.648 E2.31461
G1 X163.652 Y139.476 E2.34465
G1 X163.22 Y140.268 E2.37466
G1 X162.719 Y141.02 E2.40471
G1 X162.153 Y141.724 E2.43475
G1 X161.528 Y142.375 E2.46477
G1 X160.847 Y142.969 E2.49483
G1 X160.116 Y143.5 E2.52488
G1 X159.342 Y143.964 E2.55489
G1 X158.529 Y144.358 E2.58494
G1 X157.685 Y144.678 E2.61496
G1 X156.815 Y144.923 E2.64502
G1 X155.928 Y145.089 E2.67504
G1 X154.777 Y145.187 E2.71346
G1 X154.17 Y145.2 E2.73365
G1 X66.207 Y145.2 E5.65931
G1 X65.377 Y145.19 E5.68692
G1 X64.476 Y145.139 E5.71694
G1 X63.582 Y145.007 E5.74699
G1 X62.704 Y144.798 E5.77701
G1 X61.847 Y144.511 E5.80707
G1 X61.02 Y144.15 E5.83708
G1 X60.227 Y143.717 E5.86713
G1 X59.476 Y143.216 E5.89716
G1 X58.772 Y142.65 E5.92721
G1 X58.121 Y142.024 E5.95724
G1 X57.528 Y141.343 E5.98728
G1 X56.998 Y140.612 E6.01731
G1 X56.534 Y139.837 E6.04735
G1 X56.14 Y139.024 E6.0774
G1 X55.82 Y138.18 E6.10742
G1 X55.576 Y137.31 E6.13748
G1 X55.41 Y136.422 E6.16752
G1 X55.313 Y135.267 E6.20607
G1 X55.3 Y134.658 E6.22633
G1 X55.301 Y85.536 E7.86014
G1 X55.31 Y84.871 E7.88226
G1 X55.362 Y83.969 E7.91231
G1 X55.494 Y83.076 E7.94233
G1 X55.704 Y82.198 E7.97236
G1 X55.991 Y81.341 E8.00242
G1 X56.353 Y80.514 E8.03244
G1 X56.786 Y79.722 E8.06247
G1 X57.288 Y78.971 E8.09251
G1 X57.855 Y78.267 E8.12258
G1 X58.481 Y77.617 E8.15259
G1 X59.162 Y77.024 E8.18262
G1 X59.894 Y76.494 E8.21268
G1 X60.669 Y76.031 E8.24271
G1 X61.482 Y75.638 E8.27274
G1 X62.327 Y75.318 E8.3028
G1 X63.196 Y75.075 E8.33281
G1 X64.084 Y74.909 E8.36285
G1 X65.223 Y74.813 E8.40087
G1 X65.83 Y74.8 E8.42106
G1 X153.793 Y74.8 E11.34673
G1 X153.939 Y74.801 E11.35158
G1 X154.637 Y74.811 E11.3748
G0 F6000 X154.643 Y74.411
G1 F1200 X155.562 Y74.464 E11.40542
G1 X156.473 Y74.597 E11.43604
G1 X157.369 Y74.808 E11.46665
G1 X158.243 Y75.096 E11.49726
G1 X159.09 Y75.459 E11.52791
G1 X159.901 Y75.894 E11.55852
G1 X160.671 Y76.398 E11.58913
G1 X161.395 Y76.967 E11.61976
G1 X162.067 Y77.597 E11.65039
G1 X162.682 Y78.282 E11.68101
G1 X163.235 Y79.018 E11.71163
G1 X163.722 Y79.799 E11.74224
G1 X164.139 Y80.62 E11.77287
G1 X164.484 Y81.474 E11.8035
G1 X164.753 Y82.354 E11.83411
G1 X164.945 Y83.255 E11.86475
G1 X165.058 Y84.168 E11.89535
G1 X165.087 Y84.712 E11.91347
G1 X165.1 Y85.33 E11.93403
G1 X165.099 Y134.395 E13.56594
G1 X165.09 Y135.122 E13.59012
G1 X165.039 Y136.041 E13.62073
G1 X164.908 Y136.953 E13.65138
G1 X164.698 Y137.849 E13.68198
G1 X164.412 Y138.724 E13.7126
G1 X164.051 Y139.571 E13.74323
G1 X163.617 Y140.383 E13.77385
G1 X163.115 Y141.155 E13.80448
G1 X162.547 Y141.88 E13.83511
G1 X161.919 Y142.553 E13.86572
G1 X161.235 Y143.169 E13.89634
G1 X160.5 Y143.723 E13.92695
G1 X159.72 Y144.212 E13.95757
G1 X158.9 Y144.631 E13.9882
G1 X158.047 Y144.977 E14.01882
G1 X157.167 Y145.248 E14.04944
G1 X156.267 Y145.441 E14.08006
G1 X155.353 Y145.556 E14.1107
G1 X154.788 Y145.587 E14.12952
G1 X154.17 Y145.6 E14.15008
G1 X66.207 Y145.6 E17.07574
G1 X65.372 Y145.59 E17.10351
G1 X64.453 Y145.538 E17.13413
G1 X63.542 Y145.407 E17.16474
G1 X62.646 Y145.197 E17.19535
G1 X61.771 Y144.91 E17.22597
G1 X60.924 Y144.548 E17.25661
G1 X60.112 Y144.114 E17.28723
G1 X59.341 Y143.612 E17.31783
G1 X58.616 Y143.044 E17.34847
G1 X57.943 Y142.415 E17.3791
G1 X57.328 Y141.731 E17.4097
G1 X56.774 Y140.996 E17.44031
G1 X56.286 Y140.215 E17.47094
G1 X55.867 Y139.395 E17.50157
G1 X55.521 Y138.542 E17.53218
G1 X55.251 Y137.662 E17.5628
G1 X55.058 Y136.761 E17.59345
G1 X54.944 Y135.848 E17.62405
G1 X54.913 Y135.277 E17.64307
G1 X54.9 Y134.658 E17.66366
G1 X54.901 Y85.531 E19.29763
G1 X54.91 Y84.866 E19.31975
G1 X54.962 Y83.946 E19.3504
G1 X55.094 Y83.035 E19.38102
G1 X55.305 Y82.139 E19.41163
G1 X55.592 Y81.264 E19.44226
G1 X55.955 Y80.418 E19.47288
G1 X56.389 Y79.606 E19.5035
G1 X56.892 Y78.835 E19.53412
G1 X57.461 Y78.111 E19.56475
G1 X58.089 Y77.439 E19.59534
G1 X58.774 Y76.823 E19.62598
G1 X59.51 Y76.27 E19.6566
G1 X60.291 Y75.782 E19.68723
G1 X61.111 Y75.364 E19.71784
G1 X61.965 Y75.019 E19.74848
G1 X62.845 Y74.749 E19.77909
G1 X63.745 Y74.557 E19.8097
G1 X64.659 Y74.443 E19.84034
G1 X65.212 Y74.413 E19.85876
G1 X65.83 Y74.4 E19.87931
G1 X153.793 Y74.4 E22.80498
G1 X153.945 Y74.401 E22.81003
G1 X154.643 Y74.411 E22.83325
G0 F6000 X154.649 Y74.011
G1 F1200 X155.585 Y74.065 E22.86443
G1 X156.513 Y74.197 E22.89561
G1 X157.427 Y74.409 E22.92682
G1 X158.319 Y74.698 E22.958
G1 X159.184 Y75.061 E22.9892
G1 X160.014 Y75.497 E23.02039
G1 X160.805 Y76.002 E23.0516
G1 X161.549 Y76.573 E23.08279
G1 X162.242 Y77.205 E23.11399
G1 X162.879 Y77.893 E23.14517
G1 X163.454 Y78.634 E23.17637
G1 X163.965 Y79.42 E23.20755
G1 X164.407 Y80.248 E23.23877
G1 X164.776 Y81.11 E23.26995
G1 X165.071 Y82 E23.30114
G1 X165.289 Y82.912 E23.33233
G1 X165.429 Y83.84 E23.36354
G1 X165.487 Y84.701 E23.39224
G1 X165.5 Y85.33 E23.41317
G1 X165.499 Y134.4 E25.04524
G1 X165.49 Y135.127 E25.06943
G1 X165.439 Y136.064 E25.10064
G1 X165.307 Y136.992 E25.13181
G1 X165.098 Y137.906 E25.163
G1 X164.811 Y138.799 E25.19419
G1 X164.449 Y139.665 E25.22541
G1 X164.015 Y140.496 E25.25659
G1 X163.511 Y141.287 E25.28779
G1 X162.942 Y142.032 E25.31897
G1 X162.311 Y142.727 E25.35019
G1 X161.624 Y143.365 E25.38137
G1 X160.885 Y143.942 E25.41256
G1 X160.099 Y144.454 E25.44376
G1 X159.273 Y144.897 E25.47493
G1 X158.411 Y145.269 E25.50616
G1 X157.522 Y145.565 E25.53732
G1 X156.61 Y145.785 E25.56853
G1 X155.683 Y145.926 E25.59971
G1 X154.799 Y145.987 E25.62918
G1 X154.17 Y146 E25.65011
G1 X66.207 Y146 E28.57577
G1 X65.367 Y145.99 E28.60371
G1 X64.431 Y145.938 E28.63489
G1 X63.502 Y145.806 E28.6661
G1 X62.588 Y145.596 E28.69729
G1 X61.695 Y145.309 E28.72849
G1 X60.83 Y144.946 E28.75969
G1 X59.999 Y144.512 E28.79087
G1 X59.208 Y144.008 E28.82207
G1 X58.463 Y143.438 E28.85327
G1 X57.769 Y142.807 E28.88446
G1 X57.132 Y142.12 E28.91562
G1 X56.555 Y141.38 E28.94683
G1 X56.043 Y140.594 E28.97803
G1 X55.6 Y139.767 E29.00924
G1 X55.229 Y138.906 E29.04042
G1 X54.933 Y138.016 E29.07162
G1 X54.714 Y137.104 E29.10281
G1 X54.573 Y136.177 E29.134
G1 X54.513 Y135.288 E29.16363
G1 X54.5 Y134.658 E29.18459
G1 X54.501 Y85.525 E30.81876
G1 X54.51 Y84.86 E30.84088
G1 X54.563 Y83.924 E30.87206
G1 X54.695 Y82.995 E30.90327
G1 X54.906 Y82.081 E30.93447
G1 X55.194 Y81.189 E30.96565
G1 X55.557 Y80.324 E30.99685
G1 X55.992 Y79.493 E31.02805
G1 X56.496 Y78.703 E31.05921
G1 X57.066 Y77.958 E31.09041
G1 X57.698 Y77.264 E31.12163
G1 X58.386 Y76.627 E31.15282
G1 X59.126 Y76.051 E31.18401
G1 X59.912 Y75.539 E31.21521
G1 X60.739 Y75.097 E31.24639
G1 X61.601 Y74.727 E31.27759
G1 X62.491 Y74.431 E31.30879
G1 X63.403 Y74.213 E31.33998
G1 X64.33 Y74.072 E31.37116
G1 X65.201 Y74.013 E31.4002
G1 X65.83 Y74 E31.42113
G1 X153.793 Y74 E34.34679
G1 X153.951 Y74.001 E34.35204
G1 X154.649 Y74.011 E34.37526
G1 F2700 E29.37526
;MESH:Railing.stl
G0 F6000 X153.296 Y84.335
G0 X153.296 Y86.204
G0 X153.1 Y133.6
;TYPE:WALL-INNER
G1 F2700 E34.37526
G1 F1200 X153.1 Y86.4 E35.94514
G1 X66.9 Y86.4 E38.81216
G1 X66.9 Y133.6 E40.38204
G1 X153.1 Y133.6 E43.24906
G1 F2700 E38.24906
G0 F6000 X148.388 Y133.4
G0 X148.388 Y133.2
;TYPE:WALL-OUTER
G1 F2700 E43.24906
G1 F1200 X152.7 Y133.2 E43.39248
G1 X152.7 Y86.8 E44.93575
G1 X148.391 Y86.8 E45.07907
G1 X148.399 Y87.748 E45.1106
G1 X148.392 Y89.299 E45.16219
G1 X148.392 Y130.7 E46.53919
G1 X148.399 Y132.596 E46.60225
G1 X148.388 Y133.2 E46.62235
G1 F2700 E41.62235
G0 F6000 X148.388 Y133.4
G0 X144.388 Y133.4
G0 X144.388 Y133.2
G1 F2700 E46.62235
G1 F1200 X147.605 Y133.2 E46.72934
G1 X147.605 Y86.8 E48.27261
G1 X144.392 Y86.8 E48.37948
G1 X144.399 Y88.498 E48.43595
G1 X144.392 Y89.299 E48.4626
G1 X144.392 Y130.7 E49.8396
G1 X144.399 Y132.596 E49.90266
G1 X144.388 Y133.2 E49.92275
G1 F2700 E44.92275
G0 F6000 X144.388 Y133.4
G0 X140.388 Y133.4
G0 X140.388 Y133.2
G1 F2700 E49.92275
G1 F1200 X143.605 Y133.2 E50.02975
G1 X143.605 Y86.8 E51.57302
G1 X140.391 Y86.8 E51.67992
G1 X140.399 Y87.748 E51.71145
G1 X140.392 Y89.299 E51.76304
G1 X140.392 Y130.7 E53.14004
G1 X140.399 Y132.596 E53.2031
G1 X140.388 Y133.2 E53.2232
G1 F2700 E48.2232
G0 F6000 X140.388 Y133.4
G0 X136.388 Y133.4
G0 X136.388 Y133.2
G1 F2700 E53.2232
G1 F1200 X139.605 Y133.2 E53.33019
G1 X139.605 Y86.8 E54.87346
G1 X136.392 Y86.8 E54.98033
G1 X136.399 Y88.498 E55.03681
G1 X136.392 Y89.299 E55.06345
G1 X136.392 Y130.7 E56.44045
G1 X136.399 Y132.596 E56.50351
G1 X136.388 Y133.2 E56.5236
G1 F2700 E51.5236
G0 F6000 X136.388 Y133.4
G0 X132.388 Y133.4
G0 X132.388 Y133.2
G1 F2700 E56.5236
G1 F1200 X135.605 Y133.2 E56.6306
G1 X135.605 Y86.8 E58.17387
G1 X132.391 Y86.8 E58.28077
G1 X132.399 Y87.748 E58.3123
G1 X132.392 Y89.299 E58.36389
G1 X132.392 Y130.7 E59.74089
G1 X132.399 Y132.596 E59.80395
G1 X132.388 Y133.2 E59.82405
G1 F2700 E54.82405
G0 F6000 X132.388 Y133.4
G0 X128.388 Y133.4
G0 X128.388 Y133.2
G1 F2700 E59.82405
G1 F1200 X131.605 Y133.2 E59.93104
G1 X131.605 Y86.8 E61.47431
G1 X128.392 Y86.8 E61.58118
G1 X128.399 Y88.498 E61.63766
G1 X128.392 Y89.299 E61.6643
G1 X128.392 Y130.7 E63.0413
G1 X128.399 Y132.596 E63.10436
G1 X128.388 Y133.2 E63.12445
G1 F2700 E58.12445
G0 F6000 X128.388 Y133.4
G0 X124.388 Y133.4
G0 X124.388 Y133.2
G1 F2700 E63.12445
G1 F1200 X127.605 Y133.2 E63.23145
G1 X127.605 Y86.8 E64.77472
G1 X124.391 Y86.8 E64.88162
G1 X124.399 Y87.748 E64.91315
G1 X124.392 Y89.299 E64.96474
G1 X124.392 Y130.7 E66.34174
G1 X124.399 Y132.596 E66.4048
G1 X124.388 Y133.2 E66.4249
G1 F2700 E61.4249
G0 F6000 X124.388 Y133.4
G0 X120.388 Y133.4
G0 X120.388 Y133.2
G1 F2700 E66.4249
G1 F1200 X123.605 Y133.2 E66.53189
G1 X123.605 Y86.8 E68.07516
G1 X120.392 Y86.8 E68.18203
G1 X120.399 Y88.498 E68.23851
G1 X120.392 Y89.299 E68.26515
G1 X120.392 Y130.7 E69.64215
G1 X120.399 Y132.596 E69.70521
G1 X120.388 Y133.2 E69.72531
G1 F2700 E64.72531
G0 F6000 X120.388 Y133.4
G0 X116.388 Y133.4
G0 X116.388 Y133.2
G1 F2700 E69.72531
G1 F1200 X119.605 Y133.2 E69.8323
G1 X119.605 Y86.8 E71.37557
G1 X116.391 Y86.8 E71.48247
G1 X116.399 Y87.748 E71.514
G1 X116.392 Y89.299 E71.56559
G1 X116.392 Y130.7 E72.94259
G1 X116.399 Y132.596 E73.00565
G1 X116.388 Y133.2 E73.02575
G1 F2700 E68.02575
G0 F6000 X116.388 Y133.4
G0 X112.388 Y133.4
G0 X112.388 Y133.2
G1 F2700 E73.02575
G1 F1200 X115.605 Y133.2 E73.13274
G1 X115.605 Y86.8 E74.67602
G1 X112.392 Y86.8 E74.78288
G1 X112.399 Y88.498 E74.83936
G1 X112.392 Y89.299 E74.866
G1 X112.392 Y130.7 E76.243
G1 X112.399 Y132.596 E76.30606
G1 X112.388 Y133.2 E76.32616
G1 F2700 E71.32616
G0 F6000 X112.388 Y133.4
G0 X72.258 Y133.328
G0 X71.805 Y133.2
G0 X71.605 Y133.2
G1 F2700 E76.32616
G1 F1200 X71.605 Y86.8 E77.86943
G1 X67.3 Y86.8 E78.01261
G1 X67.3 Y133.2 E79.55588
G1 X71.605 Y133.2 E79.69907
G1 F2700 E74.69907
G0 F6000 X71.805 Y133.2
G0 X72.258 Y133.328
G0 X75.733 Y133.328
G0 X75.805 Y133.2
G0 X75.605 Y133.2
G1 F2700 E79.69907
G1 F1200 X75.605 Y86.8 E81.24234
G1 X72.392 Y86.8 E81.3492
G1 X72.399 Y88.498 E81.40568
G1 X72.392 Y89.299 E81.43232
G1 X72.392 Y130.7 E82.80932
G1 X72.399 Y132.596 E82.87238
G1 X72.388 Y133.2 E82.89248
G1 X75.605 Y133.2 E82.99947
G1 F2700 E77.99947
G0 F6000 X75.805 Y133.2
G0 X76.258 Y133.328
G0 X79.733 Y133.328
G0 X79.805 Y133.2
G0 X79.605 Y133.2
G1 F2700 E82.99947
G1 F1200 X79.605 Y86.8 E84.54274
G1 X76.391 Y86.8 E84.64964
G1 X76.399 Y87.748 E84.68117
G1 X76.392 Y89.299 E84.73276
G1 X76.392 Y130.7 E86.10976
G1 X76.399 Y132.596 E86.17283
G1 X76.388 Y133.2 E86.19292
G1 X79.605 Y133.2 E86.29992
G1 F2700 E81.29992
G0 F6000 X79.805 Y133.2
G0 X80.258 Y133.328
G0 X83.733 Y133.328
G0 X83.805 Y133.2
G0 X83.605 Y133.2
G1 F2700 E86.29992
G1 F1200 X83.605 Y86.8 E87.84319
G1 X80.392 Y86.8 E87.95005
G1 X80.399 Y88.498 E88.00653
G1 X80.392 Y89.299 E88.03317
G1 X80.392 Y130.7 E89.41017
G1 X80.399 Y132.596 E89.47323
G1 X80.388 Y133.2 E89.49333
G1 X83.605 Y133.2 E89.60032
G1 F2700 E84.60032
G0 F6000 X83.805 Y133.2
G0 X84.258 Y133.328
G0 X87.733 Y133.328
G0 X87.805 Y133.2
G0 X87.605 Y133.2
G1 F2700 E89.60032
G1 F1200 X87.605 Y86.8 E91.14359
G1 X84.391 Y86.8 E91.25049
G1 X84.399 Y87.748 E91.28202
G1 X84.392 Y89.299 E91.33361
G1 X84.392 Y130.7 E92.71061
G1 X84.399 Y132.596 E92.77368
G1 X84.388 Y133.2 E92.79377
G1 X87.605 Y133.2 E92.90077
G1 F2700 E87.90077
G0 F6000 X87.805 Y133.2
G0 X88.258 Y133.328
G0 X91.733 Y133.328
G0 X91.805 Y133.2
G0 X91.605 Y133.2
G1 F2700 E92.90077
G1 F1200 X91.605 Y86.8 E94.44404
G1 X88.392 Y86.8 E94.5509
G1 X88.399 Y88.498 E94.60738
G1 X88.392 Y89.299 E94.63402
G1 X88.392 Y130.7 E96.01102
G1 X88.399 Y132.596 E96.07408
G1 X88.388 Y133.2 E96.09418
G1 X91.605 Y133.2 E96.20117
G1 F2700 E91.20117
G0 F6000 X91.805 Y133.2
G0 X92.258 Y133.328
G0 X95.733 Y133.328
G0 X95.805 Y133.2
G0 X95.605 Y133.2
G1 F2700 E96.20117
G1 F1200 X95.605 Y86.8 E97.74445
G1 X92.392 Y86.8 E97.85131
G1 X92.399 Y88.498 E97.90779
G1 X92.392 Y89.299 E97.93443
G1 X92.392 Y130.7 E99.31143
G1 X92.399 Y132.596 E99.37449
G1 X92.388 Y133.2 E99.39459
G1 X95.605 Y133.2 E99.50158
G1 F2700 E94.50158
G0 F6000 X95.805 Y133.2
G0 X96.258 Y133.328
G0 X99.733 Y133.328
G0 X99.805 Y133.2
G0 X99.605 Y133.2
G1 F2700 E99.50158
G1 F1200 X99.605 Y86.8 E101.04485
G1 X96.392 Y86.8 E101.15172
G1 X96.399 Y88.498 E101.20819
G1 X96.392 Y89.299 E101.23484
G1 X96.392 Y130.7 E102.61184
G1 X96.399 Y132.596 E102.6749
G1 X96.388 Y133.2 E102.69499
G1 X99.605 Y133.2 E102.80199
G1 F2700 E97.80199
G0 F6000 X99.805 Y133.2
G0 X100.258 Y133.328
G0 X103.733 Y133.328
G0 X103.805 Y133.2
G0 X103.605 Y133.2
G1 F2700 E102.80199
G1 F1200 X103.605 Y86.8 E104.34526
G1 X100.391 Y86.8 E104.45216
G1 X100.399 Y87.748 E104.48369
G1 X100.392 Y89.299 E104.53528
G1 X100.392 Y130.7 E105.91228
G1 X100.399 Y132.596 E105.97534
G1 X100.388 Y133.2 E105.99544
G1 X103.605 Y133.2 E106.10243
G1 F2700 E101.10243
G0 F6000 X103.805 Y133.2
G0 X104.258 Y133.328
G0 X107.733 Y133.328
G0 X107.805 Y133.2
G0 X107.605 Y133.2
G1 F2700 E106.10243
G1 F1200 X107.605 Y86.8 E107.6457
G1 X104.392 Y86.8 E107.75257
G1 X104.399 Y88.498 E107.80904
G1 X104.392 Y89.299 E107.83569
G1 X104.392 Y130.7 E109.21269
G1 X104.399 Y132.596 E109.27575
G1 X104.388 Y133.2 E109.29584
G1 X107.605 Y133.2 E109.40284
G0 F6000 X108.388 Y133.2
G1 F1200 X111.605 Y133.2 E109.50984
G1 X111.605 Y86.8 E111.05311
G1 X108.391 Y86.8 E111.16001
G1 X108.399 Y87.748 E111.19154
G1 X108.392 Y89.299 E111.24313
G1 X108.392 Y130.7 E112.62013
G1 X108.399 Y132.596 E112.68319
G1 X108.388 Y133.2 E112.70328
G1 F2700 E107.70328
G0 F6000 X108.388 Y133.4
G0 X66.704 Y133.796
G0 X66.31 Y133.796
G0 X66.1 Y134.4
