;FLAVOR:Marlin
;TIME:1177
;Filament used: 0.891139m
;Layer height: 0.2
;MINX:84.409
;MINY:84.409
;MINZ:0.2
;MAXX:135.591
;MAXY:135.591
;MAXZ:13.04
;Generated with Cura_SteamEngine 4.6.1
M140 S50
M105
M190 S50
M104 S200
M105
M109 S200
M82 ;absolute extrusion mode
M201 X500.00 Y500.00 Z100.00 E5000.00 ;Setup machine max acceleration
M203 X500.00 Y500.00 Z10.00 E50.00 ;Setup machine max feedrate
M204 P500.00 R1000.00 T500.00 ;Setup Print/Retract/Travel acceleration
M205 X8.00 Y8.00 Z0.40 E5.00 ;Setup Jerk
M220 S100 ;Reset Feedrate
M221 S100 ;Reset Flowrate

G28 ;Home

G92 E0 ;Reset Extruder
G1 Z2.0 F3000 ;Move Z Axis up
G1 X10.1 Y20 Z0.28 F5000.0 ;Move to start position
G1 X10.1 Y200.0 Z0.28 F1500.0 E15 ;Draw the first line
G1 X10.4 Y200.0 Z0.28 F5000.0 ;Move to side a little
G1 X10.4 Y20 Z0.28 F1500.0 E30 ;Draw the second line
G92 E0 ;Reset Extruder
G1 Z2.0 F3000 ;Move Z Axis up

G92 E0
G92 E0
G1 F2700 E-5
;LAYER_COUNT:56
;LAYER:0
M107
G0 F6000 X122.348 Y85.223 Z0.2
;TYPE:SKIRT
G1 F2700 E0
G1 F1200 X123.279 Y85.278 E0.03102
G1 X123.545 Y85.306 E0.03992
G1 X124.438 Y85.44 E0.06995
G1 X125.288 Y85.645 E0.09903
G1 X125.902 Y85.821 E0.12027
G1 X126.758 Y86.108 E0.1503
G1 X127.908 Y86.635 E0.19238
G1 X128.229 Y86.807 E0.20449
G1 X129.006 Y87.269 E0.23456
G1 X129.387 Y87.531 E0.24994
G1 X129.589 Y87.677 E0.25823
G1 X130.309 Y88.248 E0.28879
G1 X130.555 Y88.462 E0.29963
G1 X131.451 Y89.345 E0.34147
G1 X131.635 Y89.55 E0.35064
G1 X132.334 Y90.42 E0.38776
G1 X132.486 Y90.632 E0.39643
G1 X133.071 Y91.548 E0.43258
G1 X133.199 Y91.774 E0.44122
G1 X133.609 Y92.579 E0.47127
G1 X133.924 Y93.355 E0.49912
G1 X134.111 Y93.876 E0.51753
G1 X134.378 Y94.739 E0.54758
G1 X134.574 Y95.656 E0.57877
G1 X134.624 Y95.958 E0.58895
G1 X134.732 Y96.855 E0.619
G1 X134.757 Y97.354 E0.63562
G1 X134.791 Y98.757 E0.68229
G1 X134.79 Y121.529 E1.43969
G1 X134.78 Y122.22 E1.46268
G1 X134.765 Y122.643 E1.47676
G1 X134.748 Y122.946 E1.48685
G1 X134.658 Y123.845 E1.5169
G1 X134.529 Y124.553 E1.54084
G1 X134.423 Y125.038 E1.55735
G1 X134.191 Y125.911 E1.58739
G1 X133.867 Y126.8 E1.61886
G1 X133.697 Y127.206 E1.6335
G1 X133.311 Y128.022 E1.66353
G1 X132.775 Y128.924 E1.69842
G1 X132.543 Y129.272 E1.71233
G1 X131.752 Y130.309 E1.75571
G1 X131.538 Y130.555 E1.76656
G1 X130.659 Y131.447 E1.80821
G1 X130.452 Y131.633 E1.81747
G1 X129.56 Y132.349 E1.85551
G1 X129.347 Y132.501 E1.86421
G1 X128.242 Y133.187 E1.90747
G1 X127.938 Y133.35 E1.91895
G1 X127.124 Y133.741 E1.94898
G1 X126.651 Y133.929 E1.96591
G1 X126.345 Y134.042 E1.97676
G1 X125.329 Y134.359 E2.01216
G1 X125.113 Y134.414 E2.01957
G1 X124.189 Y134.604 E2.05095
G1 X123.974 Y134.638 E2.05819
G1 X122.631 Y134.76 E2.10304
G1 X121.24 Y134.791 E2.14932
G1 X98.457 Y134.79 E2.90708
G1 X97.779 Y134.78 E2.92963
G1 X97.365 Y134.765 E2.94341
G1 X97.058 Y134.748 E2.95364
G1 X96.159 Y134.659 E2.98369
G1 X95.431 Y134.526 E3.0083
G1 X94.949 Y134.42 E3.02471
G1 X94.077 Y134.187 E3.05473
G1 X93.2 Y133.867 E3.08579
G1 X92.794 Y133.697 E3.10042
G1 X91.978 Y133.311 E3.13045
G1 X91.019 Y132.736 E3.16764
G1 X90.679 Y132.506 E3.18129
G1 X89.709 Y131.762 E3.22195
G1 X89.437 Y131.526 E3.23393
G1 X88.527 Y130.63 E3.2764
G1 X88.354 Y130.437 E3.28502
G1 X87.781 Y129.739 E3.31506
G1 X87.333 Y129.088 E3.34135
G1 X87.058 Y128.654 E3.35843
G1 X86.609 Y127.871 E3.38845
G1 X86.329 Y127.283 E3.41012
G1 X86.245 Y127.091 E3.41709
G1 X85.904 Y126.2 E3.44882
G1 X85.836 Y125.994 E3.45603
G1 X85.629 Y125.281 E3.48073
G1 X85.572 Y125.054 E3.48851
G1 X85.368 Y124.019 E3.5236
G1 X85.335 Y123.789 E3.53133
G1 X85.234 Y122.553 E3.57257
G1 X85.209 Y121.24 E3.61625
G1 X85.21 Y98.457 E4.37402
G1 X85.22 Y97.779 E4.39657
G1 X85.235 Y97.365 E4.41035
G1 X85.252 Y97.058 E4.42057
G1 X85.341 Y96.159 E4.45062
G1 X85.469 Y95.453 E4.47449
G1 X85.563 Y95.021 E4.48919
G1 X85.869 Y93.919 E4.52723
G1 X85.934 Y93.727 E4.53397
G1 X86.279 Y92.845 E4.56547
G1 X86.386 Y92.605 E4.57421
G1 X86.79 Y91.797 E4.60426
G1 X87.152 Y91.196 E4.62759
G1 X87.394 Y90.824 E4.64235
G1 X87.919 Y90.089 E4.6724
G1 X88.248 Y89.691 E4.68957
G1 X88.462 Y89.445 E4.70041
G1 X89.35 Y88.545 E4.74247
G1 X89.572 Y88.346 E4.75238
G1 X90.511 Y87.599 E4.79229
G1 X90.71 Y87.459 E4.80038
G1 X91.471 Y86.972 E4.83043
G1 X92.047 Y86.663 E4.85217
G1 X92.424 Y86.476 E4.86617
G1 X93.616 Y85.976 E4.90916
G1 X93.893 Y85.88 E4.91891
G1 X94.771 Y85.62 E4.94937
G1 X94.972 Y85.57 E4.95626
G1 X96.304 Y85.331 E5.00127
G1 X96.645 Y85.293 E5.01268
G1 X97.568 Y85.232 E5.04345
G1 X98.809 Y85.209 E5.08473
G1 X121.468 Y85.212 E5.83837
G1 X122.348 Y85.223 E5.86764
G0 F6000 X122.353 Y84.823
G1 F1200 X123.321 Y84.88 E5.89989
G1 X123.587 Y84.908 E5.90879
G1 X124.497 Y85.044 E5.93939
G1 X125.398 Y85.26 E5.97021
G1 X126.012 Y85.436 E5.99145
G1 X126.885 Y85.728 E6.02207
G1 X128.097 Y86.283 E6.06641
G1 X128.418 Y86.455 E6.07852
G1 X129.21 Y86.924 E6.10913
G1 X129.621 Y87.207 E6.12573
G1 X129.823 Y87.353 E6.13402
G1 X130.571 Y87.947 E6.16579
G1 X130.817 Y88.161 E6.17664
G1 X131.748 Y89.078 E6.2201
G1 X131.932 Y89.283 E6.22926
G1 X132.659 Y90.187 E6.26784
G1 X132.811 Y90.399 E6.27652
G1 X133.419 Y91.351 E6.31409
G1 X133.547 Y91.577 E6.32273
G1 X133.966 Y92.397 E6.35336
G1 X134.301 Y93.22 E6.38291
G1 X134.488 Y93.741 E6.40132
G1 X134.761 Y94.62 E6.43194
G1 X134.969 Y95.591 E6.46496
G1 X135.019 Y95.893 E6.47514
G1 X135.129 Y96.807 E6.50576
G1 X135.157 Y97.343 E6.52362
G1 X135.191 Y98.757 E6.57066
G1 X135.19 Y121.534 E7.32823
G1 X135.18 Y122.225 E7.35121
G1 X135.164 Y122.666 E7.36589
G1 X135.147 Y122.969 E7.37598
G1 X135.056 Y123.885 E7.4066
G1 X134.92 Y124.638 E7.43205
G1 X134.814 Y125.123 E7.44856
G1 X134.578 Y126.013 E7.47918
G1 X134.235 Y126.954 E7.5125
G1 X134.065 Y127.36 E7.52714
G1 X133.673 Y128.193 E7.55776
G1 X133.108 Y129.146 E7.5946
G1 X132.876 Y129.494 E7.60852
G1 X132.053 Y130.571 E7.6536
G1 X131.839 Y130.817 E7.66444
G1 X130.927 Y131.745 E7.70772
G1 X130.72 Y131.931 E7.71697
G1 X129.792 Y132.674 E7.75651
G1 X129.579 Y132.826 E7.76522
G1 X128.431 Y133.54 E7.81018
G1 X128.127 Y133.703 E7.82166
G1 X127.297 Y134.102 E7.85229
G1 X126.79 Y134.305 E7.87045
G1 X126.484 Y134.418 E7.8813
G1 X125.428 Y134.746 E7.91808
G1 X125.212 Y134.801 E7.92549
G1 X124.252 Y134.999 E7.95809
G1 X124.037 Y135.033 E7.96533
G1 X123.122 Y135.137 E7.99596
G1 X122.641 Y135.16 E8.01198
G1 X121.24 Y135.191 E8.05859
G1 X98.451 Y135.19 E8.81655
G1 X97.773 Y135.18 E8.8391
G1 X97.343 Y135.165 E8.85341
G1 X97.036 Y135.148 E8.86364
G1 X96.12 Y135.057 E8.89426
G1 X95.345 Y134.917 E8.92045
G1 X94.863 Y134.811 E8.93687
G1 X93.974 Y134.574 E8.96747
G1 X93.046 Y134.235 E9.00033
G1 X92.64 Y134.065 E9.01497
G1 X91.807 Y133.673 E9.04559
G1 X90.795 Y133.068 E9.0848
G1 X90.455 Y132.838 E9.09846
G1 X89.447 Y132.064 E9.14072
G1 X89.175 Y131.828 E9.1527
G1 X88.229 Y130.897 E9.19685
G1 X88.056 Y130.704 E9.20547
G1 X87.472 Y129.993 E9.23607
G1 X86.995 Y129.303 E9.26397
G1 X86.72 Y128.869 E9.28106
G1 X86.262 Y128.07 E9.31169
G1 X85.963 Y127.444 E9.33476
G1 X85.879 Y127.252 E9.34173
G1 X85.524 Y126.326 E9.37472
G1 X85.456 Y126.12 E9.38193
G1 X85.241 Y125.379 E9.4076
G1 X85.184 Y125.152 E9.41538
G1 X84.972 Y124.075 E9.45189
G1 X84.939 Y123.845 E9.45962
G1 X84.834 Y122.562 E9.50243
G1 X84.809 Y121.24 E9.54641
G1 X84.81 Y98.451 E10.30438
G1 X84.82 Y97.773 E10.32693
G1 X84.835 Y97.343 E10.34124
G1 X84.852 Y97.036 E10.35147
G1 X84.943 Y96.12 E10.38208
G1 X85.078 Y95.368 E10.40749
G1 X85.172 Y94.936 E10.4222
G1 X85.49 Y93.791 E10.46172
G1 X85.555 Y93.599 E10.46846
G1 X85.914 Y92.682 E10.50122
G1 X86.021 Y92.442 E10.50996
G1 X86.432 Y91.618 E10.54058
G1 X86.817 Y90.978 E10.56543
G1 X87.059 Y90.606 E10.58019
G1 X87.594 Y89.857 E10.6108
G1 X87.947 Y89.429 E10.62925
G1 X88.161 Y89.183 E10.6401
G1 X89.083 Y88.247 E10.6838
G1 X89.305 Y88.048 E10.69371
G1 X90.281 Y87.271 E10.7352
G1 X90.48 Y87.131 E10.7433
G1 X91.255 Y86.635 E10.7739
G1 X91.869 Y86.305 E10.79709
G1 X92.246 Y86.118 E10.81108
G1 X93.485 Y85.598 E10.85577
G1 X93.762 Y85.502 E10.86552
G1 X94.674 Y85.231 E10.89717
G1 X94.875 Y85.181 E10.90406
G1 X95.777 Y84.998 E10.93467
G1 X96.26 Y84.933 E10.95088
G1 X96.601 Y84.895 E10.96229
G1 X97.56 Y84.832 E10.99426
G1 X98.809 Y84.809 E11.03581
G1 X121.468 Y84.812 E11.78945
G1 X122.353 Y84.823 E11.81888
G0 F6000 X122.359 Y84.423
G1 F1200 X123.363 Y84.482 E11.85233
G1 X123.629 Y84.51 E11.86123
G1 X124.556 Y84.648 E11.8924
G1 X125.508 Y84.876 E11.92496
G1 X126.122 Y85.052 E11.94621
G1 X127.012 Y85.348 E11.9774
G1 X128.286 Y85.93 E12.02399
G1 X128.607 Y86.102 E12.0361
G1 X129.414 Y86.58 E12.0673
G1 X129.856 Y86.883 E12.08512
G1 X130.058 Y87.029 E12.09341
G1 X130.834 Y87.645 E12.12636
G1 X131.08 Y87.859 E12.13721
G1 X132.046 Y88.81 E12.18229
G1 X132.23 Y89.015 E12.19146
G1 X132.984 Y89.953 E12.23148
G1 X133.136 Y90.165 E12.24016
G1 X133.767 Y91.154 E12.27918
G1 X133.895 Y91.38 E12.28782
G1 X134.322 Y92.215 E12.31901
G1 X134.677 Y93.085 E12.35026
G1 X134.864 Y93.606 E12.36867
G1 X135.143 Y94.501 E12.39985
G1 X135.363 Y95.525 E12.43469
G1 X135.413 Y95.827 E12.44487
G1 X135.527 Y96.758 E12.47607
G1 X135.557 Y97.333 E12.49522
G1 X135.591 Y98.757 E12.54259
G1 X135.59 Y121.54 E13.30036
G1 X135.58 Y122.231 E13.32334
G1 X135.564 Y122.688 E13.33855
G1 X135.547 Y122.991 E13.34865
G1 X135.454 Y123.924 E13.37983
G1 X135.31 Y124.724 E13.40687
G1 X135.204 Y125.209 E13.42338
G1 X134.965 Y126.116 E13.45458
G1 X134.604 Y127.109 E13.48972
G1 X134.434 Y127.515 E13.50436
G1 X134.036 Y128.363 E13.53552
G1 X133.441 Y129.368 E13.57436
G1 X133.209 Y129.716 E13.58827
G1 X132.656 Y130.473 E13.61945
G1 X132.355 Y130.834 E13.63509
G1 X132.141 Y131.08 E13.64593
G1 X131.194 Y132.042 E13.69083
G1 X130.987 Y132.228 E13.70008
G1 X130.025 Y133 E13.74111
G1 X129.812 Y133.152 E13.74981
G1 X128.62 Y133.892 E13.79648
G1 X128.316 Y134.055 E13.80795
G1 X127.471 Y134.463 E13.83916
G1 X126.929 Y134.68 E13.85858
G1 X126.623 Y134.793 E13.86943
G1 X125.526 Y135.134 E13.90764
G1 X125.31 Y135.189 E13.91505
G1 X124.314 Y135.394 E13.94887
G1 X124.099 Y135.428 E13.95611
G1 X123.167 Y135.535 E13.98731
G1 X122.651 Y135.56 E14.00449
G1 X121.24 Y135.591 E14.05144
G1 X98.445 Y135.59 E14.8096
G1 X97.767 Y135.58 E14.83215
G1 X97.321 Y135.564 E14.847
G1 X97.014 Y135.547 E14.85722
G1 X96.08 Y135.455 E14.88844
G1 X95.259 Y135.307 E14.91619
G1 X94.777 Y135.201 E14.9326
G1 X93.871 Y134.961 E14.96377
G1 X92.891 Y134.604 E14.99846
G1 X92.485 Y134.434 E15.0131
G1 X91.637 Y134.036 E15.04426
G1 X90.571 Y133.399 E15.08556
G1 X90.231 Y133.169 E15.09922
G1 X89.185 Y132.367 E15.14306
G1 X88.913 Y132.131 E15.15503
G1 X87.931 Y131.164 E15.20087
G1 X87.758 Y130.971 E15.20949
G1 X87.162 Y130.247 E15.24068
G1 X86.657 Y129.517 E15.27021
G1 X86.382 Y129.083 E15.28729
G1 X85.915 Y128.27 E15.31848
G1 X85.596 Y127.604 E15.34304
G1 X85.512 Y127.412 E15.35001
G1 X85.144 Y126.451 E15.38424
G1 X85.076 Y126.245 E15.39145
G1 X84.853 Y125.476 E15.41808
G1 X84.796 Y125.249 E15.42587
G1 X84.577 Y124.132 E15.46373
G1 X84.544 Y123.902 E15.47145
G1 X84.434 Y122.57 E15.51591
G1 X84.409 Y121.24 E15.56015
G1 X84.41 Y98.445 E16.31832
G1 X84.42 Y97.767 E16.34087
G1 X84.436 Y97.321 E16.35571
G1 X84.453 Y97.014 E16.36594
G1 X84.545 Y96.08 E16.39715
G1 X84.688 Y95.283 E16.42409
G1 X84.782 Y94.851 E16.43879
G1 X85.111 Y93.663 E16.47979
G1 X85.176 Y93.471 E16.48653
G1 X85.548 Y92.519 E16.52053
G1 X85.655 Y92.279 E16.52927
G1 X86.073 Y91.439 E16.56047
G1 X86.481 Y90.76 E16.58682
G1 X86.723 Y90.388 E16.60158
G1 X87.268 Y89.624 E16.63279
G1 X87.645 Y89.166 E16.65252
G1 X87.859 Y88.92 E16.66337
G1 X88.816 Y87.949 E16.70871
G1 X89.038 Y87.75 E16.71863
G1 X90.051 Y86.944 E16.76169
G1 X90.25 Y86.804 E16.76978
G1 X91.039 Y86.298 E16.80095
G1 X91.691 Y85.947 E16.82558
G1 X92.068 Y85.76 E16.83958
G1 X93.354 Y85.22 E16.88597
G1 X93.631 Y85.124 E16.89572
G1 X94.578 Y84.843 E16.92858
G1 X94.779 Y84.793 E16.93546
G1 X95.698 Y84.606 E16.96666
G1 X96.216 Y84.536 E16.98404
G1 X96.557 Y84.498 E16.99545
G1 X97.551 Y84.432 E17.02859
G1 X98.809 Y84.409 E17.07044
G1 X121.468 Y84.412 E17.82408
G1 X122.359 Y84.423 E17.85371
G1 F2700 E12.85371
;MESH:SmallTable.stl
G0 F6000 X122.145 Y94.746
G0 X122.145 Y95.832
G0 X97.594 Y96.208
G0 X96.977 Y96.451
G0 X96.479 Y96.931
G0 X96.219 Y97.543
G0 X96.182 Y122.112
G0 X96.299 Y122.726
G0 X96.679 Y123.309
G0 X97.695 Y123.978
;TYPE:WALL-INNER
G1 F2700 E17.85371
G1 F1200 X97.506 Y123.948 E17.86008
G1 X97.33 Y123.902 E17.86613
G1 X97.221 Y123.864 E17.86997
G1 X96.996 Y123.759 E17.87823
G1 X96.853 Y123.674 E17.88376
G1 X96.71 Y123.568 E17.88968
G1 X96.555 Y123.427 E17.89665
G1 X96.401 Y123.25 E17.90445
G1 X96.297 Y123.101 E17.9105
G1 X96.215 Y122.957 E17.91601
G1 X96.141 Y122.791 E17.92205
G1 X96.075 Y122.586 E17.92922
G1 X96.047 Y122.467 E17.93328
G1 X96.017 Y122.257 E17.94034
G1 X96.011 Y122.112 E17.94516
G1 X96.009 Y121.27 E17.97317
G1 X96.009 Y97.911 E18.75009
G1 X96.022 Y97.695 E18.75729
G1 X96.052 Y97.51 E18.76352
G1 X96.098 Y97.331 E18.76967
G1 X96.151 Y97.185 E18.77484
G1 X96.236 Y97.006 E18.78143
G1 X96.339 Y96.834 E18.7881
G1 X96.426 Y96.717 E18.79295
G1 X96.573 Y96.555 E18.80022
G1 X96.75 Y96.401 E18.80802
G1 X96.892 Y96.302 E18.81378
G1 X97.076 Y96.2 E18.82078
G1 X97.213 Y96.139 E18.82577
G1 X97.411 Y96.075 E18.83269
G1 X97.558 Y96.041 E18.83771
G1 X97.74 Y96.017 E18.84381
G1 X97.895 Y96.011 E18.84897
G1 X98.885 Y96.009 E18.8819
G1 X122.155 Y96.012 E19.65586
G1 X122.284 Y96.019 E19.66016
G1 X122.443 Y96.041 E19.6655
G1 X122.475 Y96.047 E19.66658
G1 X122.645 Y96.09 E19.67241
G1 X122.816 Y96.15 E19.67844
G1 X122.985 Y96.23 E19.68466
G1 X123.177 Y96.347 E19.69214
G1 X123.283 Y96.426 E19.69653
G1 X123.445 Y96.573 E19.70381
G1 X123.599 Y96.75 E19.71161
G1 X123.7 Y96.895 E19.71749
G1 X123.796 Y97.066 E19.72401
G1 X123.868 Y97.234 E19.73009
G1 X123.928 Y97.422 E19.73666
G1 X123.961 Y97.567 E19.7416
G1 X123.982 Y97.727 E19.74697
G1 X123.989 Y97.887 E19.7523
G1 X123.991 Y98.73 E19.78033
G1 X123.991 Y122.089 E20.55726
G1 X123.978 Y122.305 E20.56446
G1 X123.948 Y122.494 E20.57082
G1 X123.902 Y122.67 E20.57687
G1 X123.864 Y122.779 E20.58071
G1 X123.763 Y122.997 E20.5887
G1 X123.661 Y123.166 E20.59527
G1 X123.574 Y123.283 E20.60012
G1 X123.427 Y123.445 E20.60739
G1 X123.25 Y123.599 E20.6152
G1 X123.105 Y123.7 E20.62107
G1 X122.937 Y123.794 E20.62748
G1 X122.756 Y123.872 E20.63403
G1 X122.61 Y123.92 E20.63914
G1 X122.468 Y123.954 E20.644
G1 X122.26 Y123.983 E20.65098
G1 X122.105 Y123.989 E20.65614
G1 X121.27 Y123.991 E20.68392
G1 X97.917 Y123.991 E21.46064
G1 X97.695 Y123.978 E21.46804
G0 F6000 X97.647 Y124.376
;TYPE:WALL-OUTER
G1 F1200 X97.432 Y124.341 E21.47528
G1 X97.206 Y124.283 E21.48304
G1 X97.071 Y124.235 E21.48781
G1 X96.812 Y124.115 E21.4973
G1 X96.626 Y124.004 E21.5045
G1 X96.458 Y123.879 E21.51147
G1 X96.266 Y123.705 E21.52009
G1 X96.091 Y123.504 E21.52895
G1 X95.956 Y123.31 E21.53681
G1 X95.859 Y123.139 E21.54335
G1 X95.765 Y122.929 E21.551
G1 X95.689 Y122.694 E21.55922
G1 X95.654 Y122.542 E21.56441
G1 X95.618 Y122.291 E21.57284
G1 X95.611 Y122.129 E21.57823
G1 X95.609 Y121.271 E21.60677
G1 X95.609 Y97.912 E22.38369
G1 X95.624 Y97.647 E22.39252
G1 X95.659 Y97.432 E22.39977
G1 X95.716 Y97.211 E22.40736
G1 X95.783 Y97.026 E22.4139
G1 X95.881 Y96.819 E22.42152
G1 X95.978 Y96.654 E22.42789
G1 X96.018 Y96.596 E22.43023
G1 X96.119 Y96.46 E22.43586
G1 X96.295 Y96.266 E22.44458
G1 X96.496 Y96.091 E22.45344
G1 X96.69 Y95.956 E22.4613
G1 X96.893 Y95.843 E22.46903
G1 X97.065 Y95.767 E22.47528
G1 X97.308 Y95.688 E22.48378
G1 X97.491 Y95.646 E22.49003
G1 X97.705 Y95.618 E22.4972
G1 X97.879 Y95.611 E22.503
G1 X98.884 Y95.609 E22.53642
G1 X122.157 Y95.612 E23.31049
G1 X122.327 Y95.621 E23.31615
G1 X122.512 Y95.647 E23.32236
G1 X122.559 Y95.656 E23.32395
G1 X122.759 Y95.706 E23.33081
G1 X122.966 Y95.779 E23.33811
G1 X123.181 Y95.881 E23.34603
G1 X123.346 Y95.978 E23.35239
G1 X123.404 Y96.018 E23.35473
G1 X123.54 Y96.119 E23.36037
G1 X123.734 Y96.295 E23.36908
G1 X123.909 Y96.496 E23.37795
G1 X124.044 Y96.69 E23.38581
G1 X124.155 Y96.888 E23.39336
G1 X124.243 Y97.094 E23.40081
G1 X124.314 Y97.316 E23.40856
G1 X124.354 Y97.491 E23.41453
G1 X124.382 Y97.701 E23.42158
