;FLAVOR:Marlin
;TIME:1363
;Filament used: 0.909712m
;Layer height: 0.2
;MINX:37.321
;MINY:63.211
;MINZ:0.2
;MAXX:181.176
;MAXY:146.689
;MAXZ:5.72
;Generated with Cura_SteamEngine 4.6.1
M140 S50
M105
M190 S50
M104 S200
M105
M109 S200
M82 ;absolute extrusion mode
M201 X500.00 Y500.00 Z100.00 E5000.00 ;Setup machine max acceleration
M203 X500.00 Y500.00 Z10.00 E50.00 ;Setup machine max feedrate
M204 P500.00 R1000.00 T500.00 ;Setup Print/Retract/Travel acceleration
M205 X8.00 Y8.00 Z0.40 E5.00 ;Setup Jerk
M220 S100 ;Reset Feedrate
M221 S100 ;Reset Flowrate

G28 ;Home

G92 E0 ;Reset Extruder
G1 Z2.0 F3000 ;Move Z Axis up
G1 X10.1 Y20 Z0.28 F5000.0 ;Move to start position
G1 X10.1 Y200.0 Z0.28 F1500.0 E15 ;Draw the first line
G1 X10.4 Y200.0 Z0.28 F5000.0 ;Move to side a little
G1 X10.4 Y20 Z0.28 F1500.0 E30 ;Draw the second line
G92 E0 ;Reset Extruder
G1 Z2.0 F3000 ;Move Z Axis up

G92 E0
G92 E0
G1 F2700 E-5
;LAYER_COUNT:35
;LAYER:0
M107
G0 F6000 X169.658 Y64.193 Z0.2
;TYPE:SKIRT
G1 F2700 E0
G1 F1200 X170.342 Y64.204 E0.02275
G1 X171.243 Y64.259 E0.05278
G1 X172.137 Y64.393 E0.08284
G1 X173.014 Y64.605 E0.11285
G1 X173.87 Y64.895 E0.14291
G1 X174.696 Y65.258 E0.17292
G1 X175.488 Y65.694 E0.20299
G1 X176.237 Y66.198 E0.23302
G1 X176.939 Y66.766 E0.26305
G1 X177.588 Y67.394 E0.29309
G1 X178.179 Y68.077 E0.32313
G1 X178.707 Y68.809 E0.35315
G1 X179.169 Y69.586 E0.38321
G1 X179.56 Y70.4 E0.41325
G1 X179.877 Y71.245 E0.44327
G1 X180.118 Y72.116 E0.47333
G1 X180.282 Y73.004 E0.50336
G1 X180.366 Y73.903 E0.53339
G1 X180.37 Y74.806 E0.56343
G1 X180.294 Y75.706 E0.59347
G1 X180.169 Y76.456 E0.61876
G1 X180.006 Y77.231 E0.6451
G1 X179.838 Y77.95 E0.66965
G1 X179.361 Y79.883 E0.73587
G1 X179.108 Y80.835 E0.76864
G1 X178.883 Y81.605 E0.79532
G1 X178.666 Y82.307 E0.81976
G1 X178.46 Y82.942 E0.84196
G1 X178.144 Y83.788 E0.872
G1 X177.655 Y84.784 E0.9089
G1 X177.415 Y85.212 E0.92522
G1 X177.106 Y85.729 E0.94526
G1 X176.597 Y86.475 E0.97529
G1 X176.025 Y87.173 E1.00531
G1 X175.338 Y87.868 E1.03781
G1 X174.601 Y88.546 E1.07112
G1 X172.669 Y90.371 E1.15951
G1 X170.917 Y92.123 E1.24192
G1 X169.119 Y94.024 E1.32895
G1 X167.458 Y95.886 E1.41194
G1 X165.82 Y97.827 E1.49641
G1 X164.207 Y99.853 E1.58255
G1 X163.056 Y101.376 E1.64604
G1 X162.375 Y102.298 E1.68417
G1 X161.806 Y103 E1.71422
G1 X161.178 Y103.649 E1.74426
G1 X160.495 Y104.24 E1.7743
G1 X159.763 Y104.768 E1.80432
G1 X158.986 Y105.229 E1.83437
G1 X158.172 Y105.62 E1.8644
G1 X157.327 Y105.937 E1.89442
G1 X156.456 Y106.178 E1.92448
G1 X155.568 Y106.342 E1.95451
G1 X155.067 Y106.399 E1.97128
G1 X154.727 Y106.429 E1.98264
G1 X153.83 Y106.468 E2.0125
G1 X134.722 Y106.467 E2.64803
G1 X134.02 Y106.457 E2.67138
G1 X133.118 Y106.404 E2.70144
G1 X132.225 Y106.272 E2.73146
G1 X131.347 Y106.061 E2.76149
G1 X130.491 Y105.773 E2.79153
G1 X129.663 Y105.411 E2.82159
G1 X128.871 Y104.977 E2.85163
G1 X128.106 Y104.463 E2.88228
G1 X127.163 Y103.767 E2.92126
G1 X125.024 Y102.232 E3.00883
G1 X122.891 Y100.791 E3.09445
G1 X120.785 Y99.453 E3.17743
G1 X118.569 Y98.133 E3.26322
G1 X116.374 Y96.906 E3.34686
G1 X114.119 Y95.73 E3.43145
G1 X111.836 Y94.62 E3.51588
G1 X109.511 Y93.569 E3.60074
G1 X107.194 Y92.6 E3.68428
G1 X104.786 Y91.671 E3.77012
G1 X102.396 Y90.829 E3.8544
G1 X100.005 Y90.06 E3.93794
G1 X97.548 Y89.345 E4.02305
G1 X95.079 Y88.702 E4.10791
G1 X92.633 Y88.138 E4.19139
G1 X90.124 Y87.634 E4.27651
G1 X87.619 Y87.206 E4.36104
G1 X85.095 Y86.847 E4.44583
G1 X82.599 Y86.562 E4.52939
G1 X80.08 Y86.348 E4.61347
G1 X77.518 Y86.203 E4.69882
G1 X74.953 Y86.129 E4.78417
G1 X73.525 Y86.12 E4.83166
G1 X48.752 Y86.149 E5.65562
G1 X48.113 Y86.135 E5.67687
G1 X47.211 Y86.075 E5.70694
G1 X46.319 Y85.936 E5.73697
G1 X45.443 Y85.718 E5.76699
G1 X44.589 Y85.424 E5.79703
G1 X43.764 Y85.055 E5.82709
G1 X42.976 Y84.615 E5.85711
G1 X42.229 Y84.107 E5.88716
G1 X41.53 Y83.535 E5.9172
G1 X40.885 Y82.903 E5.94723
G1 X40.298 Y82.217 E5.97726
G1 X39.774 Y81.481 E6.00731
G1 X39.317 Y80.702 E6.03735
G1 X38.931 Y79.886 E6.06737
G1 X38.619 Y79.038 E6.09743
G1 X38.383 Y78.167 E6.12744
G1 X38.224 Y77.277 E6.15751
G1 X38.137 Y76.097 E6.19686
G1 X38.121 Y74.766 E6.24114
G1 X38.131 Y74.077 E6.26406
G1 X38.184 Y73.175 E6.29411
G1 X38.317 Y72.282 E6.32414
G1 X38.528 Y71.404 E6.35417
G1 X38.816 Y70.548 E6.38421
G1 X39.178 Y69.721 E6.41424
G1 X39.613 Y68.929 E6.44429
G1 X40.115 Y68.179 E6.47431
G1 X40.682 Y67.476 E6.50435
G1 X41.309 Y66.826 E6.53438
G1 X41.991 Y66.234 E6.56442
G1 X42.723 Y65.704 E6.59448
G1 X43.499 Y65.242 E6.62452
G1 X44.312 Y64.85 E6.65454
G1 X45.157 Y64.531 E6.68458
G1 X46.027 Y64.288 E6.71462
G1 X46.915 Y64.124 E6.74466
G1 X47.915 Y64.033 E6.77805
G1 X48.136 Y64.024 E6.78541
G1 X48.459 Y64.016 E6.79616
G1 X49.12 Y64.011 E6.81814
G1 X115.482 Y64.109 E9.02535
G1 X169.658 Y64.193 E10.82726
G0 F6000 X169.664 Y63.793
G1 F1200 X170.348 Y63.804 E10.85001
G1 X171.267 Y63.859 E10.88063
G1 X172.178 Y63.993 E10.91126
G1 X173.074 Y64.206 E10.94189
G1 X173.948 Y64.496 E10.97251
G1 X174.793 Y64.861 E11.00313
G1 X175.604 Y65.297 E11.03375
G1 X176.374 Y65.802 E11.06438
G1 X177.097 Y66.372 E11.095
G1 X177.767 Y67.003 E11.12561
G1 X178.381 Y67.689 E11.15624
G1 X178.932 Y68.426 E11.18684
G1 X179.418 Y69.209 E11.21749
G1 X179.834 Y70.03 E11.2481
G1 X180.177 Y70.884 E11.27871
G1 X180.445 Y71.765 E11.30934
G1 X180.635 Y72.666 E11.33997
G1 X180.746 Y73.58 E11.37059
G1 X180.778 Y74.5 E11.40121
G1 X180.729 Y75.419 E11.43182
G1 X180.561 Y76.537 E11.46942
G1 X180.396 Y77.322 E11.4961
G1 X180.226 Y78.046 E11.52084
G1 X179.748 Y79.984 E11.58723
G1 X179.492 Y80.947 E11.62037
G1 X179.265 Y81.722 E11.64723
G1 X179.047 Y82.431 E11.6719
G1 X178.841 Y83.066 E11.6941
G1 X178.519 Y83.928 E11.72471
G1 X178.004 Y84.979 E11.76363
G1 X177.764 Y85.407 E11.77996
G1 X177.446 Y85.939 E11.80057
G1 X176.928 Y86.7 E11.83119
G1 X176.346 Y87.414 E11.86183
G1 X175.609 Y88.162 E11.89675
G1 X174.91 Y88.805 E11.92834
G1 X172.944 Y90.662 E12.01829
G1 X171.189 Y92.417 E12.10084
G1 X169.443 Y94.264 E12.18537
G1 X167.746 Y96.165 E12.27013
G1 X166.138 Y98.072 E12.3531
G1 X164.519 Y100.105 E12.43953
G1 X163.342 Y101.661 E12.50443
G1 X162.696 Y102.536 E12.5406
G1 X162.118 Y103.252 E12.57121
G1 X161.479 Y103.915 E12.60183
G1 X160.785 Y104.52 E12.63245
G1 X160.042 Y105.063 E12.66306
G1 X159.254 Y105.539 E12.69368
G1 X158.428 Y105.945 E12.72429
G1 X157.569 Y106.278 E12.75494
G1 X156.685 Y106.535 E12.78556
G1 X155.782 Y106.715 E12.81618
G1 X155.102 Y106.797 E12.83896
G1 X154.762 Y106.827 E12.85031
G1 X153.83 Y106.868 E12.88134
G1 X134.716 Y106.867 E13.51708
G1 X134.014 Y106.857 E13.54043
G1 X133.095 Y106.804 E13.57104
G1 X132.184 Y106.671 E13.60167
G1 X131.288 Y106.46 E13.63228
G1 X130.413 Y106.172 E13.66292
G1 X129.567 Y105.809 E13.69354
G1 X128.756 Y105.374 E13.72415
G1 X127.868 Y104.785 E13.75959
G1 X126.897 Y104.068 E13.79974
G1 X124.773 Y102.544 E13.88668
G1 X122.716 Y101.154 E13.96926
G1 X120.545 Y99.776 E14.05478
G1 X118.375 Y98.482 E14.13881
G1 X116.2 Y97.267 E14.22168
G1 X113.938 Y96.087 E14.30653
G1 X111.646 Y94.972 E14.39131
G1 X109.358 Y93.938 E14.47482
G1 X107.045 Y92.971 E14.5582
G1 X104.646 Y92.045 E14.64373
G1 X102.278 Y91.211 E14.72723
G1 X99.886 Y90.442 E14.8108
G1 X97.44 Y89.73 E14.89553
G1 X94.994 Y89.093 E14.9796
G1 X92.536 Y88.527 E15.06349
G1 X90.049 Y88.027 E15.14786
G1 X87.561 Y87.602 E15.23181
G1 X85.065 Y87.246 E15.31567
G1 X82.556 Y86.961 E15.39966
G1 X80.024 Y86.745 E15.48418
G1 X77.518 Y86.603 E15.56766
G1 X74.939 Y86.529 E15.65347
G1 X73.523 Y86.52 E15.70057
G1 X48.743 Y86.548 E16.52476
G1 X48.104 Y86.534 E16.54602
G1 X47.185 Y86.474 E16.57665
G1 X46.275 Y86.335 E16.60727
G1 X45.381 Y86.117 E16.63787
G1 X44.509 Y85.822 E16.66849
G1 X43.665 Y85.452 E16.69914
G1 X42.857 Y85.011 E16.72976
G1 X42.09 Y84.502 E16.76037
G1 X41.371 Y83.927 E16.79099
G1 X40.704 Y83.293 E16.8216
G1 X40.094 Y82.603 E16.85223
G1 X39.547 Y81.863 E16.88284
G1 X39.066 Y81.078 E16.91346
G1 X38.655 Y80.254 E16.94409
G1 X38.317 Y79.397 E16.97473
G1 X38.054 Y78.515 E17.00534
G1 X37.869 Y77.613 E17.03596
G1 X37.763 Y76.699 E17.06657
G1 X37.737 Y76.103 E17.08641
G1 X37.721 Y75.08 E17.12044
G1 X37.721 Y74.76 E17.13108
G1 X37.731 Y74.071 E17.154
G1 X37.784 Y73.152 E17.18462
G1 X37.917 Y72.241 E17.21524
G1 X38.129 Y71.345 E17.24586
G1 X38.417 Y70.471 E17.27647
G1 X38.78 Y69.625 E17.30709
G1 X39.215 Y68.813 E17.33773
G1 X39.719 Y68.043 E17.36834
G1 X40.288 Y67.319 E17.39896
G1 X40.918 Y66.647 E17.4296
G1 X41.603 Y66.033 E17.4602
G1 X42.34 Y65.48 E17.49084
G1 X43.121 Y64.993 E17.52145
G1 X43.942 Y64.576 E17.55208
G1 X44.796 Y64.232 E17.5827
G1 X45.676 Y63.963 E17.61331
G1 X46.577 Y63.771 E17.64395
G1 X47.899 Y63.634 E17.68815
G1 X48.455 Y63.616 E17.70666
G1 X49.121 Y63.611 E17.72881
G1 X115.483 Y63.709 E19.93602
G1 X169.664 Y63.793 E21.73809
G0 F6000 X169.671 Y63.393
G1 F1200 X170.355 Y63.404 E21.76084
G1 X171.291 Y63.459 E21.79203
G1 X172.219 Y63.594 E21.82322
G1 X173.133 Y63.807 E21.85443
G1 X174.024 Y64.097 E21.8856
G1 X174.888 Y64.463 E21.91681
G1 X175.718 Y64.9 E21.948
G1 X176.507 Y65.406 E21.97918
G1 X177.251 Y65.978 E22.01039
G1 X177.943 Y66.611 E22.04159
G1 X178.578 Y67.301 E22.07278
G1 X179.153 Y68.042 E22.10397
G1 X179.662 Y68.83 E22.13517
G1 X180.102 Y69.658 E22.16636
G1 X180.47 Y70.521 E22.19756
G1 X180.763 Y71.412 E22.22876
G1 X180.98 Y72.324 E22.25994
G1 X181.118 Y73.252 E22.29114
G1 X181.176 Y74.188 E22.32233
G1 X181.154 Y75.126 E22.35354
G1 X181.053 Y76.058 E22.38472
G1 X180.953 Y76.617 E22.40361
G1 X180.786 Y77.412 E22.43063
G1 X180.615 Y78.142 E22.45556
G1 X180.135 Y80.085 E22.52213
G1 X179.961 Y80.753 E22.54509
G1 X179.876 Y81.059 E22.55565
G1 X179.648 Y81.839 E22.58268
G1 X179.427 Y82.554 E22.60757
G1 X179.221 Y83.189 E22.62978
G1 X178.894 Y84.068 E22.66097
G1 X178.353 Y85.175 E22.70195
G1 X178.113 Y85.603 E22.71827
G1 X177.786 Y86.15 E22.73947
G1 X177.259 Y86.925 E22.77064
G1 X176.668 Y87.653 E22.80183
G1 X175.88 Y88.457 E22.83927
G1 X175.127 Y89.15 E22.87331
G1 X173.236 Y90.936 E22.95982
G1 X171.463 Y92.709 E23.04322
G1 X169.731 Y94.541 E23.12707
G1 X168.067 Y96.405 E23.21018
G1 X166.423 Y98.354 E23.29498
G1 X164.85 Y100.33 E23.37899
G1 X163.663 Y101.9 E23.44445
G1 X163.018 Y102.773 E23.48055
G1 X162.429 Y103.503 E23.51175
G1 X161.78 Y104.18 E23.54294
G1 X161.076 Y104.8 E23.57414
G1 X160.322 Y105.357 E23.60532
G1 X159.523 Y105.848 E23.63651
G1 X158.685 Y106.269 E23.6677
G1 X157.814 Y106.617 E23.6989
G1 X156.916 Y106.89 E23.73012
G1 X155.999 Y107.085 E23.7613
G1 X155.137 Y107.195 E23.7902
G1 X154.797 Y107.225 E23.80155
G1 X153.83 Y107.268 E23.83375
G1 X134.71 Y107.267 E24.46968
G1 X134.008 Y107.257 E24.49303
G1 X133.072 Y107.204 E24.52421
G1 X132.144 Y107.071 E24.55539
G1 X131.23 Y106.859 E24.5866
G1 X130.337 Y106.571 E24.61781
G1 X129.473 Y106.207 E24.64899
G1 X128.642 Y105.771 E24.6802
G1 X127.63 Y105.107 E24.72046
G1 X126.631 Y104.369 E24.76177
G1 X124.562 Y102.884 E24.84648
G1 X122.483 Y101.48 E24.92992
G1 X120.347 Y100.124 E25.01407
G1 X118.196 Y98.842 E25.09735
G1 X115.957 Y97.591 E25.18266
G1 X113.785 Y96.458 E25.26414
G1 X111.485 Y95.339 E25.34921
G1 X109.188 Y94.301 E25.43305
G1 X106.882 Y93.337 E25.51617
G1 X104.505 Y92.42 E25.60091
G1 X102.16 Y91.593 E25.68362
G1 X99.758 Y90.821 E25.76753
G1 X97.342 Y90.118 E25.85122
G1 X94.909 Y89.484 E25.93485
G1 X92.439 Y88.915 E26.01915
G1 X89.968 Y88.418 E26.10298
G1 X87.515 Y88 E26.18574
G1 X84.999 Y87.641 E26.27027
G1 X82.509 Y87.358 E26.35363
G1 X80.002 Y87.144 E26.43731
G1 X77.486 Y87.002 E26.52113
G1 X74.969 Y86.929 E26.60488
G1 X73.521 Y86.92 E26.65304
G1 X48.734 Y86.948 E27.47746
G1 X48.095 Y86.934 E27.49872
G1 X47.159 Y86.874 E27.52991
G1 X46.232 Y86.734 E27.5611
G1 X45.32 Y86.515 E27.59229
G1 X44.43 Y86.22 E27.62348
G1 X43.568 Y85.85 E27.65468
G1 X42.741 Y85.408 E27.68586
G1 X41.954 Y84.897 E27.71707
G1 X41.214 Y84.32 E27.74828
G1 X40.526 Y83.683 E27.77947
G1 X39.895 Y82.99 E27.81064
G1 X39.325 Y82.245 E27.84184
G1 X38.82 Y81.455 E27.87303
G1 X38.384 Y80.624 E27.90424
G1 X38.021 Y79.759 E27.93544
G1 X37.733 Y78.867 E27.96662
G1 X37.522 Y77.953 E27.99781
G1 X37.39 Y77.024 E28.02902
G1 X37.337 Y76.109 E28.05951
G1 X37.321 Y75.086 E28.09354
G1 X37.321 Y74.754 E28.10458
G1 X37.331 Y74.065 E28.1275
G1 X37.385 Y73.129 E28.15868
G1 X37.518 Y72.201 E28.18986
G1 X37.73 Y71.287 E28.22107
G1 X38.018 Y70.395 E28.25224
G1 X38.382 Y69.53 E28.28346
G1 X38.818 Y68.7 E28.31464
G1 X39.323 Y67.91 E28.34583
G1 X39.894 Y67.166 E28.37702
G1 X40.526 Y66.473 E28.40821
G1 X41.215 Y65.836 E28.43942
G1 X41.955 Y65.26 E28.47061
G1 X42.742 Y64.75 E28.50181
G1 X43.57 Y64.308 E28.53302
G1 X44.432 Y63.939 E28.56421
G1 X45.322 Y63.644 E28.59539
G1 X46.234 Y63.426 E28.62658
G1 X47.162 Y63.287 E28.65779
G1 X47.882 Y63.234 E28.6818
G1 X48.103 Y63.225 E28.68916
G1 X48.452 Y63.216 E28.70077
G1 X49.121 Y63.211 E28.72302
G1 X115.483 Y63.309 E30.93024
G1 X169.671 Y63.393 E32.73254
G1 F2700 E27.73254
;MESH:Umbrella-P2.stl
G0 F6000 X169.653 Y73.727
G0 X169.652 Y74.812
G0 X169.103 Y76.377
;TYPE:WALL-INNER
G1 F2700 E32.73254
G1 F1200 X169.216 Y75.178 E32.77259
G1 X115.467 Y75.263 E34.5603
G1 X103.039 Y75.283 E34.97365
G1 X102.966 Y75.284 E34.97608
G1 X48.92 Y75.349 E36.77366
G1 X48.92 Y74.811 E36.79155
G1 X49.1 Y74.811 E36.79754
G1 X102.966 Y74.889 E38.58913
G1 X103.039 Y74.89 E38.59153
G1 X115.466 Y74.909 E38.97844
G1 X169.216 Y74.991 E40.19043
G1 X169.444 Y74.992 E40.19801
G1 X169.388 Y75.22 E40.20193
G1 X169.103 Y76.377 E40.21063
G1 F2700 E35.21063
G0 F6000 X168.765 Y78.403
G0 X168.534 Y79.815
;TYPE:WALL-OUTER
G1 F2700 E40.21063
G1 F1200 X168.499 Y79.631 E40.21686
G1 X168.586 Y77.592 E40.28474
G1 X168.625 Y77.195 E40.29801
G1 X168.777 Y75.579 E40.352
G1 X103.042 Y75.683 E42.53835
G1 X102.972 Y75.684 E42.54068
G1 X48.52 Y75.749 E44.35177
G1 X48.52 Y74.412 E44.39623
G1 X48.638 Y74.41 E44.40016
G1 X49.101 Y74.411 E44.41556
G1 X115.467 Y74.509 E46.6229
G1 X169.946 Y74.593 E48.43488
G1 X169.869 Y74.94 E48.44671
G1 X169.134 Y77.924 E48.54892
G1 X168.574 Y79.747 E48.61235
G1 X168.534 Y79.815 E48.61497
G1 F2700 E43.61497
G0 F6000 X168.765 Y78.403
G0 X169.027 Y75.353
G0 X100.563 Y75.107
;TYPE:SKIN
G1 F2700 E48.61497
G1 F1200 X100.502 Y75.046 E48.61784
G0 F6000 X100.017 Y75.127
G1 F1200 X99.936 Y75.045 E48.62168
G0 F6000 X99.452 Y75.127
G1 F1200 X99.369 Y75.045 E48.62556
G0 F6000 X98.887 Y75.128
G1 F1200 X98.803 Y75.044 E48.62951
G0 F6000 X98.322 Y75.129
G1 F1200 X98.236 Y75.043 E48.63355
G0 F6000 X97.757 Y75.13
G1 F1200 X97.669 Y75.042 E48.63769
G0 F6000 X97.192 Y75.13
G1 F1200 X97.103 Y75.041 E48.64188
G0 F6000 X96.627 Y75.131
G1 F1200 X96.537 Y75.041 E48.64611
G0 F6000 X96.062 Y75.132
G1 F1200 X95.97 Y75.04 E48.65044
G0 F6000 X95.497 Y75.132
G1 F1200 X95.404 Y75.039 E48.65481
G0 F6000 X94.932 Y75.133
G1 F1200 X94.837 Y75.038 E48.65928
G0 F6000 X94.367 Y75.134
G1 F1200 X94.27 Y75.037 E48.66385
G0 F6000 X93.802 Y75.135
G1 F1200 X93.704 Y75.036 E48.66848
G0 F6000 X93.237 Y75.135
G1 F1200 X93.137 Y75.036 E48.67316
G0 F6000 X92.672 Y75.136
G1 F1200 X92.571 Y75.035 E48.67791
G0 F6000 X92.107 Y75.137
G1 F1200 X92.005 Y75.034 E48.68273
G0 F6000 X91.542 Y75.137
G1 F1200 X91.438 Y75.033 E48.68762
G0 F6000 X90.977 Y75.138
G1 F1200 X90.871 Y75.032 E48.69261
G0 F6000 X90.412 Y75.138
G1 F1200 X90.305 Y75.031 E48.69764
G0 F6000 X89.847 Y75.139
G1 F1200 X89.738 Y75.031 E48.70275
G0 F6000 X89.282 Y75.139
G1 F1200 X89.172 Y75.03 E48.7079
G0 F6000 X88.717 Y75.14
G1 F1200 X88.605 Y75.028 E48.71316
G0 F6000 X88.152 Y75.141
G1 F1200 X88.039 Y75.028 E48.71848
G0 F6000 X87.587 Y75.142
G1 F1200 X87.472 Y75.027 E48.72389
G0 F6000 X87.022 Y75.142
G1 F1200 X86.906 Y75.026 E48.72935
G0 F6000 X86.457 Y75.143
G1 F1200 X86.339 Y75.026 E48.73487
G0 F6000 X85.892 Y75.144
G1 F1200 X85.772 Y75.024 E48.74052
G0 F6000 X85.327 Y75.144
G1 F1200 X85.206 Y75.024 E48.74618
G0 F6000 X84.762 Y75.145
G1 F1200 X84.639 Y75.023 E48.75195
G0 F6000 X84.197 Y75.146
G1 F1200 X84.073 Y75.022 E48.75778
G0 F6000 X83.632 Y75.147
G1 F1200 X83.507 Y75.021 E48.76368
G0 F6000 X83.067 Y75.147
G1 F1200 X82.94 Y75.021 E48.76963
G0 F6000 X82.502 Y75.148
G1 F1200 X82.373 Y75.019 E48.7757
