;FLAVOR:Marlin
;TIME:1440
;Filament used: 1.21562m
;Layer height: 0.2
;MINX:37.295
;MINY:63.446
;MINZ:0.2
;MAXX:181.104
;MAXY:157.443
;MAXZ:3.92
;Generated with Cura_SteamEngine 4.6.1
M140 S50
M105
M190 S50
M104 S200
M105
M109 S200
M82 ;absolute extrusion mode
M201 X500.00 Y500.00 Z100.00 E5000.00 ;Setup machine max acceleration
M203 X500.00 Y500.00 Z10.00 E50.00 ;Setup machine max feedrate
M204 P500.00 R1000.00 T500.00 ;Setup Print/Retract/Travel acceleration
M205 X8.00 Y8.00 Z0.40 E5.00 ;Setup Jerk
M220 S100 ;Reset Feedrate
M221 S100 ;Reset Flowrate

G28 ;Home

G92 E0 ;Reset Extruder
G1 Z2.0 F3000 ;Move Z Axis up
G1 X10.1 Y20 Z0.28 F5000.0 ;Move to start position
G1 X10.1 Y200.0 Z0.28 F1500.0 E15 ;Draw the first line
G1 X10.4 Y200.0 Z0.28 F5000.0 ;Move to side a little
G1 X10.4 Y20 Z0.28 F1500.0 E30 ;Draw the second line
G92 E0 ;Reset Extruder
G1 Z2.0 F3000 ;Move Z Axis up

G92 E0
G92 E0
G1 F2700 E-5
;LAYER_COUNT:20
;LAYER:0
M107
G0 F6000 X117.148 Y64.338 Z0.2
;TYPE:SKIRT
G1 F2700 E0
G1 F1200 X169.462 Y64.421 E1.73997
G1 X169.601 Y64.422 E1.7446
G1 X170.261 Y64.432 E1.76655
G1 X171.162 Y64.486 E1.79657
G1 X172.055 Y64.619 E1.8266
G1 X172.933 Y64.831 E1.85664
G1 X173.789 Y65.119 E1.88668
G1 X174.616 Y65.482 E1.91672
G1 X175.407 Y65.917 E1.94674
G1 X176.157 Y66.42 E1.97678
G1 X176.86 Y66.988 E2.00684
G1 X177.51 Y67.615 E2.03688
G1 X178.101 Y68.297 E2.06689
G1 X178.63 Y69.029 E2.09693
G1 X179.092 Y69.805 E2.12697
G1 X179.484 Y70.619 E2.15702
G1 X179.802 Y71.464 E2.18705
G1 X180.044 Y72.334 E2.21708
G1 X180.208 Y73.222 E2.24712
G1 X180.293 Y74.121 E2.27715
G1 X180.298 Y75.025 E2.30722
G1 X180.18 Y76.232 E2.34756
G1 X180.013 Y77.254 E2.382
G1 X168.05 Y140.819 E4.5333
G1 X166.739 Y147.771 E4.7686
G1 X166.597 Y148.471 E4.79235
G1 X166.379 Y149.347 E4.82238
G1 X166.084 Y150.201 E4.85243
G1 X165.714 Y151.025 E4.88247
G1 X165.273 Y151.813 E4.9125
G1 X164.764 Y152.559 E4.94254
G1 X164.191 Y153.257 E4.97258
G1 X163.559 Y153.902 E5.00261
G1 X162.872 Y154.488 E5.03265
G1 X162.136 Y155.011 E5.06268
G1 X161.356 Y155.467 E5.09273
G1 X160.539 Y155.852 E5.12277
G1 X159.692 Y156.164 E5.15279
G1 X158.82 Y156.399 E5.18283
G1 X157.93 Y156.556 E5.21288
G1 X157.031 Y156.634 E5.2429
G1 X156.127 Y156.632 E5.27297
G1 X155.174 Y156.543 E5.3048
G1 X154.898 Y156.504 E5.31407
G1 X154.447 Y156.43 E5.32927
G1 X153.691 Y156.286 E5.35487
G1 X153.019 Y156.148 E5.37769
G1 X152.143 Y155.928 E5.40773
G1 X151.291 Y155.631 E5.43774
G1 X150.468 Y155.259 E5.46778
G1 X149.68 Y154.816 E5.49784
G1 X148.936 Y154.305 E5.52786
G1 X148.239 Y153.731 E5.55789
G1 X147.596 Y153.097 E5.58793
G1 X147.011 Y152.408 E5.61799
G1 X146.49 Y151.671 E5.64801
G1 X146.036 Y150.89 E5.67806
G1 X145.815 Y150.443 E5.69464
G1 X145.625 Y150.03 E5.70976
G1 X144.788 Y148.162 E5.77784
G1 X143.673 Y145.853 E5.86313
G1 X142.508 Y143.604 E5.94737
G1 X141.279 Y141.389 E6.03162
G1 X140 Y139.23 E6.11508
G1 X138.619 Y137.04 E6.2012
G1 X137.211 Y134.941 E6.28526
G1 X135.749 Y132.892 E6.36898
G1 X134.209 Y130.857 E6.45386
G1 X132.626 Y128.883 E6.53802
G1 X130.966 Y126.928 E6.62332
G1 X129.284 Y125.059 E6.70695
G1 X127.517 Y123.203 E6.79218
G1 X125.723 Y121.423 E6.87624
G1 X123.87 Y119.684 E6.96076
G1 X121.971 Y118.002 E7.04514
G1 X119.978 Y116.335 E7.13155
G1 X118.682 Y115.3 E7.18672
G1 X118.003 Y114.768 E7.21541
G1 X117.16 Y114.029 E7.25269
G1 X116.842 Y113.715 E7.26756
G1 X115.385 Y112.237 E7.33659
G1 X113.528 Y110.458 E7.42212
G1 X111.652 Y108.76 E7.50628
G1 X109.705 Y107.093 E7.59153
G1 X107.751 Y105.518 E7.675
G1 X105.725 Y103.975 E7.75971
G1 X103.662 Y102.492 E7.84421
G1 X101.575 Y101.082 E7.92798
G1 X99.412 Y99.707 E8.01323
G1 X97.212 Y98.395 E8.09842
G1 X95.024 Y97.173 E8.18178
G1 X92.76 Y95.99 E8.26674
G1 X90.495 Y94.888 E8.35052
G1 X88.167 Y93.835 E8.4355
G1 X85.826 Y92.855 E8.51991
G1 X83.401 Y91.918 E8.60638
G1 X81.073 Y91.097 E8.68848
G1 X78.664 Y90.322 E8.77265
G1 X76.189 Y89.601 E8.85839
G1 X73.729 Y88.959 E8.94295
G1 X71.296 Y88.399 E9.02599
G1 X68.747 Y87.885 E9.11247
G1 X66.258 Y87.459 E9.19646
G1 X63.765 Y87.103 E9.28022
G1 X61.261 Y86.818 E9.36404
G1 X58.691 Y86.598 E9.44983
G1 X56.195 Y86.455 E9.53299
G1 X53.605 Y86.381 E9.61916
G1 X52.131 Y86.371 E9.66819
G1 X48.59 Y86.377 E9.78597
G1 X48.058 Y86.364 E9.80366
G1 X47.157 Y86.302 E9.8337
G1 X46.265 Y86.16 E9.86374
G1 X45.389 Y85.941 E9.89378
G1 X44.536 Y85.644 E9.92382
G1 X43.712 Y85.274 E9.95386
G1 X42.925 Y84.831 E9.9839
G1 X42.18 Y84.321 E10.01393
G1 X41.482 Y83.747 E10.04398
G1 X40.839 Y83.114 E10.074
G1 X40.253 Y82.426 E10.10405
G1 X39.731 Y81.689 E10.13409
G1 X39.276 Y80.909 E10.16413
G1 X38.892 Y80.092 E10.19415
G1 X38.582 Y79.244 E10.22418
G1 X38.348 Y78.371 E10.25424
G1 X38.192 Y77.482 E10.28426
G1 X38.108 Y76.324 E10.32288
G1 X38.095 Y75.201 E10.36023
G1 X38.105 Y74.346 E10.38867
G1 X38.155 Y73.444 E10.41872
G1 X38.285 Y72.55 E10.44877
G1 X38.494 Y71.672 E10.47878
G1 X38.779 Y70.815 E10.50882
G1 X39.14 Y69.987 E10.53887
G1 X39.572 Y69.194 E10.5689
G1 X40.072 Y68.442 E10.59894
G1 X40.637 Y67.737 E10.62899
G1 X41.262 Y67.086 E10.659
G1 X41.943 Y66.492 E10.68906
G1 X42.673 Y65.96 E10.7191
G1 X43.447 Y65.496 E10.74912
G1 X44.26 Y65.101 E10.77918
G1 X45.104 Y64.78 E10.80921
G1 X45.973 Y64.535 E10.83924
G1 X46.86 Y64.368 E10.86926
G1 X48.03 Y64.269 E10.90832
G1 X48.953 Y64.247 E10.93902
G1 X49.539 Y64.246 E10.95851
G1 X51.899 Y64.256 E11.03701
G1 X117.148 Y64.338 E13.2072
G0 F6000 X117.148 Y63.938
G1 F1200 X169.463 Y64.021 E14.94721
G1 X169.607 Y64.022 E14.952
G1 X170.267 Y64.032 E14.97395
G1 X171.186 Y64.086 E15.00457
G1 X172.097 Y64.22 E15.0352
G1 X172.992 Y64.432 E15.06579
G1 X173.867 Y64.721 E15.09644
G1 X174.712 Y65.084 E15.12702
G1 X175.523 Y65.52 E15.15765
G1 X176.294 Y66.024 E15.18829
G1 X177.017 Y66.594 E15.21891
G1 X177.688 Y67.224 E15.24952
G1 X178.303 Y67.91 E15.28016
G1 X178.855 Y68.646 E15.31076
G1 X179.341 Y69.428 E15.34139
G1 X179.758 Y70.249 E15.37201
G1 X180.102 Y71.103 E15.40263
G1 X180.37 Y71.984 E15.43326
G1 X180.561 Y72.884 E15.46386
G1 X180.673 Y73.798 E15.49449
G1 X180.706 Y74.718 E15.52511
G1 X180.658 Y75.638 E15.55575
G1 X180.575 Y76.295 E15.57778
G1 X180.406 Y77.328 E15.61259
G1 X168.443 Y140.893 E17.76389
G1 X167.131 Y147.85 E17.99936
G1 X166.989 Y148.55 E18.02311
G1 X166.767 Y149.444 E18.05375
G1 X166.469 Y150.315 E18.08437
G1 X166.095 Y151.156 E18.11498
G1 X165.651 Y151.962 E18.14559
G1 X165.138 Y152.727 E18.17622
G1 X164.56 Y153.444 E18.20685
G1 X163.923 Y154.108 E18.23746
G1 X163.23 Y154.714 E18.26808
G1 X162.487 Y155.258 E18.29871
G1 X161.7 Y155.736 E18.32933
G1 X160.874 Y156.143 E18.35996
G1 X160.017 Y156.478 E18.39056
G1 X159.133 Y156.736 E18.42119
G1 X158.23 Y156.917 E18.45182
G1 X157.315 Y157.019 E18.48244
G1 X156.395 Y157.041 E18.51305
G1 X155.118 Y156.939 E18.55566
G1 X154.842 Y156.9 E18.56493
G1 X154.374 Y156.823 E18.58071
G1 X153.611 Y156.678 E18.60654
G1 X152.939 Y156.54 E18.62936
G1 X152.046 Y156.316 E18.65998
G1 X151.176 Y156.015 E18.6906
G1 X150.335 Y155.64 E18.72122
G1 X149.53 Y155.193 E18.75185
G1 X148.767 Y154.678 E18.78247
G1 X148.051 Y154.099 E18.81309
G1 X147.388 Y153.46 E18.84372
G1 X146.784 Y152.766 E18.87432
G1 X146.241 Y152.022 E18.90495
G1 X145.766 Y151.234 E18.93556
G1 X145.452 Y150.611 E18.95876
G1 X145.26 Y150.193 E18.97406
G1 X144.427 Y148.334 E19.04181
G1 X143.329 Y146.061 E19.12577
G1 X142.146 Y143.776 E19.21135
G1 X140.928 Y141.581 E19.29485
G1 X139.651 Y139.426 E19.37816
G1 X138.292 Y137.271 E19.4629
G1 X136.886 Y135.174 E19.54687
G1 X135.42 Y133.119 E19.63083
G1 X133.894 Y131.103 E19.71493
G1 X132.293 Y129.107 E19.80003
G1 X130.697 Y127.228 E19.88203
G1 X128.978 Y125.318 E19.96749
G1 X127.229 Y123.48 E20.05188
G1 X125.45 Y121.715 E20.13523
G1 X123.597 Y119.976 E20.21975
G1 X121.712 Y118.307 E20.30349
G1 X119.737 Y116.654 E20.38915
G1 X118.506 Y115.671 E20.44155
G1 X117.756 Y115.083 E20.47324
G1 X116.88 Y114.315 E20.51199
G1 X116.557 Y113.996 E20.52709
G1 X115.089 Y112.507 E20.59664
G1 X113.266 Y110.76 E20.68062
G1 X111.387 Y109.06 E20.76489
G1 X109.46 Y107.409 E20.84929
G1 X107.498 Y105.828 E20.9331
G1 X105.494 Y104.302 E21.01688
G1 X103.434 Y102.821 E21.10126
G1 X101.333 Y101.402 E21.18559
G1 X99.198 Y100.045 E21.26973
G1 X97.018 Y98.745 E21.35415
G1 X94.85 Y97.534 E21.43674
G1 X92.579 Y96.347 E21.52197
G1 X90.305 Y95.241 E21.60608
G1 X88.026 Y94.21 E21.68927
G1 X85.663 Y93.221 E21.77447
G1 X83.29 Y92.304 E21.85909
G1 X80.922 Y91.469 E21.9426
G1 X78.545 Y90.704 E22.02565
G1 X76.082 Y89.986 E22.11098
G1 X73.643 Y89.35 E22.19482
G1 X71.199 Y88.787 E22.27823
G1 X68.666 Y88.276 E22.36418
G1 X66.212 Y87.856 E22.44698
G1 X63.73 Y87.502 E22.53037
G1 X61.183 Y87.212 E22.61563
G1 X58.703 Y87 E22.69842
G1 X56.163 Y86.855 E22.78304
G1 X53.59 Y86.781 E22.86865
G1 X52.13 Y86.771 E22.91721
G1 X48.58 Y86.777 E23.03528
G1 X48.048 Y86.764 E23.05298
G1 X47.13 Y86.701 E23.08359
G1 X46.22 Y86.559 E23.11422
G1 X45.326 Y86.339 E23.14484
G1 X44.455 Y86.042 E23.17545
G1 X43.612 Y85.671 E23.20608
G1 X42.805 Y85.227 E23.23672
G1 X42.04 Y84.716 E23.26732
G1 X41.322 Y84.14 E23.29793
G1 X40.656 Y83.504 E23.32856
G1 X40.048 Y82.812 E23.3592
G1 X39.503 Y82.07 E23.38982
G1 X39.024 Y81.284 E23.42044
G1 X38.615 Y80.459 E23.45106
G1 X38.279 Y79.602 E23.48168
G1 X38.019 Y78.719 E23.51229
G1 X37.836 Y77.817 E23.54291
G1 X37.733 Y76.902 E23.57353
G1 X37.708 Y76.33 E23.59257
G1 X37.695 Y75.196 E23.63029
G1 X37.705 Y74.341 E23.65873
G1 X37.755 Y73.422 E23.68934
G1 X37.886 Y72.51 E23.71999
G1 X38.095 Y71.614 E23.75059
G1 X38.381 Y70.739 E23.78121
G1 X38.741 Y69.892 E23.81182
G1 X39.174 Y69.079 E23.84245
G1 X39.676 Y68.307 E23.87308
G1 X40.243 Y67.582 E23.9037
G1 X40.871 Y66.908 E23.93434
G1 X41.554 Y66.292 E23.96493
G1 X42.289 Y65.737 E23.99556
G1 X43.069 Y65.248 E24.02618
G1 X43.889 Y64.828 E24.05682
G1 X44.741 Y64.482 E24.08741
G1 X45.621 Y64.21 E24.11804
G1 X46.521 Y64.016 E24.14866
G1 X47.435 Y63.901 E24.1793
G1 X48.019 Y63.869 E24.19876
G1 X48.953 Y63.847 E24.22983
G1 X49.541 Y63.846 E24.24939
G1 X51.901 Y63.856 E24.32788
G1 X117.148 Y63.938 E26.49801
G0 F6000 X117.149 Y63.538
G1 F1200 X169.463 Y63.621 E28.23798
G1 X169.613 Y63.622 E28.24297
G1 X170.273 Y63.632 E28.26492
G1 X171.209 Y63.686 E28.29611
G1 X172.137 Y63.82 E28.32729
G1 X173.051 Y64.032 E28.3585
G1 X173.943 Y64.322 E28.3897
G1 X174.807 Y64.686 E28.42088
G1 X175.637 Y65.123 E28.45208
G1 X176.427 Y65.628 E28.48326
G1 X177.171 Y66.2 E28.51448
G1 X177.863 Y66.832 E28.54565
G1 X178.5 Y67.521 E28.57686
G1 X179.075 Y68.262 E28.60805
G1 X179.585 Y69.049 E28.63924
G1 X180.026 Y69.877 E28.67044
G1 X180.395 Y70.739 E28.70163
G1 X180.689 Y71.63 E28.73284
G1 X180.906 Y72.542 E28.76402
G1 X181.045 Y73.47 E28.79523
G1 X181.104 Y74.406 E28.82642
G1 X181.083 Y75.343 E28.85759
G1 X180.97 Y76.358 E28.89156
G1 X180.853 Y77.094 E28.91635
G1 X180.799 Y77.401 E28.92671
G1 X168.836 Y140.966 E31.07801
G1 X167.523 Y147.93 E31.31372
G1 X167.381 Y148.63 E31.33747
G1 X167.156 Y149.54 E31.36865
G1 X166.854 Y150.428 E31.39985
G1 X166.477 Y151.287 E31.43105
G1 X166.029 Y152.111 E31.46224
G1 X165.511 Y152.893 E31.49344
G1 X164.93 Y153.629 E31.52463
G1 X164.287 Y154.312 E31.55583
G1 X163.589 Y154.938 E31.58701
G1 X162.84 Y155.503 E31.61822
G1 X162.046 Y156.001 E31.64939
G1 X161.212 Y156.43 E31.68058
G1 X160.344 Y156.787 E31.7118
G1 X159.449 Y157.068 E31.743
G1 X158.534 Y157.272 E31.77418
G1 X157.604 Y157.397 E31.80539
G1 X156.668 Y157.443 E31.83656
G1 X155.73 Y157.409 E31.86778
G1 X155.062 Y157.335 E31.89013
G1 X154.786 Y157.296 E31.8994
G1 X154.3 Y157.216 E31.91579
G1 X153.53 Y157.07 E31.94185
G1 X152.858 Y156.932 E31.96467
G1 X151.948 Y156.704 E31.99587
G1 X151.061 Y156.4 E32.02706
G1 X150.203 Y156.021 E32.05825
G1 X149.381 Y155.571 E32.08942
G1 X148.6 Y155.052 E32.12061
G1 X147.865 Y154.468 E32.15184
G1 X147.184 Y153.824 E32.18301
G1 X146.559 Y153.125 E32.2142
G1 X145.996 Y152.374 E32.24541
G1 X145.5 Y151.579 E32.27658
G1 X145.089 Y150.779 E32.3065
G1 X144.894 Y150.357 E32.32196
G1 X144.046 Y148.464 E32.39095
G1 X142.972 Y146.24 E32.47309
G1 X141.799 Y143.975 E32.55793
G1 X140.592 Y141.8 E32.64066
G1 X139.301 Y139.621 E32.7249
G1 X137.964 Y137.501 E32.80826
G1 X136.543 Y135.383 E32.89309
G1 X135.103 Y133.365 E32.97555
G1 X133.565 Y131.332 E33.06034
G1 X131.992 Y129.371 E33.14395
G1 X130.394 Y127.489 E33.22607
G1 X128.675 Y125.579 E33.31153
G1 X126.957 Y123.774 E33.39441
G1 X125.159 Y121.991 E33.47863
G1 X123.341 Y120.284 E33.56158
G1 X121.436 Y118.597 E33.64621
G1 X119.513 Y116.988 E33.72961
G1 X118.212 Y115.949 E33.78498
G1 X117.509 Y115.398 E33.81469
G1 X116.6 Y114.601 E33.8549
G1 X116.272 Y114.277 E33.87024
G1 X114.809 Y112.794 E33.93952
G1 X113.003 Y111.063 E34.02273
G1 X111.104 Y109.344 E34.10792
G1 X109.211 Y107.723 E34.19081
G1 X107.255 Y106.146 E34.27438
G1 X105.241 Y104.613 E34.35856
G1 X103.199 Y103.145 E34.44221
G1 X101.125 Y101.744 E34.52545
G1 X99 Y100.393 E34.60921
G1 X96.839 Y99.104 E34.6929
G1 X94.606 Y97.857 E34.77796
G1 X92.425 Y96.717 E34.85982
G1 X90.144 Y95.608 E34.94417
G1 X87.813 Y94.553 E35.02927
G1 X85.544 Y93.603 E35.11109
G1 X83.15 Y92.678 E35.19645
G1 X80.815 Y91.855 E35.2788
G1 X78.406 Y91.079 E35.36297
G1 X75.984 Y90.374 E35.44687
G1 X73.557 Y89.741 E35.5303
G1 X71.101 Y89.175 E35.61412
G1 X68.591 Y88.669 E35.69929
G1 X66.159 Y88.253 E35.78135
G1 X63.664 Y87.897 E35.86517
G1 X61.171 Y87.613 E35.94863
G1 X58.647 Y87.397 E36.03288
G1 X56.128 Y87.253 E36.1168
G1 X53.622 Y87.181 E36.20019
G1 X52.128 Y87.171 E36.24988
G1 X48.57 Y87.177 E36.36822
G1 X48.038 Y87.164 E36.38592
G1 X47.103 Y87.101 E36.41709
G1 X46.176 Y86.959 E36.44828
G1 X45.264 Y86.738 E36.47949
G1 X44.375 Y86.44 E36.51067
G1 X43.514 Y86.068 E36.54187
G1 X42.688 Y85.623 E36.57308
G1 X41.903 Y85.11 E36.60427
G1 X41.164 Y84.532 E36.63547
G1 X40.478 Y83.894 E36.66663
G1 X39.848 Y83.199 E36.69783
G1 X39.28 Y82.452 E36.72904
G1 X38.777 Y81.661 E36.76022
G1 X38.344 Y80.829 E36.79141
G1 X37.983 Y79.963 E36.82262
G1 X37.697 Y79.07 E36.85381
G1 X37.488 Y78.156 E36.88499
G1 X37.358 Y77.227 E36.91619
G1 X37.308 Y76.336 E36.94587
G1 X37.295 Y75.191 E36.98396
G1 X37.305 Y74.336 E37.0124
G1 X37.356 Y73.4 E37.04358
G1 X37.486 Y72.471 E37.07477
G1 X37.695 Y71.557 E37.10596
G1 X37.982 Y70.664 E37.13716
G1 X38.343 Y69.798 E37.16836
G1 X38.777 Y68.967 E37.19954
G1 X39.28 Y68.175 E37.23075
G1 X39.848 Y67.429 E37.26194
G1 X40.478 Y66.735 E37.29311
G1 X41.165 Y66.096 E37.32432
G1 X41.904 Y65.518 E37.35552
G1 X42.69 Y65.006 E37.38672
G1 X43.516 Y64.562 E37.41791
G1 X44.377 Y64.19 E37.44911
G1 X45.266 Y63.893 E37.48028
G1 X46.178 Y63.672 E37.51149
G1 X47.105 Y63.531 E37.54268
G1 X48.008 Y63.469 E37.57278
G1 X48.952 Y63.447 E37.60419
G1 X49.543 Y63.446 E37.62385
G1 X51.903 Y63.456 E37.70234
G1 X117.149 Y63.538 E39.87243
G1 F2700 E34.87243
;MESH:Umbrella-P31.stl
G0 F6000 X47.641 Y73.805
G0 X47.641 Y76.822
G0 X117.138 Y76.75
G0 X117.136 Y75.665
G0 X168.969 Y75.585
G0 X155.765 Y145.689
;TYPE:WALL-INNER
G1 F2700 E39.87243
G1 F1200 X156.088 Y143.973 E39.93051
G1 X156.301 Y142.886 E39.96735
G1 X157.089 Y138.755 E40.10723
G1 X168.483 Y79.036 E42.12932
G1 X169.18 Y75.409 E42.25216
G1 X117.136 Y75.485 E43.98315
G1 X102.971 Y75.506 E44.45428
G1 X52.042 Y75.571 E46.14819
G1 X51.418 Y75.572 E46.16894
G1 X49.094 Y75.582 E46.24624
G1 X48.894 Y75.582 E46.25289
G1 X48.894 Y75.382 E46.2572
G1 X48.894 Y75.153 E46.26482
G1 X48.894 Y75.046 E46.26837
G1 X49.078 Y75.044 E46.27449
G1 X49.185 Y75.044 E46.27805
G1 X52.042 Y75.057 E46.37308
G1 X102.971 Y75.12 E48.03939
G1 X117.135 Y75.138 E48.47211
G1 X169.18 Y75.22 E49.63481
G1 X169.405 Y75.221 E49.6423
G1 X169.364 Y75.443 E49.64613
G1 X168.681 Y79.073 E49.70588
G1 X157.436 Y138.821 E51.10969
G1 X156.658 Y142.953 E51.23517
G1 X156.453 Y144.041 E51.26904
G1 X156.129 Y145.758 E51.32301
G1 X155.765 Y145.689 E51.33533
G0 F6000 X155.298 Y146.007
;TYPE:WALL-OUTER
G1 F1200 X155.696 Y143.896 E51.40678
G1 X155.908 Y142.81 E51.44358
G1 X168.09 Y78.961 E53.60551
G1 X168.696 Y75.81 E53.71224
G1 X102.972 Y75.906 E55.89823
G1 X51.419 Y75.972 E57.61289
G1 X48.933 Y75.983 E57.69558
G1 X48.494 Y75.978 E57.71018
G1 X48.494 Y74.65 E57.75435
