;FLAVOR:Marlin
;TIME:3841
;Filament used: 4.81025m
;Layer height: 0.28
;MINX:69.3
;MINY:73.019
;MINZ:0.28
;MAXX:150.701
;MAXY:146.981
;MAXZ:29.96
;Generated with Cura_SteamEngine 4.6.0
M140 S52
M105
M190 S52
M104 S203
M105
M109 S203
M82 ;absolute extrusion mode
M201 X500.00 Y500.00 Z100.00 E5000.00 ;Setup machine max acceleration
M203 X500.00 Y500.00 Z10.00 E50.00 ;Setup machine max feedrate
M204 P500.00 R1000.00 T500.00 ;Setup Print/Retract/Travel acceleration
M205 X8.00 Y8.00 Z0.40 E5.00 ;Setup Jerk
M220 S100 ;Reset Feedrate
M221 S100 ;Reset Flowrate

G28 ;Home

G92 E0 ;Reset Extruder
G1 Z2.0 F3000 ;Move Z Axis up
G1 X10.1 Y20 Z0.28 F5000.0 ;Move to start position
G1 X10.1 Y200.0 Z0.28 F1500.0 E15 ;Draw the first line
G1 X10.4 Y200.0 Z0.28 F5000.0 ;Move to side a little
G1 X10.4 Y20 Z0.28 F1500.0 E30 ;Draw the second line
G92 E0 ;Reset Extruder
G1 Z2.0 F3000 ;Move Z Axis up

G92 E0
G92 E0
G1 F2700 E-5
;LAYER_COUNT:107
;LAYER:0
M107
G0 F6000 X125.428 Y73.83 Z0.28
;TYPE:SKIRT
G1 F2700 E0
G1 F1200 X126.33 Y73.883 E0.04207
G1 X127.223 Y74.015 E0.08411
G1 X128.102 Y74.226 E0.1262
G1 X128.958 Y74.514 E0.16825
G1 X129.785 Y74.876 E0.21029
G1 X130.577 Y75.31 E0.25234
G1 X131.327 Y75.813 E0.29439
G1 X132.03 Y76.38 E0.33645
G1 X132.68 Y77.006 E0.37847
G1 X133.273 Y77.688 E0.42055
G1 X134.038 Y78.795 E0.48321
G1 X134.45 Y79.486 E0.52067
G1 X148.279 Y103.443 E1.80872
G1 X148.592 Y104.001 E1.83851
G1 X148.819 Y104.429 E1.86107
G1 X148.824 Y104.439 E1.86159
G1 X149.192 Y105.264 E1.90366
G1 X149.485 Y106.118 E1.9457
G1 X149.702 Y106.995 E1.98777
G1 X149.84 Y107.888 E2.02984
G1 X149.901 Y109.001 E2.08175
G1 X149.901 Y110.995 E2.1746
G1 X149.861 Y111.897 E2.21664
G1 X149.741 Y112.792 E2.25869
G1 X149.543 Y113.673 E2.30073
G1 X149.268 Y114.533 E2.34277
G1 X148.917 Y115.366 E2.38487
G1 X148.606 Y115.969 E2.41646
G1 X148.162 Y116.761 E2.45874
G1 X134.994 Y139.567 E3.68498
G1 X134.621 Y140.193 E3.71892
G1 X134.125 Y140.948 E3.76098
G1 X133.564 Y141.655 E3.80301
G1 X132.943 Y142.311 E3.84507
G1 X131.979 Y143.132 E3.90403
G1 X131.967 Y143.141 E3.90473
G1 X130.951 Y143.812 E3.96142
G1 X129.759 Y144.501 E4.02553
G1 X129.746 Y144.509 E4.02624
G1 X129.039 Y144.913 E4.06416
G1 X129.017 Y144.925 E4.06533
G1 X128.206 Y145.321 E4.10735
G1 X127.363 Y145.645 E4.1494
G1 X126.495 Y145.893 E4.19144
G1 X125.608 Y146.063 E4.23349
G1 X124.283 Y146.169 E4.29539
G1 X123.387 Y146.181 E4.33711
G1 X95.85 Y146.18 E5.61935
G1 X95.152 Y146.17 E5.65186
G1 X95.152 Y146.165 E5.65209
G1 X94.393 Y146.131 E5.68747
G1 X93.498 Y146.011 E5.72952
G1 X92.617 Y145.813 E5.77156
G1 X91.757 Y145.538 E5.8136
G1 X90.924 Y145.187 E5.8557
G1 X90.126 Y144.764 E5.89775
G1 X89.369 Y144.273 E5.93977
G1 X88.658 Y143.716 E5.98182
G1 X87.998 Y143.098 E6.02392
G1 X87.397 Y142.425 E6.06594
G1 X86.857 Y141.701 E6.108
G1 X86.54 Y141.204 E6.13544
G1 X86.103 Y140.472 E6.17514
G1 X71.736 Y115.585 E7.51322
G1 X71.4 Y114.985 E7.54524
G1 X70.994 Y114.178 E7.58731
G1 X70.661 Y113.339 E7.62934
G1 X70.404 Y112.473 E7.6714
G1 X70.224 Y111.588 E7.71346
G1 X70.123 Y110.69 E7.75553
G1 X70.102 Y109.788 E7.79755
G1 X70.161 Y108.886 E7.83964
G1 X70.299 Y107.994 E7.88167
G1 X70.516 Y107.117 E7.92374
G1 X70.81 Y106.263 E7.96579
G1 X71.345 Y105.117 E8.02468
G1 X71.789 Y104.324 E8.067
G1 X86.205 Y79.357 E9.40945
G1 X86.496 Y78.869 E9.43591
G1 X86.535 Y78.804 E9.43944
G1 X86.537 Y78.805 E9.43954
G1 X86.992 Y78.103 E9.47849
G1 X87.549 Y77.392 E9.52055
G1 X88.167 Y76.732 E9.56265
G1 X88.84 Y76.131 E9.60467
G1 X89.564 Y75.591 E9.64672
G1 X90.333 Y75.117 E9.68879
G1 X91.14 Y74.713 E9.73081
G1 X91.981 Y74.382 E9.7729
G1 X92.847 Y74.127 E9.81493
G1 X93.732 Y73.949 E9.85697
G1 X94.63 Y73.851 E9.89903
G1 X95.146 Y73.83 E9.92308
G1 X95.981 Y73.819 E9.96196
G1 X124.727 Y73.82 E11.3005
G1 X125.428 Y73.83 E11.33314
G0 F6000 X125.434 Y73.43
G1 F1200 X126.353 Y73.483 E11.376
G1 X127.264 Y73.616 E11.41887
G1 X128.16 Y73.827 E11.46174
G1 X129.035 Y74.115 E11.50463
G1 X129.881 Y74.478 E11.5475
G1 X130.692 Y74.913 E11.59035
G1 X131.463 Y75.417 E11.63324
G1 X132.187 Y75.986 E11.67612
G1 X132.859 Y76.615 E11.71898
G1 X133.474 Y77.3 E11.76184
G1 X134.027 Y78.036 E11.80471
G1 X134.381 Y78.59 E11.83532
G1 X134.796 Y79.286 E11.87306
G1 X148.628 Y103.247 E13.16134
G1 X148.941 Y103.805 E13.19113
G1 X149.177 Y104.251 E13.21463
G1 X149.182 Y104.261 E13.21515
G1 X149.558 Y105.101 E13.258
G1 X149.859 Y105.971 E13.30087
G1 X150.083 Y106.864 E13.34374
G1 X150.23 Y107.773 E13.38662
G1 X150.301 Y109.001 E13.44389
G1 X150.301 Y110.995 E13.53674
G1 X150.261 Y111.915 E13.57962
G1 X150.141 Y112.828 E13.6225
G1 X149.943 Y113.727 E13.66536
G1 X149.667 Y114.605 E13.70822
G1 X149.316 Y115.456 E13.75108
G1 X148.955 Y116.164 E13.78809
G1 X148.509 Y116.961 E13.83062
G1 X135.338 Y139.772 E15.05714
G1 X134.965 Y140.398 E15.09107
G1 X134.46 Y141.168 E15.13395
G1 X133.89 Y141.89 E15.17678
G1 X133.259 Y142.561 E15.21967
G1 X132.219 Y143.452 E15.28344
G1 X132.207 Y143.461 E15.28414
G1 X131.152 Y144.158 E15.34301
G1 X129.96 Y144.847 E15.40712
G1 X129.231 Y145.264 E15.44623
G1 X129.209 Y145.276 E15.4474
G1 X128.382 Y145.681 E15.49028
G1 X127.524 Y146.013 E15.53311
G1 X126.639 Y146.269 E15.57601
G1 X125.736 Y146.448 E15.61888
G1 X124.821 Y146.548 E15.66174
G1 X124.289 Y146.569 E15.68653
G1 X123.387 Y146.581 E15.72853
G1 X95.844 Y146.58 E17.01105
G1 X95.146 Y146.57 E17.04356
G1 X95.146 Y146.565 E17.04379
G1 X94.375 Y146.531 E17.07973
G1 X93.462 Y146.411 E17.1226
G1 X92.563 Y146.213 E17.16547
G1 X91.685 Y145.937 E17.20833
G1 X90.834 Y145.586 E17.25119
G1 X90.016 Y145.163 E17.29407
G1 X89.239 Y144.67 E17.33692
G1 X88.507 Y144.112 E17.37978
G1 X87.826 Y143.492 E17.42266
G1 X87.201 Y142.816 E17.46553
G1 X86.638 Y142.088 E17.50838
G1 X86.196 Y141.409 E17.54611
G1 X85.757 Y140.672 E17.58605
G1 X71.387 Y115.78 E18.92441
G1 X71.051 Y115.18 E18.95643
G1 X70.637 Y114.358 E18.99928
G1 X70.295 Y113.503 E19.04216
G1 X70.029 Y112.622 E19.08502
G1 X69.84 Y111.721 E19.12788
G1 X69.731 Y110.807 E19.17074
G1 X69.701 Y109.887 E19.21361
G1 X69.751 Y108.967 E19.25651
G1 X69.88 Y108.056 E19.29935
G1 X70.088 Y107.159 E19.34223
G1 X70.373 Y106.284 E19.38508
G1 X70.733 Y105.436 E19.42798
G1 X70.994 Y104.925 E19.45469
G1 X71.443 Y104.124 E19.49745
G1 X85.862 Y79.152 E20.84017
G1 X86.192 Y78.599 E20.87016
G1 X86.196 Y78.602 E20.87039
G1 X86.595 Y77.973 E20.90508
G1 X87.153 Y77.241 E20.94793
G1 X87.773 Y76.56 E20.99082
G1 X88.449 Y75.935 E21.03369
G1 X89.177 Y75.372 E21.07654
G1 X89.952 Y74.874 E21.11944
G1 X90.766 Y74.445 E21.16228
G1 X91.615 Y74.088 E21.20517
G1 X92.491 Y73.806 E21.24802
G1 X93.389 Y73.602 E21.2909
G1 X94.301 Y73.476 E21.33377
G1 X95.14 Y73.43 E21.37289
G1 X95.981 Y73.419 E21.41206
G1 X124.733 Y73.42 E22.75087
G1 X125.434 Y73.43 E22.78352
G0 F6000 X125.44 Y73.03
G1 F1200 X126.376 Y73.083 E22.82717
G1 X127.305 Y73.216 E22.87087
G1 X128.218 Y73.428 E22.91451
G1 X129.111 Y73.716 E22.95821
G1 X129.975 Y74.08 E23.00186
G1 X130.806 Y74.516 E23.04556
G1 X131.596 Y75.021 E23.08922
G1 X132.34 Y75.591 E23.13286
G1 X133.033 Y76.223 E23.17653
G1 X133.67 Y76.912 E23.22023
G1 X134.246 Y77.652 E23.26389
G1 X134.724 Y78.385 E23.30464
G1 X135.142 Y79.086 E23.34264
G1 X148.977 Y103.052 E24.6312
G1 X149.29 Y103.61 E24.66099
G1 X149.535 Y104.072 E24.68534
G1 X149.54 Y104.082 E24.68586
G1 X149.923 Y104.938 E24.72953
G1 X150.232 Y105.823 E24.77318
G1 X150.464 Y106.732 E24.81686
G1 X150.619 Y107.657 E24.86053
G1 X150.701 Y109.001 E24.92323
G1 X150.701 Y110.995 E25.01608
G1 X150.661 Y111.932 E25.05975
G1 X150.541 Y112.862 E25.10341
G1 X150.343 Y113.779 E25.1471
G1 X150.067 Y114.675 E25.19075
G1 X149.716 Y115.545 E25.23444
G1 X149.304 Y116.359 E25.27692
G1 X148.855 Y117.161 E25.31972
G1 X135.682 Y139.977 E26.54649
G1 X135.309 Y140.603 E26.58042
G1 X134.795 Y141.387 E26.62407
G1 X134.216 Y142.125 E26.66775
G1 X133.576 Y142.811 E26.71143
G1 X132.88 Y143.44 E26.75512
G1 X132.459 Y143.772 E26.78008
G1 X132.447 Y143.781 E26.78078
G1 X131.352 Y144.505 E26.84191
G1 X130.16 Y145.194 E26.90602
G1 X130.145 Y145.202 E26.90681
G1 X129.422 Y145.615 E26.94558
G1 X129.4 Y145.627 E26.94675
G1 X128.559 Y146.04 E26.99037
G1 X127.685 Y146.381 E27.03406
G1 X126.785 Y146.646 E27.07774
G1 X125.866 Y146.833 E27.12141
G1 X124.934 Y146.941 E27.1651
G1 X124.295 Y146.969 E27.19489
G1 X123.387 Y146.981 E27.23717
G1 X95.838 Y146.98 E28.51997
G1 X95.14 Y146.97 E28.55247
G1 X95.14 Y146.964 E28.55275
G1 X94.358 Y146.931 E28.5892
G1 X93.428 Y146.811 E28.63286
G1 X92.511 Y146.613 E28.67654
G1 X91.615 Y146.337 E28.7202
G1 X90.745 Y145.986 E28.76388
G1 X89.909 Y145.562 E28.80753
G1 X89.111 Y145.068 E28.85123
G1 X88.359 Y144.508 E28.89489
G1 X87.657 Y143.887 E28.93853
G1 X87.01 Y143.207 E28.98224
G1 X86.424 Y142.475 E29.0259
G1 X85.853 Y141.614 E29.07401
G1 X85.411 Y140.872 E29.11423
G1 X71.038 Y115.976 E30.45281
G1 X70.702 Y115.376 E30.48483
G1 X70.279 Y114.539 E30.5285
G1 X69.929 Y113.668 E30.57221
G1 X69.655 Y112.772 E30.61584
G1 X69.457 Y111.855 E30.65952
G1 X69.339 Y110.925 E30.70317
G1 X69.3 Y109.987 E30.74689
G1 X69.341 Y109.05 E30.79056
G1 X69.462 Y108.12 E30.83423
G1 X69.662 Y107.204 E30.87789
G1 X69.938 Y106.308 E30.92154
G1 X70.291 Y105.439 E30.96522
G1 X70.643 Y104.734 E31.00191
G1 X71.097 Y103.924 E31.04515
G1 X85.518 Y78.947 E32.38812
G1 X85.848 Y78.394 E32.4181
G1 X85.855 Y78.398 E32.41848
G1 X86.197 Y77.845 E32.44875
G1 X86.757 Y77.093 E32.49241
G1 X87.378 Y76.391 E32.53606
G1 X88.058 Y75.744 E32.57976
G1 X88.79 Y75.158 E32.62342
G1 X89.569 Y74.636 E32.66709
G1 X90.39 Y74.183 E32.71075
G1 X91.247 Y73.801 E32.75444
G1 X92.133 Y73.493 E32.79812
G1 X93.042 Y73.262 E32.84179
G1 X93.967 Y73.109 E32.88545
G1 X95.134 Y73.03 E32.93991
G1 X95.981 Y73.019 E32.97936
G1 X124.739 Y73.02 E34.31845
G1 X125.44 Y73.03 E34.35109
G1 F2700 E29.35109
;MESH:P1-2.stl
G0 F6000 X125.049 Y83.354
G0 X125.049 Y84.436
G0 X137.651 Y107.81
G0 X117.861 Y108.572
G0 X117.861 Y111.428
G0 X137.651 Y112.19
G0 X125.866 Y132.603
G0 X115.306 Y115.838
G0 X112.845 Y117.283
G0 X122.404 Y134.981
;TYPE:WALL-INNER
G1 F2700 E34.35109
G1 F1200 X122.06 Y134.981 E34.36711
G1 X122.059 Y134.981 E34.36716
G1 X95.866 Y134.981 E35.58681
G1 X81.442 Y110 E36.93001
G1 X95.866 Y85.019 E38.27321
G1 X124.712 Y85.019 E39.6164
G1 X137.809 Y107.702 E40.83604
G1 X137.981 Y108 E40.85206
G1 X137.637 Y108 E40.86115
G1 X137.636 Y108 E40.8612
G1 X117.289 Y108 E41.80864
G1 X117.289 Y112 E41.9949
G1 X137.636 Y112 E42.94234
G1 X137.637 Y112 E42.94238
G1 X137.981 Y112 E42.9584
G1 X137.809 Y112.298 E42.9675
G1 X126.038 Y132.685 E44.06367
G1 X125.866 Y132.983 E44.07969
G1 X125.694 Y132.685 E44.08877
G1 X115.613 Y115.221 E45.02773
G1 X115.512 Y115.046 E45.03714
G1 X115.338 Y115.15 E45.04321
G1 X114.635 Y115.573 E45.08142
G1 X112.929 Y116.557 E45.17312
G1 X112.073 Y117.09 E45.22008
G1 X122.232 Y134.683 E46.16605
G1 X122.404 Y134.981 E46.17514
G0 F6000 X122.749 Y134.781
G1 F1200 X122.924 Y135.083 E46.1914
G1 X123.096 Y135.381 E46.20742
G1 X122.752 Y135.381 E46.21651
G1 X122.751 Y135.381 E46.21656
G1 X95.635 Y135.381 E47.47919
G1 X81.097 Y110.2 E48.83311
G1 X80.981 Y110 E48.84388
G1 X95.635 Y84.619 E50.20856
G1 X124.943 Y84.619 E51.57326
G1 X138.326 Y107.8 E52.81964
G1 X138.501 Y108.102 E52.83589
G1 X138.673 Y108.4 E52.85191
G1 X138.329 Y108.4 E52.86101
G1 X138.328 Y108.4 E52.86105
G1 X117.689 Y108.4 E53.82209
G1 X117.689 Y111.6 E53.9711
G1 X138.328 Y111.6 E54.93213
G1 X138.329 Y111.6 E54.93218
G1 X138.673 Y111.6 E54.9482
G1 X138.501 Y111.898 E54.95729
G1 X126.038 Y133.484 E56.11793
G1 X125.866 Y133.782 E56.13395
G1 X125.694 Y133.483 E56.14304
G1 X125.521 Y133.183 E56.15917
G1 X115.47 Y115.774 E57.09521
G1 X115.369 Y115.599 E57.10462
G1 X115.195 Y115.703 E57.11069
G1 X114.835 Y115.92 E57.13027
G1 X113.135 Y116.9 E57.22164
G1 X112.613 Y117.225 E57.25027
G1 X122.749 Y134.781 E58.19421
G0 F6000 X123.356 Y135.531
G0 X123.788 Y135.781
;TYPE:WALL-OUTER
G1 F1200 X95.404 Y135.781 E59.51589
G1 X80.52 Y110 E60.90206
G1 X95.404 Y84.219 E62.28823
G1 X125.174 Y84.219 E63.67445
G1 X139.365 Y108.8 E64.99609
G1 X118.089 Y108.8 E65.98679
G1 X118.089 Y111.2 E66.09854
G1 X139.365 Y111.2 E67.08924
G1 X125.866 Y134.581 E68.34639
G1 X115.226 Y116.152 E69.33727
G1 X115.035 Y116.267 E69.34765
G1 X113.341 Y117.243 E69.43869
G1 X113.153 Y117.36 E69.449
G1 X113.35 Y117.701 E69.46734
G1 X123.788 Y135.781 E70.43945
G0 F6000 X123.356 Y135.531
G0 X121.728 Y134.871
G0 X121.728 Y134.591
;TYPE:SKIN
G1 F1200 X96.091 Y134.591 E71.63321
G1 X81.893 Y110 E72.95542
G1 X96.091 Y85.409 E74.27763
G1 X124.487 Y85.409 E75.59987
G1 X137.305 Y107.61 E76.79357
G1 X116.899 Y107.61 E77.74376
G1 X116.899 Y112.39 E77.96634
G1 X137.305 Y112.39 E78.91653
G1 X125.866 Y132.202 E79.98178
G1 X115.651 Y114.508 E80.93313
G1 X114.44 Y115.235 E80.9989
G1 X112.728 Y116.222 E81.09092
G1 X111.547 Y116.958 E81.15572
G1 X121.728 Y134.591 E82.10382
G0 F6000 X121.728 Y134.871
G0 X96.529 Y134.871
G0 X96.529 Y134.43
G1 F1200 X95.709 Y133.609 E82.15785
G0 F6000 X95.328 Y133.829
G0 X94.556 Y132.491
G0 X94.936 Y132.272
G1 F1200 X97.094 Y134.43 E82.29996
G0 F6000 X97.66 Y134.43
G1 F1200 X94.163 Y130.933 E82.53024
G0 F6000 X93.783 Y131.152
G0 X93.01 Y129.814
G0 X93.391 Y129.594
G1 F1200 X98.226 Y134.43 E82.84867
G0 F6000 X98.792 Y134.43
G1 F1200 X92.618 Y128.256 E83.25523
G0 F6000 X92.237 Y128.475
G0 X91.465 Y127.138
G0 X91.846 Y126.918
G1 F1200 X99.357 Y134.43 E83.74988
G0 F6000 X99.923 Y134.43
G1 F1200 X91.073 Y125.58 E84.33267
G0 F6000 X90.692 Y125.8
G0 X89.919 Y124.461
G0 X90.3 Y124.241
G1 F1200 X100.489 Y134.43 E85.00363
G0 F6000 X101.054 Y134.43
G1 F1200 X89.528 Y122.903 E85.76267
G0 F6000 X89.147 Y123.123
G0 X88.374 Y121.785
G0 X88.755 Y121.565
G1 F1200 X101.62 Y134.43 E86.60985
G0 F6000 X102.186 Y134.43
G1 F1200 X87.982 Y120.226 E87.54521
G0 F6000 X87.601 Y120.446
G0 X86.828 Y119.108
G0 X87.21 Y118.888
G1 F1200 X102.751 Y134.43 E88.56864
G0 F6000 X103.317 Y134.43
G1 F1200 X86.437 Y117.55 E89.68022
G0 F6000 X86.056 Y117.77
G0 X85.283 Y116.431
G0 X85.664 Y116.211
G1 F1200 X103.883 Y134.43 E90.87997
G0 F6000 X104.448 Y134.43
G1 F1200 X84.892 Y114.873 E92.1678
G0 F6000 X84.51 Y115.093
G0 X83.738 Y113.755
G0 X84.119 Y113.535
G1 F1200 X105.014 Y134.43 E93.54377
G0 F6000 X105.58 Y134.43
G1 F1200 X83.346 Y112.196 E95.00792
G0 F6000 X82.965 Y112.416
G0 X82.192 Y111.078
G0 X82.574 Y110.858
G1 F1200 X106.145 Y134.43 E96.56014
G0 F6000 X106.711 Y134.43
G1 F1200 X82.151 Y109.87 E98.17746
G0 F6000 X82.358 Y109.511
G1 F1200 X107.277 Y134.43 E99.81842
G0 F6000 X107.842 Y134.43
G1 F1200 X82.566 Y109.153 E101.48292
G0 F6000 X82.773 Y108.794
G1 F1200 X108.408 Y134.43 E103.17106
G0 F6000 X108.974 Y134.43
G1 F1200 X82.979 Y108.435 E104.88288
G0 F6000 X83.186 Y108.077
G1 F1200 X109.54 Y134.43 E106.6183
G0 F6000 X110.105 Y134.43
G1 F1200 X83.394 Y107.718 E108.3773
G0 F6000 X83.601 Y107.36
G1 F1200 X110.671 Y134.43 E110.1599
G0 F6000 X111.237 Y134.43
G1 F1200 X83.808 Y107.001 E111.96615
G0 F6000 X84.015 Y106.643
G1 F1200 X111.802 Y134.43 E113.79597
G0 F6000 X112.368 Y134.43
G1 F1200 X84.222 Y106.283 E115.64947
G0 F6000 X84.429 Y105.925
G1 F1200 X112.934 Y134.43 E117.52657
G0 F6000 X113.499 Y134.43
G1 F1200 X84.636 Y105.566 E119.42728
G0 F6000 X84.843 Y105.208
G1 F1200 X114.065 Y134.43 E121.3516
G0 F6000 X114.631 Y134.43
G1 F1200 X85.05 Y104.849 E123.29956
G0 F6000 X85.257 Y104.491
G1 F1200 X115.196 Y134.43 E125.27109
G0 F6000 X115.762 Y134.43
G1 F1200 X85.464 Y104.132 E127.26627
G0 F6000 X85.671 Y103.773
G1 F1200 X116.328 Y134.43 E129.28508
G0 F6000 X116.893 Y134.43
G1 F1200 X85.878 Y103.415 E131.32748
G0 F6000 X86.086 Y103.056
G1 F1200 X117.459 Y134.43 E133.39347
G0 F6000 X118.025 Y134.43
G1 F1200 X86.293 Y102.698 E135.48308
G0 F6000 X86.499 Y102.338
G1 F1200 X118.59 Y134.43 E137.59636
G0 F6000 X119.156 Y134.43
G1 F1200 X86.706 Y101.98 E139.73325
G0 F6000 X86.914 Y101.621
G1 F1200 X119.722 Y134.43 E141.89374
G0 F6000 X120.288 Y134.43
G1 F1200 X87.121 Y101.263 E144.07785
G0 F6000 X87.328 Y100.904
G1 F1200 X120.853 Y134.43 E146.28556
G0 F6000 X121.41 Y134.421
G1 F1200 X87.535 Y100.546 E148.51629
G0 F6000 X87.742 Y100.187
G1 F1200 X120.72 Y133.165 E150.68794
