;FLAVOR:Marlin
;TIME:4352
;Filament used: 5.38887m
;Layer height: 0.28
;MINX:69.3
;MINY:73.019
;MINZ:0.28
;MAXX:150.701
;MAXY:146.981
;MAXZ:29.96
;Generated with Cura_SteamEngine 4.6.0
M140 S52
M105
M190 S52
M104 S203
M105
M109 S203
M82 ;absolute extrusion mode
M201 X500.00 Y500.00 Z100.00 E5000.00 ;Setup machine max acceleration
M203 X500.00 Y500.00 Z10.00 E50.00 ;Setup machine max feedrate
M204 P500.00 R1000.00 T500.00 ;Setup Print/Retract/Travel acceleration
M205 X8.00 Y8.00 Z0.40 E5.00 ;Setup Jerk
M220 S100 ;Reset Feedrate
M221 S100 ;Reset Flowrate

G28 ;Home

G92 E0 ;Reset Extruder
G1 Z2.0 F3000 ;Move Z Axis up
G1 X10.1 Y20 Z0.28 F5000.0 ;Move to start position
G1 X10.1 Y200.0 Z0.28 F1500.0 E15 ;Draw the first line
G1 X10.4 Y200.0 Z0.28 F5000.0 ;Move to side a little
G1 X10.4 Y20 Z0.28 F1500.0 E30 ;Draw the second line
G92 E0 ;Reset Extruder
G1 Z2.0 F3000 ;Move Z Axis up

G92 E0
G92 E0
G1 F2700 E-5
;LAYER_COUNT:107
;LAYER:0
M107
G0 F6000 X125.428 Y73.83 Z0.28
;TYPE:SKIRT
G1 F2700 E0
G1 F1200 X126.33 Y73.883 E0.04207
G1 X127.223 Y74.015 E0.08411
G1 X128.102 Y74.226 E0.1262
G1 X128.958 Y74.514 E0.16825
G1 X129.785 Y74.876 E0.21029
G1 X130.577 Y75.31 E0.25234
G1 X131.327 Y75.813 E0.29439
G1 X132.03 Y76.38 E0.33645
G1 X132.68 Y77.006 E0.37847
G1 X133.273 Y77.688 E0.42055
G1 X134.038 Y78.795 E0.48321
G1 X134.45 Y79.486 E0.52067
G1 X148.279 Y103.443 E1.80872
G1 X148.592 Y104.001 E1.83851
G1 X148.819 Y104.429 E1.86107
G1 X148.824 Y104.439 E1.86159
G1 X149.192 Y105.264 E1.90366
G1 X149.485 Y106.118 E1.9457
G1 X149.702 Y106.995 E1.98777
G1 X149.84 Y107.888 E2.02984
G1 X149.901 Y109.001 E2.08175
G1 X149.901 Y110.995 E2.1746
G1 X149.861 Y111.897 E2.21664
G1 X149.741 Y112.792 E2.25869
G1 X149.543 Y113.673 E2.30073
G1 X149.268 Y114.533 E2.34277
G1 X148.917 Y115.366 E2.38487
G1 X148.606 Y115.969 E2.41646
G1 X148.162 Y116.761 E2.45874
G1 X134.994 Y139.567 E3.68498
G1 X134.621 Y140.193 E3.71892
G1 X134.125 Y140.948 E3.76098
G1 X133.564 Y141.655 E3.80301
G1 X132.943 Y142.311 E3.84507
G1 X131.979 Y143.132 E3.90403
G1 X131.967 Y143.141 E3.90473
G1 X130.945 Y143.816 E3.96176
G1 X129.737 Y144.513 E4.0267
G1 X129.731 Y144.516 E4.02701
G1 X129.037 Y144.913 E4.06424
G1 X129.015 Y144.925 E4.06541
G1 X128.204 Y145.321 E4.10743
G1 X127.361 Y145.645 E4.14949
G1 X126.493 Y145.893 E4.19152
G1 X125.606 Y146.063 E4.23358
G1 X124.282 Y146.169 E4.29542
G1 X123.388 Y146.181 E4.33706
G1 X97.004 Y146.18 E5.56561
G1 X96.306 Y146.17 E5.59811
G1 X96.306 Y146.165 E5.59834
G1 X95.545 Y146.131 E5.63381
G1 X94.65 Y146.011 E5.67586
G1 X93.769 Y145.813 E5.71791
G1 X92.909 Y145.538 E5.75995
G1 X92.076 Y145.187 E5.80204
G1 X91.353 Y144.808 E5.84005
G1 X90.118 Y144.096 E5.90643
G1 X90.103 Y144.087 E5.90725
G1 X89.475 Y143.722 E5.94107
G1 X89.47 Y143.719 E5.94134
G1 X88.717 Y143.221 E5.98338
G1 X88.011 Y142.658 E6.02543
G1 X87.358 Y142.034 E6.06748
G1 X86.762 Y141.356 E6.10952
G1 X86.228 Y140.627 E6.15159
G1 X85.956 Y140.196 E6.17533
G1 X85.518 Y139.459 E6.21525
G1 X71.718 Y115.551 E7.50065
G1 X71.401 Y114.985 E7.53086
G1 X70.995 Y114.179 E7.57288
G1 X70.662 Y113.339 E7.61495
G1 X70.404 Y112.473 E7.65703
G1 X70.224 Y111.588 E7.69908
G1 X70.123 Y110.691 E7.74112
G1 X70.102 Y109.788 E7.78317
G1 X70.161 Y108.887 E7.82522
G1 X70.299 Y107.994 E7.86729
G1 X70.516 Y107.118 E7.90932
G1 X70.809 Y106.264 E7.95136
G1 X71.177 Y105.439 E7.99342
G1 X71.393 Y105.03 E8.01496
G1 X71.808 Y104.29 E8.05447
G1 X86.211 Y79.345 E9.39572
G1 X86.542 Y78.792 E9.42573
G1 X86.544 Y78.793 E9.42584
G1 X86.992 Y78.103 E9.46415
G1 X87.549 Y77.392 E9.5062
G1 X88.167 Y76.732 E9.5483
G1 X88.84 Y76.131 E9.59032
G1 X89.564 Y75.591 E9.63238
G1 X90.333 Y75.117 E9.67444
G1 X91.14 Y74.713 E9.71646
G1 X91.981 Y74.382 E9.75855
G1 X92.847 Y74.127 E9.80058
G1 X93.732 Y73.949 E9.84262
G1 X94.63 Y73.851 E9.88468
G1 X95.146 Y73.83 E9.90873
G1 X95.981 Y73.819 E9.94761
G1 X124.727 Y73.82 E11.28615
G1 X125.428 Y73.83 E11.31879
G0 F6000 X125.434 Y73.43
G1 F1200 X126.353 Y73.483 E11.36166
G1 X127.264 Y73.616 E11.40453
G1 X128.16 Y73.827 E11.44739
G1 X129.035 Y74.115 E11.49028
G1 X129.881 Y74.478 E11.53315
G1 X130.692 Y74.913 E11.576
G1 X131.463 Y75.417 E11.61889
G1 X132.187 Y75.986 E11.66177
G1 X132.859 Y76.615 E11.70463
G1 X133.474 Y77.3 E11.7475
G1 X134.027 Y78.036 E11.79036
G1 X134.381 Y78.59 E11.82098
G1 X134.796 Y79.286 E11.85871
G1 X148.628 Y103.247 E13.14699
G1 X148.941 Y103.805 E13.17678
G1 X149.177 Y104.251 E13.20028
G1 X149.182 Y104.261 E13.2008
G1 X149.558 Y105.101 E13.24365
G1 X149.859 Y105.971 E13.28652
G1 X150.083 Y106.864 E13.32939
G1 X150.23 Y107.773 E13.37227
G1 X150.301 Y109.001 E13.42954
G1 X150.301 Y110.995 E13.52239
G1 X150.261 Y111.915 E13.56527
G1 X150.141 Y112.828 E13.60815
G1 X149.943 Y113.727 E13.65102
G1 X149.667 Y114.605 E13.69387
G1 X149.316 Y115.456 E13.73674
G1 X148.955 Y116.164 E13.77374
G1 X148.509 Y116.961 E13.81627
G1 X135.338 Y139.772 E15.04279
G1 X134.965 Y140.398 E15.07672
G1 X134.46 Y141.168 E15.1196
G1 X133.89 Y141.89 E15.16243
G1 X133.259 Y142.561 E15.20532
G1 X132.219 Y143.452 E15.26909
G1 X132.207 Y143.461 E15.26979
G1 X131.144 Y144.162 E15.32908
G1 X129.936 Y144.859 E15.39402
G1 X129.931 Y144.863 E15.39432
G1 X129.229 Y145.264 E15.43196
G1 X129.207 Y145.276 E15.43313
G1 X128.38 Y145.681 E15.47601
G1 X127.522 Y146.013 E15.51885
G1 X126.637 Y146.269 E15.56175
G1 X125.734 Y146.448 E15.60461
G1 X124.819 Y146.548 E15.64747
G1 X124.288 Y146.569 E15.67222
G1 X123.388 Y146.581 E15.71413
G1 X96.998 Y146.58 E16.94296
G1 X96.3 Y146.57 E16.97546
G1 X96.3 Y146.565 E16.9757
G1 X95.527 Y146.531 E17.01172
G1 X94.614 Y146.411 E17.0546
G1 X93.715 Y146.213 E17.09747
G1 X92.837 Y145.937 E17.14032
G1 X91.986 Y145.586 E17.18319
G1 X91.153 Y145.154 E17.22688
G1 X89.918 Y144.442 E17.29326
G1 X89.902 Y144.433 E17.29412
G1 X89.269 Y144.065 E17.32821
G1 X89.264 Y144.062 E17.32848
G1 X88.496 Y143.555 E17.37133
G1 X87.775 Y142.983 E17.41419
G1 X87.106 Y142.35 E17.45707
G1 X86.495 Y141.662 E17.49992
G1 X85.945 Y140.923 E17.54281
G1 X85.613 Y140.4 E17.57166
G1 X85.172 Y139.659 E17.61181
G1 X71.369 Y115.747 E18.89744
G1 X71.052 Y115.181 E18.92765
G1 X70.637 Y114.359 E18.97053
G1 X70.295 Y113.504 E19.01341
G1 X70.029 Y112.622 E19.05631
G1 X69.841 Y111.721 E19.09916
G1 X69.731 Y110.807 E19.14203
G1 X69.701 Y109.887 E19.18489
G1 X69.75 Y108.968 E19.22774
G1 X69.88 Y108.056 E19.27064
G1 X70.088 Y107.159 E19.31352
G1 X70.373 Y106.284 E19.35637
G1 X70.733 Y105.437 E19.39922
G1 X71.044 Y104.835 E19.43077
G1 X71.461 Y104.09 E19.47053
G1 X85.868 Y79.14 E20.81208
G1 X86.199 Y78.587 E20.84209
G1 X86.204 Y78.59 E20.84236
G1 X86.595 Y77.973 E20.87638
G1 X87.153 Y77.241 E20.91924
G1 X87.773 Y76.56 E20.96212
G1 X88.449 Y75.935 E21.00499
G1 X89.177 Y75.372 E21.04784
G1 X89.952 Y74.874 E21.09074
G1 X90.766 Y74.445 E21.13358
G1 X91.615 Y74.088 E21.17647
G1 X92.491 Y73.806 E21.21932
G1 X93.389 Y73.602 E21.2622
G1 X94.301 Y73.476 E21.30507
G1 X95.14 Y73.43 E21.3442
G1 X95.981 Y73.419 E21.38336
G1 X124.733 Y73.42 E22.72217
G1 X125.434 Y73.43 E22.75482
G0 F6000 X125.44 Y73.03
G1 F1200 X126.376 Y73.083 E22.79847
G1 X127.305 Y73.216 E22.84217
G1 X128.218 Y73.428 E22.88581
G1 X129.111 Y73.716 E22.92951
G1 X129.975 Y74.08 E22.97316
G1 X130.806 Y74.516 E23.01686
G1 X131.596 Y75.021 E23.06052
G1 X132.34 Y75.591 E23.10416
G1 X133.033 Y76.223 E23.14783
G1 X133.67 Y76.912 E23.19153
G1 X134.246 Y77.652 E23.23519
G1 X134.724 Y78.385 E23.27594
G1 X135.142 Y79.086 E23.31394
G1 X148.977 Y103.052 E24.6025
G1 X149.29 Y103.61 E24.63229
G1 X149.535 Y104.072 E24.65664
G1 X149.54 Y104.082 E24.65716
G1 X149.923 Y104.938 E24.70083
G1 X150.232 Y105.823 E24.74448
G1 X150.464 Y106.732 E24.78816
G1 X150.619 Y107.657 E24.83183
G1 X150.701 Y109.001 E24.89453
G1 X150.701 Y110.995 E24.98738
G1 X150.661 Y111.932 E25.03105
G1 X150.541 Y112.862 E25.07472
G1 X150.343 Y113.779 E25.1184
G1 X150.067 Y114.675 E25.16205
G1 X149.716 Y115.545 E25.20574
G1 X149.304 Y116.359 E25.24822
G1 X148.855 Y117.161 E25.29102
G1 X135.682 Y139.977 E26.51779
G1 X135.309 Y140.603 E26.55172
G1 X134.795 Y141.387 E26.59537
G1 X134.216 Y142.125 E26.63905
G1 X133.576 Y142.811 E26.68273
G1 X132.88 Y143.44 E26.72642
G1 X132.459 Y143.772 E26.75138
G1 X132.447 Y143.781 E26.75208
G1 X131.344 Y144.509 E26.81362
G1 X130.136 Y145.206 E26.87856
G1 X130.13 Y145.209 E26.87887
G1 X129.42 Y145.615 E26.91696
G1 X129.398 Y145.627 E26.91812
G1 X128.557 Y146.04 E26.96175
G1 X127.683 Y146.381 E27.00544
G1 X126.783 Y146.646 E27.04912
G1 X125.864 Y146.833 E27.09279
G1 X124.932 Y146.941 E27.13648
G1 X124.294 Y146.969 E27.16622
G1 X123.388 Y146.981 E27.20841
G1 X96.992 Y146.98 E28.43752
G1 X96.294 Y146.97 E28.47002
G1 X96.294 Y146.964 E28.4703
G1 X95.51 Y146.931 E28.50684
G1 X94.58 Y146.811 E28.5505
G1 X93.663 Y146.613 E28.59419
G1 X92.767 Y146.337 E28.63784
G1 X91.897 Y145.986 E28.68153
G1 X90.953 Y145.501 E28.73095
G1 X89.718 Y144.789 E28.79732
G1 X89.702 Y144.78 E28.79818
G1 X89.064 Y144.408 E28.83257
G1 X89.059 Y144.405 E28.83284
G1 X88.276 Y143.889 E28.87651
G1 X87.54 Y143.308 E28.92017
G1 X86.856 Y142.666 E28.96385
G1 X86.229 Y141.968 E29.00754
G1 X85.664 Y141.22 E29.05119
G1 X85.269 Y140.605 E29.08522
G1 X84.825 Y139.859 E29.12565
G1 X71.02 Y115.942 E30.41153
G1 X70.703 Y115.376 E30.44174
G1 X70.28 Y114.539 E30.4854
G1 X69.93 Y113.669 E30.52907
G1 X69.655 Y112.772 E30.57276
G1 X69.457 Y111.855 E30.61644
G1 X69.339 Y110.925 E30.66009
G1 X69.3 Y109.988 E30.70376
G1 X69.341 Y109.051 E30.74743
G1 X69.462 Y108.121 E30.7911
G1 X69.661 Y107.205 E30.83475
G1 X69.938 Y106.309 E30.87842
G1 X70.29 Y105.439 E30.92212
G1 X70.695 Y104.64 E30.96383
G1 X71.115 Y103.89 E31.00386
G1 X85.525 Y78.935 E32.34568
G1 X85.856 Y78.382 E32.37569
G1 X85.862 Y78.386 E32.37603
G1 X86.197 Y77.845 E32.40566
G1 X86.757 Y77.093 E32.44932
G1 X87.378 Y76.391 E32.49296
G1 X88.058 Y75.744 E32.53667
G1 X88.79 Y75.158 E32.58033
G1 X89.569 Y74.636 E32.62399
G1 X90.39 Y74.183 E32.66766
G1 X91.247 Y73.801 E32.71135
G1 X92.133 Y73.493 E32.75502
G1 X93.042 Y73.262 E32.7987
G1 X93.967 Y73.109 E32.84235
G1 X95.134 Y73.03 E32.89682
G1 X95.981 Y73.019 E32.93626
G1 X124.739 Y73.02 E34.27535
G1 X125.44 Y73.03 E34.308
G1 F2700 E29.308
;MESH:P1-3.stl
G0 F6000 X125.048 Y83.354
G0 X125.048 Y84.439
G0 X95.967 Y85.195
G0 X81.645 Y110
G0 X94.711 Y132.603
G0 X105.002 Y114.79
G0 X107.739 Y117.272
G0 X98.173 Y134.981
;TYPE:WALL-INNER
G1 F2700 E34.308
G1 F1200 X98.345 Y134.683 E34.32402
G1 X108.52 Y117.063 E35.27146
G1 X108.174 Y116.864 E35.29004
G1 X105.968 Y115.589 E35.40868
G1 X105.241 Y115.148 E35.44828
G1 X105.068 Y115.043 E35.4577
G1 X104.967 Y115.218 E35.46374
G1 X94.883 Y132.685 E36.40289
G1 X94.711 Y132.983 E36.41891
G1 X94.539 Y132.685 E36.428
G1 X81.442 Y110 E37.64771
G1 X95.866 Y85.019 E38.99091
G1 X124.712 Y85.019 E40.3341
G1 X137.809 Y107.702 E41.55374
G1 X137.981 Y108 E41.56976
G1 X137.637 Y108 E41.57885
G1 X137.636 Y108 E41.5789
G1 X117.289 Y108 E42.52634
G1 X117.289 Y112 E42.71259
G1 X137.636 Y112 E43.66004
G1 X137.637 Y112 E43.66008
G1 X137.981 Y112 E43.6761
G1 X137.809 Y112.298 E43.68519
G1 X126.038 Y132.685 E44.78137
G1 X125.866 Y132.983 E44.79739
G1 X125.694 Y132.685 E44.80647
G1 X115.613 Y115.221 E45.74543
G1 X115.512 Y115.046 E45.75484
G1 X115.338 Y115.15 E45.76091
G1 X114.635 Y115.573 E45.79911
G1 X112.929 Y116.557 E45.89082
G1 X112.073 Y117.09 E45.93777
G1 X122.231 Y134.683 E46.88373
G1 X122.403 Y134.981 E46.89975
G1 X122.059 Y134.981 E46.90884
G1 X122.058 Y134.981 E46.90889
G1 X98.518 Y134.981 E48.00501
G1 X98.517 Y134.981 E48.00505
G1 X98.173 Y134.981 E48.01414
G0 F6000 X97.826 Y135.381
G1 F1200 X97.825 Y135.381 E48.01419
G1 X97.481 Y135.381 E48.03021
G1 X97.653 Y135.083 E48.0393
G1 X107.875 Y117.381 E48.99114
G1 X107.974 Y117.209 E49.00038
G1 X107.802 Y117.11 E49.00635
G1 X105.76 Y115.931 E49.11615
G1 X105.383 Y115.702 E49.13669
G1 X105.21 Y115.597 E49.14611
G1 X105.109 Y115.772 E49.15216
G1 X94.711 Y133.782 E50.12051
G1 X94.366 Y133.183 E50.1527
G1 X81.097 Y110.2 E51.38843
G1 X80.981 Y110 E51.3992
G1 X95.635 Y84.619 E52.76388
G1 X124.943 Y84.619 E54.12859
G1 X138.326 Y107.8 E55.37496
G1 X138.501 Y108.102 E55.39122
G1 X138.673 Y108.4 E55.40724
G1 X138.329 Y108.4 E55.41633
G1 X138.328 Y108.4 E55.41638
G1 X117.689 Y108.4 E56.37741
G1 X117.689 Y111.6 E56.52642
G1 X138.328 Y111.6 E57.48746
G1 X138.329 Y111.6 E57.4875
G1 X138.673 Y111.6 E57.50352
G1 X138.501 Y111.898 E57.51262
G1 X125.866 Y133.782 E58.68927
G1 X125.521 Y133.183 E58.72146
G1 X115.47 Y115.774 E59.6575
G1 X115.369 Y115.599 E59.66691
G1 X115.195 Y115.703 E59.67299
G1 X114.835 Y115.92 E59.69256
G1 X113.135 Y116.9 E59.78393
G1 X112.613 Y117.225 E59.81256
G1 X122.748 Y134.781 E60.75648
G1 X122.923 Y135.083 E60.77274
G1 X123.095 Y135.381 E60.78876
G1 X122.751 Y135.381 E60.79785
G1 X122.75 Y135.381 E60.7979
G1 X97.826 Y135.381 E61.95846
G0 F6000 X97.221 Y135.531
G0 X96.789 Y135.781
;TYPE:WALL-OUTER
G1 F1200 X107.428 Y117.355 E62.9492
G1 X105.56 Y116.277 E63.04963
G1 X105.352 Y116.151 E63.06095
G1 X94.711 Y134.581 E64.0519
G1 X80.52 Y110 E65.37355
G1 X95.404 Y84.219 E66.75972
G1 X125.174 Y84.219 E68.14593
G1 X139.365 Y108.8 E69.46758
G1 X118.089 Y108.8 E70.45828
G1 X118.089 Y111.2 E70.57003
G1 X139.365 Y111.2 E71.56073
G1 X125.866 Y134.581 E72.81787
G1 X115.226 Y116.152 E73.80876
G1 X115.035 Y116.267 E73.81914
G1 X113.341 Y117.243 E73.91017
G1 X113.153 Y117.36 E73.92048
G1 X113.3 Y117.615 E73.93419
G1 X123.788 Y135.781 E74.91093
G1 X96.789 Y135.781 E76.16812
G0 F6000 X97.221 Y135.531
G0 X98.849 Y134.871
G0 X98.849 Y134.591
;TYPE:SKIN
G1 F1200 X109.053 Y116.921 E77.11824
G1 X106.167 Y115.253 E77.27346
G1 X104.93 Y114.503 E77.34082
G1 X94.711 Y132.202 E78.29246
G1 X81.893 Y110 E79.48621
G1 X96.091 Y85.409 E80.80842
G1 X124.487 Y85.409 E82.13065
G1 X137.305 Y107.61 E83.32436
G1 X116.899 Y107.61 E84.27454
G1 X116.899 Y112.39 E84.49712
G1 X137.305 Y112.39 E85.44731
G1 X125.866 Y132.202 E86.51257
G1 X115.651 Y114.508 E87.46392
G1 X114.44 Y115.235 E87.52969
G1 X112.728 Y116.222 E87.62171
G1 X111.547 Y116.958 E87.6865
G1 X121.727 Y134.591 E88.63458
G1 X98.849 Y134.591 E89.69987
G1 F2700 E84.69987
G0 F6000 X98.849 Y134.871
G0 X98.503 Y134.791
G0 X107.739 Y117.272
G0 X105.272 Y115.836
G0 X95.239 Y131.847
G0 X94.858 Y131.627
G1 F2700 E89.69987
G1 F1200 X94.163 Y130.933 E89.74561
G0 F6000 X95.064 Y131.268
G1 F1200 X93.391 Y129.595 E89.85578
G0 F6000 X93.009 Y129.814
G0 X92.237 Y128.476
G0 X92.618 Y128.257
G1 F1200 X95.272 Y130.91 E90.03052
G0 F6000 X95.479 Y130.551
G1 F1200 X91.846 Y126.918 E90.26976
G0 F6000 X91.464 Y127.137
G0 X90.691 Y125.799
G0 X91.073 Y125.58
G1 F1200 X95.686 Y130.193 E90.57353
G0 F6000 X95.893 Y129.834
G1 F1200 X90.301 Y124.242 E90.94177
G0 F6000 X89.919 Y124.461
G0 X89.146 Y123.122
G0 X89.528 Y122.903
G1 F1200 X96.1 Y129.476 E91.37458
G0 F6000 X96.307 Y129.116
G1 F1200 X88.755 Y121.565 E91.87186
G0 F6000 X88.373 Y121.784
G0 X87.601 Y120.446
G0 X87.983 Y120.227
G1 F1200 X96.514 Y128.758 E92.43364
G0 F6000 X96.721 Y128.399
G1 F1200 X87.21 Y118.888 E93.05996
G0 F6000 X86.828 Y119.107
G0 X86.056 Y117.769
G0 X86.437 Y117.55
G1 F1200 X96.928 Y128.041 E93.75081
G0 F6000 X97.135 Y127.682
G1 F1200 X85.664 Y116.211 E94.50619
G0 F6000 X85.283 Y116.43
G0 X84.51 Y115.092
G0 X84.892 Y114.873
G1 F1200 X97.342 Y127.323 E95.32605
G0 F6000 X97.549 Y126.965
G1 F1200 X84.119 Y113.535 E96.21044
G0 F6000 X83.738 Y113.754
G0 X82.965 Y112.415
G0 X83.346 Y112.196
G1 F1200 X97.756 Y126.606 E97.15936
G0 F6000 X97.963 Y126.248
G1 F1200 X82.574 Y110.858 E98.17278
G0 F6000 X82.192 Y111.077
G0 X81.645 Y110
G0 X81.772 Y109.65
G0 X82.151 Y109.87
G1 F1200 X98.171 Y125.889 E99.2277
G0 F6000 X98.378 Y125.531
G1 F1200 X82.358 Y109.511 E100.28264
G0 F6000 X82.566 Y109.153
G1 F1200 X98.584 Y125.172 E101.33749
G0 F6000 X98.792 Y124.813
G1 F1200 X82.773 Y108.794 E102.39236
G0 F6000 X82.979 Y108.435
G1 F1200 X98.999 Y124.455 E103.44731
G0 F6000 X99.206 Y124.096
G1 F1200 X83.186 Y108.077 E104.50222
G0 F6000 X83.394 Y107.718
G1 F1200 X99.413 Y123.738 E105.55713
G0 F6000 X99.62 Y123.378
G1 F1200 X83.601 Y107.36 E106.61198
G0 F6000 X83.808 Y107.001
G1 F1200 X99.827 Y123.02 E107.66685
