;FLAVOR:Marlin
;TIME:4963
;Filament used: 5.96419m
;Layer height: 0.28
;MINX:69.587
;MINY:73.019
;MINZ:0.28
;MAXX:150.413
;MAXY:146.981
;MAXZ:29.96
;Generated with Cura_SteamEngine 4.6.0
M140 S52
M105
M190 S52
M104 S203
M105
M109 S203
M82 ;absolute extrusion mode
M201 X500.00 Y500.00 Z100.00 E5000.00 ;Setup machine max acceleration
M203 X500.00 Y500.00 Z10.00 E50.00 ;Setup machine max feedrate
M204 P500.00 R1000.00 T500.00 ;Setup Print/Retract/Travel acceleration
M205 X8.00 Y8.00 Z0.40 E5.00 ;Setup Jerk
M220 S100 ;Reset Feedrate
M221 S100 ;Reset Flowrate

G28 ;Home

G92 E0 ;Reset Extruder
G1 Z2.0 F3000 ;Move Z Axis up
G1 X10.1 Y20 Z0.28 F5000.0 ;Move to start position
G1 X10.1 Y200.0 Z0.28 F1500.0 E15 ;Draw the first line
G1 X10.4 Y200.0 Z0.28 F5000.0 ;Move to side a little
G1 X10.4 Y20 Z0.28 F1500.0 E30 ;Draw the second line
G92 E0 ;Reset Extruder
G1 Z2.0 F3000 ;Move Z Axis up

G92 E0
G92 E0
G1 F2700 E-5
;LAYER_COUNT:107
;LAYER:0
M107
G0 F6000 X125.139 Y73.83 Z0.28
;TYPE:SKIRT
G1 F2700 E0
G1 F1200 X126.041 Y73.883 E0.04207
G1 X126.934 Y74.015 E0.08411
G1 X127.813 Y74.226 E0.1262
G1 X128.669 Y74.514 E0.16825
G1 X129.496 Y74.876 E0.21029
G1 X130.288 Y75.31 E0.25234
G1 X131.038 Y75.813 E0.29439
G1 X131.741 Y76.38 E0.33645
G1 X132.391 Y77.006 E0.37847
G1 X132.984 Y77.688 E0.42055
G1 X133.75 Y78.797 E0.48331
G1 X134.167 Y79.498 E0.52129
G1 X147.973 Y103.411 E1.80704
G1 X148.316 Y104.025 E1.83978
G1 X148.881 Y105.211 E1.90096
G1 X148.883 Y105.216 E1.90121
G1 X149.181 Y106.068 E1.94324
G1 X149.403 Y106.944 E1.98532
G1 X149.546 Y107.836 E2.02738
G1 X149.613 Y109.004 E2.08186
G1 X149.613 Y110.997 E2.17466
G1 X149.573 Y111.899 E2.2167
G1 X149.453 Y112.794 E2.25875
G1 X149.255 Y113.675 E2.3008
G1 X148.98 Y114.535 E2.34284
G1 X148.536 Y115.559 E2.39481
G1 X148.532 Y115.567 E2.39523
G1 X148.318 Y115.972 E2.41656
G1 X147.922 Y116.679 E2.45429
G1 X134.677 Y139.617 E3.68765
G1 X134.34 Y140.183 E3.71833
G1 X133.844 Y140.938 E3.76039
G1 X133.283 Y141.646 E3.80245
G1 X132.788 Y142.177 E3.83625
G1 X132.776 Y142.189 E3.83705
G1 X132.11 Y142.799 E3.8791
G1 X131.393 Y143.348 E3.92115
G1 X130.657 Y143.814 E3.96171
G1 X128.745 Y144.915 E4.06445
G1 X128.71 Y144.934 E4.0663
G1 X127.898 Y145.33 E4.10837
G1 X127.055 Y145.652 E4.15039
G1 X126.186 Y145.898 E4.19244
G1 X125.298 Y146.066 E4.23453
G1 X123.995 Y146.169 E4.29539
G1 X123.099 Y146.181 E4.33711
G1 X96.716 Y146.18 E5.56562
G1 X96.018 Y146.17 E5.59812
G1 X96.018 Y146.165 E5.59835
G1 X95.257 Y146.131 E5.63383
G1 X94.362 Y146.011 E5.67587
G1 X93.481 Y145.813 E5.71792
G1 X92.621 Y145.538 E5.75996
G1 X91.788 Y145.187 E5.80205
G1 X91.065 Y144.808 E5.84006
G1 X89.702 Y144.021 E5.91335
G1 X89.356 Y143.822 E5.93194
G1 X88.593 Y143.338 E5.97401
G1 X87.876 Y142.789 E6.01606
G1 X87.211 Y142.179 E6.05808
G1 X86.602 Y141.512 E6.10014
G1 X86.054 Y140.794 E6.14219
G1 X85.668 Y140.194 E6.17542
G1 X85.209 Y139.421 E6.21728
G1 X72.023 Y116.582 E7.44527
G1 X71.69 Y115.988 E7.47698
G1 X71.283 Y115.181 E7.51907
G1 X70.95 Y114.342 E7.5611
G1 X70.692 Y113.476 E7.60318
G1 X70.512 Y112.592 E7.64519
G1 X70.411 Y111.694 E7.68726
G1 X70.387 Y111 E7.7196
G1 X70.387 Y109.004 E7.81254
G1 X70.427 Y108.102 E7.85458
G1 X70.547 Y107.207 E7.89663
G1 X70.745 Y106.326 E7.93868
G1 X71.02 Y105.466 E7.98072
G1 X71.464 Y104.442 E8.03269
G1 X71.466 Y104.438 E8.0329
G1 X71.676 Y104.04 E8.05385
G1 X72.101 Y103.28 E8.0944
G1 X85.89 Y79.401 E9.37837
G1 X86.242 Y78.81 E9.41041
G1 X86.738 Y78.055 E9.45247
G1 X87.298 Y77.347 E9.4945
G1 X87.92 Y76.691 E9.5366
G1 X88.597 Y76.094 E9.57863
G1 X89.324 Y75.558 E9.62069
G1 X90.095 Y75.088 E9.66273
G1 X90.905 Y74.689 E9.70478
G1 X91.747 Y74.363 E9.74682
G1 X92.615 Y74.113 E9.78888
G1 X93.502 Y73.94 E9.83096
G1 X94.4 Y73.847 E9.873
G1 X94.858 Y73.833 E9.89433
G1 X94.858 Y73.83 E9.89447
G1 X95.693 Y73.819 E9.93336
G1 X124.438 Y73.82 E11.27185
G1 X125.139 Y73.83 E11.30449
G0 F6000 X125.145 Y73.43
G1 F1200 X126.064 Y73.483 E11.34736
G1 X126.975 Y73.616 E11.39022
G1 X127.871 Y73.827 E11.43309
G1 X128.746 Y74.115 E11.47598
G1 X129.592 Y74.478 E11.51885
G1 X130.403 Y74.913 E11.5617
G1 X131.174 Y75.417 E11.60459
G1 X131.898 Y75.986 E11.64747
G1 X132.57 Y76.615 E11.69033
G1 X133.185 Y77.3 E11.7332
G1 X133.738 Y78.036 E11.77606
G1 X134.093 Y78.592 E11.80678
G1 X134.514 Y79.298 E11.84505
G1 X148.322 Y103.215 E13.13101
G1 X148.665 Y103.829 E13.16375
G1 X149.253 Y105.062 E13.22736
G1 X149.255 Y105.067 E13.22761
G1 X149.559 Y105.936 E13.27048
G1 X149.787 Y106.828 E13.31335
G1 X149.937 Y107.736 E13.35621
G1 X150.013 Y109.004 E13.41536
G1 X150.013 Y110.997 E13.50816
G1 X149.973 Y111.917 E13.55104
G1 X149.853 Y112.83 E13.59392
G1 X149.655 Y113.729 E13.63678
G1 X149.379 Y114.607 E13.67964
G1 X148.894 Y115.737 E13.7369
G1 X148.89 Y115.745 E13.73731
G1 X148.667 Y116.167 E13.75954
G1 X148.269 Y116.879 E13.79752
G1 X135.021 Y139.822 E15.03115
G1 X134.684 Y140.388 E15.06183
G1 X134.179 Y141.158 E15.10471
G1 X133.609 Y141.881 E15.14758
G1 X133.071 Y142.46 E15.18438
G1 X133.059 Y142.472 E15.18517
G1 X132.381 Y143.094 E15.22801
G1 X131.651 Y143.655 E15.27088
G1 X130.857 Y144.161 E15.31472
G1 X128.936 Y145.267 E15.41794
G1 X128.901 Y145.286 E15.41979
G1 X128.074 Y145.69 E15.46265
G1 X127.214 Y146.02 E15.50554
G1 X126.33 Y146.274 E15.54837
G1 X125.426 Y146.451 E15.59126
G1 X124.511 Y146.549 E15.63411
G1 X124 Y146.569 E15.65793
G1 X123.099 Y146.581 E15.69989
G1 X96.71 Y146.58 E16.92867
G1 X96.012 Y146.57 E16.96117
G1 X96.012 Y146.565 E16.96141
G1 X95.239 Y146.531 E16.99743
G1 X94.326 Y146.411 E17.04031
G1 X93.427 Y146.213 E17.08318
G1 X92.549 Y145.937 E17.12603
G1 X91.698 Y145.586 E17.1689
G1 X90.865 Y145.154 E17.21259
G1 X89.157 Y144.169 E17.3044
G1 X88.379 Y143.676 E17.34729
G1 X87.647 Y143.118 E17.39015
G1 X86.965 Y142.499 E17.43303
G1 X86.341 Y141.823 E17.47587
G1 X85.777 Y141.095 E17.51875
G1 X85.324 Y140.399 E17.55742
G1 X84.862 Y139.621 E17.59956
G1 X71.674 Y116.777 E18.8278
G1 X71.341 Y116.183 E18.85951
G1 X70.926 Y115.362 E18.90235
G1 X70.584 Y114.507 E18.94523
G1 X70.317 Y113.626 E18.98809
G1 X70.128 Y112.725 E19.03096
G1 X70.018 Y111.811 E19.07383
G1 X69.987 Y111 E19.11162
G1 X69.987 Y109.004 E19.20456
G1 X70.027 Y108.084 E19.24744
G1 X70.147 Y107.171 E19.29032
G1 X70.345 Y106.272 E19.33318
G1 X70.621 Y105.394 E19.37604
G1 X71.106 Y104.264 E19.4333
G1 X71.108 Y104.26 E19.4335
G1 X71.326 Y103.846 E19.45529
G1 X71.754 Y103.08 E19.49615
G1 X85.546 Y79.196 E20.7804
G1 X85.898 Y78.605 E20.81243
G1 X86.403 Y77.835 E20.85531
G1 X86.973 Y77.112 E20.89818
G1 X87.603 Y76.441 E20.94103
G1 X88.29 Y75.827 E20.98394
G1 X89.027 Y75.276 E21.02679
G1 X89.809 Y74.79 E21.06966
G1 X90.63 Y74.374 E21.11252
G1 X91.484 Y74.031 E21.15537
G1 X92.365 Y73.763 E21.19825
G1 X93.266 Y73.573 E21.24112
G1 X94.18 Y73.461 E21.284
G1 X94.852 Y73.435 E21.31532
G1 X94.852 Y73.43 E21.31555
G1 X95.693 Y73.419 E21.35471
G1 X124.444 Y73.42 E22.69348
G1 X125.145 Y73.43 E22.72613
G0 F6000 X125.151 Y73.03
G1 F1200 X126.087 Y73.083 E22.76978
G1 X127.016 Y73.216 E22.81348
G1 X127.929 Y73.428 E22.85712
G1 X128.822 Y73.716 E22.90081
G1 X129.686 Y74.08 E22.94447
G1 X130.517 Y74.516 E22.98817
G1 X131.307 Y75.021 E23.03183
G1 X132.051 Y75.591 E23.07547
G1 X132.744 Y76.223 E23.11914
G1 X133.381 Y76.912 E23.16284
G1 X133.957 Y77.652 E23.2065
G1 X134.437 Y78.387 E23.24738
G1 X134.86 Y79.098 E23.2859
G1 X148.671 Y103.02 E24.57212
G1 X149.014 Y103.634 E24.60487
G1 X149.436 Y104.472 E24.64856
G1 X149.624 Y104.914 E24.67093
G1 X149.626 Y104.919 E24.67118
G1 X149.937 Y105.804 E24.71486
G1 X150.171 Y106.712 E24.75852
G1 X150.328 Y107.636 E24.80216
G1 X150.413 Y109.004 E24.86598
G1 X150.413 Y110.997 E24.95879
G1 X150.373 Y111.934 E25.00246
G1 X150.253 Y112.864 E25.04612
G1 X150.055 Y113.781 E25.0898
G1 X149.779 Y114.677 E25.13346
G1 X149.252 Y115.916 E25.19615
G1 X149.248 Y115.924 E25.19657
G1 X149.017 Y116.361 E25.21959
G1 X148.615 Y117.079 E25.2579
G1 X135.365 Y140.026 E26.49175
G1 X135.028 Y140.592 E26.52242
G1 X134.514 Y141.377 E26.56611
G1 X133.935 Y142.115 E26.60979
G1 X133.354 Y142.743 E26.64963
G1 X133.342 Y142.755 E26.65042
G1 X132.651 Y143.389 E26.69409
G1 X131.909 Y143.963 E26.73777
G1 X131.057 Y144.507 E26.78484
G1 X129.127 Y145.618 E26.88853
G1 X129.092 Y145.637 E26.89039
G1 X128.249 Y146.049 E26.93408
G1 X127.375 Y146.388 E26.97773
G1 X126.475 Y146.651 E27.02139
G1 X125.555 Y146.836 E27.06509
G1 X124.623 Y146.942 E27.10876
G1 X124.006 Y146.969 E27.13752
G1 X123.099 Y146.981 E27.17976
G1 X96.704 Y146.98 E28.40882
G1 X96.006 Y146.97 E28.44133
G1 X96.006 Y146.964 E28.4416
G1 X95.222 Y146.931 E28.47814
G1 X94.292 Y146.811 E28.52181
G1 X93.375 Y146.613 E28.56549
G1 X92.479 Y146.337 E28.60915
G1 X91.609 Y145.986 E28.65283
G1 X90.665 Y145.501 E28.70225
G1 X88.958 Y144.516 E28.79402
G1 X88.165 Y144.015 E28.8377
G1 X87.418 Y143.448 E28.88136
G1 X86.721 Y142.82 E28.92505
G1 X86.081 Y142.135 E28.9687
G1 X85.501 Y141.397 E29.01241
G1 X84.981 Y140.604 E29.05656
G1 X84.516 Y139.821 E29.09897
G1 X71.325 Y116.973 E30.32745
G1 X70.992 Y116.379 E30.35916
G1 X70.569 Y115.542 E30.40282
G1 X70.218 Y114.672 E30.44651
G1 X69.943 Y113.776 E30.49015
G1 X69.745 Y112.859 E30.53383
G1 X69.626 Y111.929 E30.57749
G1 X69.587 Y111 E30.62079
G1 X69.587 Y109.004 E30.71373
G1 X69.627 Y108.067 E30.7574
G1 X69.747 Y107.137 E30.80106
G1 X69.945 Y106.22 E30.84475
G1 X70.221 Y105.324 E30.8884
G1 X70.748 Y104.085 E30.9511
G1 X70.75 Y104.081 E30.95131
G1 X70.977 Y103.651 E30.97395
G1 X71.408 Y102.88 E31.01508
G1 X85.202 Y78.991 E32.29957
G1 X85.554 Y78.4 E32.3316
G1 X86.068 Y77.616 E32.37526
G1 X86.647 Y76.878 E32.41893
G1 X87.286 Y76.192 E32.46259
G1 X87.982 Y75.563 E32.50627
G1 X88.729 Y74.995 E32.54997
G1 X89.521 Y74.493 E32.59363
G1 X90.353 Y74.061 E32.63728
G1 X91.219 Y73.701 E32.68095
G1 X92.113 Y73.416 E32.72465
G1 X93.028 Y73.208 E32.76834
G1 X93.956 Y73.079 E32.81197
G1 X94.847 Y73.037 E32.8535
G1 X94.847 Y73.03 E32.85383
G1 X95.693 Y73.019 E32.89322
G1 X124.45 Y73.02 E34.23227
G1 X125.151 Y73.03 E34.26491
G1 F2700 E29.26491
;MESH:P1-4.stl
G0 F6000 X124.76 Y83.354
G0 X124.76 Y84.436
G0 X137.363 Y107.81
G0 X117.572 Y108.572
G0 X117.572 Y111.428
G0 X137.363 Y112.19
G0 X125.577 Y132.603
G0 X115.017 Y115.838
G0 X112.556 Y117.283
G0 X122.114 Y134.981
;TYPE:WALL-INNER
G1 F2700 E34.26491
G1 F1200 X121.77 Y134.981 E34.28093
G1 X121.769 Y134.981 E34.28098
G1 X98.23 Y134.981 E35.37705
G1 X98.229 Y134.981 E35.3771
G1 X97.885 Y134.981 E35.39312
G1 X98.057 Y134.683 E35.40221
G1 X108.231 Y117.063 E36.34962
G1 X107.885 Y116.864 E36.36821
G1 X105.679 Y115.589 E36.48685
G1 X104.952 Y115.148 E36.52645
G1 X104.779 Y115.043 E36.53587
G1 X104.678 Y115.218 E36.54191
G1 X94.595 Y132.685 E37.48104
G1 X94.423 Y132.983 E37.49706
G1 X94.251 Y132.685 E37.50614
G1 X82.479 Y112.298 E38.60234
G1 X82.307 Y112 E38.61836
G1 X82.651 Y112 E38.62745
G1 X82.652 Y112 E38.6275
G1 X103 Y112 E39.57499
G1 X103 Y108 E39.76124
G1 X82.652 Y108 E40.70873
G1 X82.651 Y108 E40.70878
G1 X82.307 Y108 E40.7248
G1 X82.479 Y107.702 E40.73389
G1 X95.577 Y85.019 E41.95355
G1 X124.423 Y85.019 E43.29674
G1 X137.521 Y107.702 E44.5164
G1 X137.693 Y108 E44.53242
G1 X137.349 Y108 E44.54151
G1 X137.348 Y108 E44.54156
G1 X117 Y108 E45.48905
G1 X117 Y112 E45.6753
G1 X137.348 Y112 E46.62279
G1 X137.349 Y112 E46.62284
G1 X137.693 Y112 E46.63886
G1 X137.521 Y112.298 E46.64795
G1 X125.577 Y132.983 E47.76017
G1 X115.324 Y115.221 E48.71515
G1 X115.223 Y115.046 E48.72455
G1 X115.049 Y115.15 E48.73063
G1 X114.346 Y115.573 E48.76883
G1 X112.64 Y116.557 E48.86054
G1 X111.784 Y117.09 E48.90749
G1 X121.942 Y134.683 E49.85344
G1 X122.114 Y134.981 E49.86254
G0 F6000 X122.459 Y134.781
G1 F1200 X122.634 Y135.083 E49.87879
G1 X122.806 Y135.381 E49.89481
G1 X122.462 Y135.381 E49.9039
G1 X122.461 Y135.381 E49.90395
G1 X97.538 Y135.381 E51.06447
G1 X97.537 Y135.381 E51.06452
G1 X97.193 Y135.381 E51.08053
G1 X97.365 Y135.083 E51.08963
G1 X107.586 Y117.381 E52.04144
G1 X107.685 Y117.209 E52.05068
G1 X107.513 Y117.11 E52.05666
G1 X105.471 Y115.931 E52.16645
G1 X105.094 Y115.702 E52.18699
G1 X104.921 Y115.597 E52.19641
G1 X104.82 Y115.772 E52.20246
G1 X94.423 Y133.782 E53.17079
G1 X94.078 Y133.183 E53.20298
G1 X81.962 Y112.2 E54.33122
G1 X81.787 Y111.898 E54.34747
G1 X81.615 Y111.6 E54.36349
G1 X81.959 Y111.6 E54.37258
G1 X81.96 Y111.6 E54.37263
G1 X102.6 Y111.6 E55.33371
G1 X102.6 Y108.4 E55.48272
G1 X81.96 Y108.4 E56.4438
G1 X81.959 Y108.4 E56.44385
G1 X81.615 Y108.4 E56.45987
G1 X81.787 Y108.102 E56.46896
G1 X95.346 Y84.619 E57.73161
G1 X124.654 Y84.619 E59.09632
G1 X138.038 Y107.8 E60.34272
G1 X138.213 Y108.102 E60.35897
G1 X138.385 Y108.4 E60.37499
G1 X138.041 Y108.4 E60.38408
G1 X138.04 Y108.4 E60.38413
G1 X117.4 Y108.4 E61.34521
G1 X117.4 Y111.6 E61.49422
G1 X138.04 Y111.6 E62.4553
G1 X138.041 Y111.6 E62.45535
G1 X138.385 Y111.6 E62.47137
G1 X138.213 Y111.898 E62.48046
G1 X125.577 Y133.782 E63.65714
G1 X125.232 Y133.183 E63.68933
G1 X115.181 Y115.774 E64.62537
G1 X115.08 Y115.599 E64.63478
G1 X114.906 Y115.703 E64.64086
G1 X114.546 Y115.92 E64.66043
G1 X112.846 Y116.9 E64.7518
G1 X112.324 Y117.225 E64.78043
G1 X122.459 Y134.781 E65.72435
G0 F6000 X123.067 Y135.531
G0 X123.499 Y135.781
;TYPE:WALL-OUTER
G1 F1200 X96.501 Y135.781 E66.98149
G1 X107.139 Y117.355 E67.97221
G1 X105.271 Y116.277 E68.07264
G1 X105.063 Y116.151 E68.08396
G1 X94.423 Y134.581 E69.07489
G1 X80.923 Y111.2 E70.33205
G1 X102.2 Y111.2 E71.3228
G1 X102.2 Y108.8 E71.43455
G1 X80.923 Y108.8 E72.4253
G1 X95.115 Y84.219 E73.74697
G1 X124.885 Y84.219 E75.13318
G1 X139.077 Y108.8 E76.45485
G1 X117.8 Y108.8 E77.4456
G1 X117.8 Y111.2 E77.55735
G1 X139.077 Y111.2 E78.5481
G1 X125.577 Y134.581 E79.80526
G1 X114.937 Y116.152 E80.79615
G1 X114.746 Y116.267 E80.80653
G1 X113.052 Y117.243 E80.89756
G1 X112.864 Y117.36 E80.90787
G1 X113.011 Y117.615 E80.92158
G1 X123.499 Y135.781 E81.89832
G0 F6000 X123.067 Y135.531
G0 X121.438 Y134.871
G0 X121.438 Y134.591
;TYPE:SKIN
G1 F1200 X98.561 Y134.591 E82.96357
G1 X108.764 Y116.921 E83.91367
G1 X105.878 Y115.253 E84.06889
G1 X104.641 Y114.503 E84.13625
G1 X94.423 Y132.202 E85.08787
G1 X82.983 Y112.39 E86.15315
G1 X103.39 Y112.39 E87.10339
G1 X103.39 Y107.61 E87.32596
G1 X82.983 Y107.61 E88.2762
G1 X95.802 Y85.409 E89.46992
G1 X124.198 Y85.409 E90.79216
G1 X137.017 Y107.61 E91.98589
G1 X116.61 Y107.61 E92.93612
G1 X116.61 Y112.39 E93.1587
G1 X137.017 Y112.39 E94.10893
G1 X125.577 Y132.202 E95.17422
G1 X115.362 Y114.508 E96.12557
G1 X114.151 Y115.235 E96.19134
G1 X112.439 Y116.222 E96.28335
G1 X111.258 Y116.958 E96.34815
G1 X121.438 Y134.591 E97.29623
G1 F2700 E92.29623
G0 F6000 X121.438 Y134.871
G0 X98.215 Y134.791
G0 X107.45 Y117.272
G0 X104.983 Y115.836
G0 X94.849 Y132.023
G0 X94.468 Y131.803
G1 F2700 E97.29623
G1 F1200 X94.254 Y131.589 E97.31032
G0 F6000 X94.675 Y131.444
G1 F1200 X93.48 Y130.25 E97.38898
G0 F6000 X93.099 Y130.469
G0 X92.326 Y129.131
G0 X92.708 Y128.911
G1 F1200 X94.882 Y131.086 E97.53217
G0 F6000 X95.089 Y130.727
G1 F1200 X91.935 Y127.573 E97.73987
G0 F6000 X91.554 Y127.793
G0 X90.78 Y126.454
G0 X91.162 Y126.234
G1 F1200 X95.296 Y130.368 E98.0121
G0 F6000 X95.503 Y130.01
G1 F1200 X90.388 Y124.895 E98.34893
G0 F6000 X90.007 Y125.114
G0 X89.234 Y123.776
G0 X89.615 Y123.557
G1 F1200 X95.71 Y129.651 E98.75027
G0 F6000 X95.917 Y129.293
G1 F1200 X88.843 Y122.218 E99.21613
G0 F6000 X88.462 Y122.438
G0 X87.688 Y121.099
G0 X88.07 Y120.879
G1 F1200 X96.124 Y128.934 E99.74654
G0 F6000 X96.331 Y128.576
G1 F1200 X87.296 Y119.54 E100.34154
G0 F6000 X86.915 Y119.76
G0 X86.142 Y118.421
G0 X86.523 Y118.202
G1 F1200 X96.538 Y128.216 E101.00101
G0 F6000 X96.745 Y127.858
G1 F1200 X85.75 Y116.863 E101.72505
G0 F6000 X85.369 Y117.082
G0 X84.596 Y115.743
G0 X84.977 Y115.524
G1 F1200 X96.952 Y127.499 E102.51362
G0 F6000 X97.16 Y127.141
G1 F1200 X84.204 Y114.185 E103.3668
G0 F6000 X83.823 Y114.405
G0 X83.05 Y113.066
G0 X83.431 Y112.847
G1 F1200 X97.367 Y126.782 E104.28448
G0 F6000 X97.573 Y126.423
G1 F1200 X83.699 Y112.549 E105.1981
G0 F6000 X84.265 Y112.549
G1 F1200 X97.78 Y126.065 E106.08812
G0 F6000 X97.988 Y125.706
G1 F1200 X84.83 Y112.549 E106.95457
