;FLAVOR:Marlin
;TIME:5457
;Filament used: 6.53975m
;Layer height: 0.28
;MINX:69.587
;MINY:73.019
;MINZ:0.28
;MAXX:150.413
;MAXY:146.981
;MAXZ:29.96
;Generated with Cura_SteamEngine 4.6.0
M140 S52
M105
M190 S52
M104 S203
M105
M109 S203
M82 ;absolute extrusion mode
M201 X500.00 Y500.00 Z100.00 E5000.00 ;Setup machine max acceleration
M203 X500.00 Y500.00 Z10.00 E50.00 ;Setup machine max feedrate
M204 P500.00 R1000.00 T500.00 ;Setup Print/Retract/Travel acceleration
M205 X8.00 Y8.00 Z0.40 E5.00 ;Setup Jerk
M220 S100 ;Reset Feedrate
M221 S100 ;Reset Flowrate

G28 ;Home

G92 E0 ;Reset Extruder
G1 Z2.0 F3000 ;Move Z Axis up
G1 X10.1 Y20 Z0.28 F5000.0 ;Move to start position
G1 X10.1 Y200.0 Z0.28 F1500.0 E15 ;Draw the first line
G1 X10.4 Y200.0 Z0.28 F5000.0 ;Move to side a little
G1 X10.4 Y20 Z0.28 F1500.0 E30 ;Draw the second line
G92 E0 ;Reset Extruder
G1 Z2.0 F3000 ;Move Z Axis up

G92 E0
G92 E0
G1 F2700 E-5
;LAYER_COUNT:107
;LAYER:0
M107
G0 F6000 X125.139 Y73.83 Z0.28
;TYPE:SKIRT
G1 F2700 E0
G1 F1200 X126.041 Y73.883 E0.04207
G1 X126.934 Y74.015 E0.08411
G1 X127.813 Y74.226 E0.1262
G1 X128.669 Y74.514 E0.16825
G1 X129.496 Y74.876 E0.21029
G1 X130.288 Y75.31 E0.25234
G1 X131.038 Y75.813 E0.29439
G1 X131.741 Y76.38 E0.33645
G1 X132.391 Y77.006 E0.37847
G1 X132.984 Y77.688 E0.42055
G1 X133.751 Y78.798 E0.48338
G1 X134.183 Y79.525 E0.52275
G1 X147.973 Y103.411 E1.80704
G1 X148.316 Y104.025 E1.83979
G1 X148.881 Y105.211 E1.90096
G1 X148.883 Y105.216 E1.90121
G1 X149.181 Y106.068 E1.94324
G1 X149.403 Y106.944 E1.98532
G1 X149.546 Y107.836 E2.02738
G1 X149.613 Y109.004 E2.08186
G1 X149.613 Y110.997 E2.17466
G1 X149.573 Y111.899 E2.2167
G1 X149.453 Y112.794 E2.25875
G1 X149.255 Y113.675 E2.3008
G1 X148.98 Y114.535 E2.34284
G1 X148.536 Y115.559 E2.39481
G1 X148.532 Y115.567 E2.39523
G1 X148.318 Y115.972 E2.41656
G1 X147.922 Y116.679 E2.45429
G1 X134.677 Y139.617 E3.68765
G1 X134.34 Y140.183 E3.71833
G1 X133.844 Y140.938 E3.76039
G1 X133.283 Y141.646 E3.80245
G1 X132.788 Y142.177 E3.83626
G1 X132.776 Y142.189 E3.83705
G1 X132.11 Y142.799 E3.8791
G1 X131.393 Y143.348 E3.92115
G1 X130.657 Y143.814 E3.96171
G1 X128.745 Y144.915 E4.06445
G1 X128.71 Y144.934 E4.0663
G1 X127.898 Y145.33 E4.10837
G1 X127.055 Y145.652 E4.15039
G1 X126.186 Y145.898 E4.19244
G1 X125.298 Y146.066 E4.23453
G1 X123.995 Y146.169 E4.29539
G1 X123.099 Y146.181 E4.33711
G1 X96.716 Y146.18 E5.56562
G1 X96.018 Y146.17 E5.59812
G1 X96.018 Y146.165 E5.59836
G1 X95.257 Y146.131 E5.63383
G1 X94.362 Y146.011 E5.67587
G1 X93.481 Y145.813 E5.71792
G1 X92.621 Y145.538 E5.75996
G1 X91.788 Y145.187 E5.80205
G1 X91.065 Y144.808 E5.84006
G1 X89.702 Y144.021 E5.91335
G1 X89.356 Y143.822 E5.93194
G1 X88.593 Y143.338 E5.97401
G1 X87.876 Y142.789 E6.01606
G1 X87.211 Y142.179 E6.05808
G1 X86.602 Y141.512 E6.10014
G1 X86.054 Y140.794 E6.1422
G1 X85.668 Y140.194 E6.17542
G1 X85.209 Y139.421 E6.21728
G1 X72.023 Y116.582 E7.44528
G1 X71.69 Y115.988 E7.47698
G1 X71.283 Y115.181 E7.51907
G1 X70.95 Y114.342 E7.5611
G1 X70.692 Y113.476 E7.60318
G1 X70.512 Y112.592 E7.64519
G1 X70.411 Y111.694 E7.68726
G1 X70.387 Y111 E7.7196
G1 X70.387 Y109.003 E7.81259
G1 X70.427 Y108.101 E7.85463
G1 X70.547 Y107.206 E7.89668
G1 X70.745 Y106.325 E7.93872
G1 X71.02 Y105.465 E7.98077
G1 X71.212 Y104.985 E8.00484
G1 X71.215 Y104.978 E8.00519
G1 X71.687 Y104.019 E8.05496
G1 X72.079 Y103.32 E8.09228
G1 X85.324 Y80.38 E9.32573
G1 X85.663 Y79.811 E9.35657
G1 X86.159 Y79.057 E9.39859
G1 X86.72 Y78.349 E9.44065
G1 X87.342 Y77.694 E9.48272
G1 X87.994 Y77.116 E9.52329
G1 X88.01 Y77.103 E9.52425
G1 X88.735 Y76.565 E9.56629
G1 X89.346 Y76.183 E9.59984
G1 X90.532 Y75.499 E9.66359
G1 X90.54 Y75.494 E9.66403
G1 X91.07 Y75.189 E9.6925
G1 X91.872 Y74.774 E9.73455
G1 X92.708 Y74.431 E9.77663
G1 X93.57 Y74.164 E9.81865
G1 X94.453 Y73.973 E9.86072
G1 X95.35 Y73.862 E9.9028
G1 X96.007 Y73.831 E9.93343
G1 X96.901 Y73.819 E9.97506
G1 X124.438 Y73.82 E11.2573
G1 X125.139 Y73.83 E11.28994
G0 F6000 X125.145 Y73.43
G1 F1200 X126.064 Y73.483 E11.33281
G1 X126.975 Y73.616 E11.37568
G1 X127.871 Y73.827 E11.41854
G1 X128.746 Y74.115 E11.46143
G1 X129.592 Y74.478 E11.5043
G1 X130.403 Y74.913 E11.54715
G1 X131.174 Y75.417 E11.59004
G1 X131.898 Y75.986 E11.63292
G1 X132.57 Y76.615 E11.67578
G1 X133.185 Y77.3 E11.71865
G1 X133.738 Y78.036 E11.76151
G1 X134.094 Y78.593 E11.7923
G1 X134.53 Y79.325 E11.83197
G1 X148.322 Y103.215 E13.11646
G1 X148.665 Y103.829 E13.14921
G1 X149.253 Y105.062 E13.21282
G1 X149.255 Y105.067 E13.21307
G1 X149.559 Y105.936 E13.25593
G1 X149.787 Y106.828 E13.29881
G1 X149.937 Y107.736 E13.34166
G1 X150.013 Y109.004 E13.40081
G1 X150.013 Y110.997 E13.49361
G1 X149.973 Y111.917 E13.53649
G1 X149.853 Y112.83 E13.57937
G1 X149.655 Y113.729 E13.62223
G1 X149.379 Y114.607 E13.66509
G1 X148.894 Y115.737 E13.72235
G1 X148.89 Y115.745 E13.72276
G1 X148.667 Y116.167 E13.74499
G1 X148.269 Y116.879 E13.78297
G1 X135.021 Y139.822 E15.01661
G1 X134.684 Y140.388 E15.04728
G1 X134.179 Y141.158 E15.09016
G1 X133.609 Y141.881 E15.13303
G1 X133.071 Y142.46 E15.16983
G1 X133.059 Y142.472 E15.17062
G1 X132.381 Y143.094 E15.21346
G1 X131.651 Y143.655 E15.25633
G1 X130.857 Y144.161 E15.30018
G1 X128.936 Y145.267 E15.40339
G1 X128.901 Y145.286 E15.40525
G1 X128.074 Y145.69 E15.4481
G1 X127.214 Y146.02 E15.491
G1 X126.33 Y146.274 E15.53382
G1 X125.426 Y146.451 E15.57672
G1 X124.511 Y146.549 E15.61957
G1 X124 Y146.569 E15.64338
G1 X123.099 Y146.581 E15.68534
G1 X96.71 Y146.58 E16.91412
G1 X96.012 Y146.57 E16.94663
G1 X96.012 Y146.565 E16.94686
G1 X95.239 Y146.531 E16.98289
G1 X94.326 Y146.411 E17.02577
G1 X93.427 Y146.213 E17.06863
G1 X92.549 Y145.937 E17.11149
G1 X91.698 Y145.586 E17.15435
G1 X90.865 Y145.154 E17.19804
G1 X89.157 Y144.169 E17.28985
G1 X88.379 Y143.676 E17.33274
G1 X87.647 Y143.118 E17.3756
G1 X86.965 Y142.499 E17.41849
G1 X86.341 Y141.823 E17.46133
G1 X85.777 Y141.095 E17.50421
G1 X85.324 Y140.399 E17.54288
G1 X84.862 Y139.621 E17.58501
G1 X71.674 Y116.777 E18.81325
G1 X71.341 Y116.183 E18.84496
G1 X70.926 Y115.362 E18.8878
G1 X70.584 Y114.507 E18.93068
G1 X70.317 Y113.626 E18.97354
G1 X70.128 Y112.725 E19.01641
G1 X70.018 Y111.811 E19.05928
G1 X69.987 Y111 E19.09707
G1 X69.987 Y109.003 E19.19006
G1 X70.027 Y108.083 E19.23294
G1 X70.147 Y107.17 E19.27582
G1 X70.345 Y106.271 E19.31868
G1 X70.621 Y105.393 E19.36154
G1 X70.844 Y104.827 E19.38986
G1 X70.847 Y104.82 E19.39022
G1 X71.338 Y103.824 E19.44193
G1 X71.732 Y103.12 E19.47949
G1 X84.981 Y80.176 E20.71319
G1 X85.32 Y79.607 E20.74403
G1 X85.825 Y78.837 E20.78691
G1 X86.395 Y78.114 E20.82978
G1 X87.025 Y77.443 E20.87264
G1 X87.742 Y76.805 E20.91733
G1 X87.758 Y76.792 E20.91829
G1 X88.497 Y76.243 E20.96115
G1 X89.146 Y75.837 E20.9968
G1 X90.332 Y75.153 E21.06055
G1 X90.341 Y75.148 E21.06103
G1 X90.871 Y74.843 E21.08951
G1 X91.688 Y74.419 E21.13237
G1 X92.539 Y74.067 E21.17525
G1 X93.417 Y73.79 E21.21812
G1 X94.316 Y73.591 E21.26099
G1 X95.229 Y73.471 E21.30387
G1 X96.001 Y73.431 E21.33987
G1 X96.901 Y73.419 E21.38178
G1 X124.444 Y73.42 E22.6643
G1 X125.145 Y73.43 E22.69694
G0 F6000 X125.151 Y73.03
G1 F1200 X126.087 Y73.083 E22.74059
G1 X127.016 Y73.216 E22.78429
G1 X127.929 Y73.428 E22.82794
G1 X128.822 Y73.716 E22.87163
G1 X129.686 Y74.08 E22.91529
G1 X130.517 Y74.516 E22.95898
G1 X131.307 Y75.021 E23.00264
G1 X132.051 Y75.591 E23.04628
G1 X132.744 Y76.223 E23.08996
G1 X133.381 Y76.912 E23.13365
G1 X133.957 Y77.652 E23.17732
G1 X134.438 Y78.388 E23.21826
G1 X134.876 Y79.125 E23.25818
G1 X148.671 Y103.02 E24.54294
G1 X149.014 Y103.634 E24.57569
G1 X149.436 Y104.472 E24.61938
G1 X149.624 Y104.914 E24.64174
G1 X149.626 Y104.919 E24.64199
G1 X149.937 Y105.804 E24.68567
G1 X150.171 Y106.712 E24.72933
G1 X150.328 Y107.636 E24.77298
G1 X150.413 Y109.004 E24.8368
G1 X150.413 Y110.997 E24.9296
G1 X150.373 Y111.934 E24.97327
G1 X150.253 Y112.864 E25.01694
G1 X150.055 Y113.781 E25.06062
G1 X149.779 Y114.677 E25.10428
G1 X149.252 Y115.916 E25.16697
G1 X149.248 Y115.924 E25.16739
G1 X149.017 Y116.361 E25.1904
G1 X148.615 Y117.079 E25.22872
G1 X135.365 Y140.026 E26.46256
G1 X135.028 Y140.592 E26.49324
G1 X134.514 Y141.377 E26.53693
G1 X133.935 Y142.115 E26.58061
G1 X133.354 Y142.743 E26.62044
G1 X133.342 Y142.755 E26.62123
G1 X132.651 Y143.389 E26.6649
G1 X131.909 Y143.963 E26.70858
G1 X131.057 Y144.507 E26.75565
G1 X129.127 Y145.618 E26.85935
G1 X129.092 Y145.637 E26.8612
G1 X128.249 Y146.049 E26.90489
G1 X127.375 Y146.388 E26.94854
G1 X126.475 Y146.651 E26.9922
G1 X125.555 Y146.836 E27.0359
G1 X124.623 Y146.942 E27.07958
G1 X124.006 Y146.969 E27.10834
G1 X123.099 Y146.981 E27.15057
G1 X96.704 Y146.98 E28.37964
G1 X96.006 Y146.97 E28.41214
G1 X96.006 Y146.964 E28.41242
G1 X95.222 Y146.931 E28.44896
G1 X94.292 Y146.811 E28.49262
G1 X93.375 Y146.613 E28.53631
G1 X92.479 Y146.337 E28.57996
G1 X91.609 Y145.986 E28.62365
G1 X90.665 Y145.501 E28.67306
G1 X88.958 Y144.516 E28.76483
G1 X88.165 Y144.015 E28.80851
G1 X87.418 Y143.448 E28.85218
G1 X86.721 Y142.82 E28.89587
G1 X86.081 Y142.135 E28.93952
G1 X85.501 Y141.397 E28.98322
G1 X84.981 Y140.604 E29.02738
G1 X84.516 Y139.821 E29.06978
G1 X71.325 Y116.973 E30.29826
G1 X70.992 Y116.379 E30.32997
G1 X70.569 Y115.542 E30.37364
G1 X70.218 Y114.672 E30.41732
G1 X69.943 Y113.776 E30.46097
G1 X69.745 Y112.859 E30.50465
G1 X69.626 Y111.929 E30.54831
G1 X69.587 Y111 E30.5916
G1 X69.587 Y109.003 E30.68459
G1 X69.627 Y108.066 E30.72826
G1 X69.747 Y107.136 E30.77193
G1 X69.945 Y106.219 E30.81561
G1 X70.221 Y105.323 E30.85927
G1 X70.476 Y104.67 E30.89191
G1 X70.479 Y104.663 E30.89226
G1 X70.988 Y103.628 E30.94597
G1 X71.386 Y102.92 E30.98379
G1 X84.637 Y79.971 E32.21774
G1 X84.976 Y79.402 E32.24858
G1 X85.49 Y78.617 E32.29227
G1 X86.069 Y77.879 E32.33595
G1 X86.709 Y77.194 E32.3796
G1 X87.489 Y76.495 E32.42837
G1 X87.505 Y76.482 E32.42933
G1 X88.258 Y75.922 E32.47302
G1 X88.946 Y75.49 E32.51085
G1 X90.132 Y74.806 E32.5746
G1 X90.141 Y74.801 E32.57508
G1 X90.671 Y74.496 E32.60356
G1 X91.504 Y74.063 E32.64727
G1 X92.369 Y73.703 E32.6909
G1 X93.263 Y73.418 E32.73459
G1 X94.177 Y73.21 E32.77824
G1 X95.106 Y73.08 E32.82192
G1 X95.995 Y73.031 E32.86338
G1 X96.901 Y73.019 E32.90557
G1 X124.45 Y73.02 E34.18837
G1 X125.151 Y73.03 E34.22101
G1 F2700 E29.22101
;MESH:P1-5.stl
G0 F6000 X124.76 Y83.354
G0 X124.76 Y84.436
G0 X137.363 Y107.81
G0 X117.572 Y108.572
G0 X117.572 Y111.428
G0 X137.363 Y112.19
G0 X125.577 Y132.603
G0 X115.017 Y115.838
G0 X112.556 Y117.283
G0 X122.114 Y134.981
;TYPE:WALL-INNER
G1 F2700 E34.22101
G1 F1200 X121.77 Y134.981 E34.23703
G1 X121.769 Y134.981 E34.23708
G1 X98.23 Y134.981 E35.33315
G1 X98.229 Y134.981 E35.3332
G1 X97.885 Y134.981 E35.34921
G1 X98.057 Y134.683 E35.35831
G1 X108.231 Y117.063 E36.30572
G1 X107.885 Y116.864 E36.32431
G1 X105.679 Y115.589 E36.44295
G1 X104.952 Y115.148 E36.48254
G1 X104.779 Y115.043 E36.49197
G1 X104.678 Y115.218 E36.49801
G1 X94.423 Y132.983 E37.45315
G1 X82.479 Y112.298 E38.56537
G1 X82.307 Y112 E38.5814
G1 X82.651 Y112 E38.59049
G1 X82.652 Y112 E38.59053
G1 X103 Y112 E39.53802
G1 X103 Y108 E39.72428
G1 X82.652 Y108 E40.67177
G1 X82.651 Y108 E40.67181
G1 X82.307 Y108 E40.68783
G1 X82.479 Y107.702 E40.69693
G1 X94.423 Y87.017 E41.80915
G1 X104.67 Y104.767 E42.7635
G1 X104.769 Y104.939 E42.77274
G1 X104.941 Y104.84 E42.77871
G1 X108.229 Y102.934 E42.95568
G1 X98.057 Y85.317 E43.90293
G1 X97.885 Y85.019 E43.91895
G1 X98.229 Y85.019 E43.92804
G1 X98.23 Y85.019 E43.92809
G1 X124.423 Y85.019 E45.14774
G1 X137.521 Y107.702 E46.3674
G1 X137.693 Y108 E46.38342
G1 X137.349 Y108 E46.39251
G1 X137.348 Y108 E46.39256
G1 X117 Y108 E47.34005
G1 X117 Y112 E47.5263
G1 X137.348 Y112 E48.47379
G1 X137.349 Y112 E48.47384
G1 X137.693 Y112 E48.48986
G1 X137.521 Y112.298 E48.49895
G1 X125.749 Y132.685 E49.59515
G1 X125.577 Y132.983 E49.61117
G1 X125.405 Y132.685 E49.62025
G1 X115.324 Y115.221 E50.55921
G1 X115.223 Y115.046 E50.56862
G1 X115.049 Y115.15 E50.57469
G1 X114.346 Y115.573 E50.6129
G1 X112.64 Y116.557 E50.7046
G1 X111.784 Y117.09 E50.75156
G1 X121.942 Y134.683 E51.69751
G1 X122.114 Y134.981 E51.7066
G0 F6000 X122.459 Y134.781
G1 F1200 X122.634 Y135.083 E51.72285
G1 X122.806 Y135.381 E51.73887
G1 X122.462 Y135.381 E51.74797
G1 X122.461 Y135.381 E51.74801
G1 X97.538 Y135.381 E52.90853
G1 X97.537 Y135.381 E52.90858
G1 X97.193 Y135.381 E52.9246
G1 X97.365 Y135.083 E52.93369
G1 X107.586 Y117.381 E53.8855
G1 X107.685 Y117.209 E53.89474
G1 X107.513 Y117.11 E53.90072
G1 X105.471 Y115.931 E54.01051
G1 X105.094 Y115.702 E54.03105
G1 X104.921 Y115.597 E54.04048
G1 X104.82 Y115.772 E54.04652
G1 X94.423 Y133.782 E55.01485
G1 X94.078 Y133.183 E55.04704
G1 X81.962 Y112.2 E56.17528
G1 X81.787 Y111.898 E56.19153
G1 X81.615 Y111.6 E56.20755
G1 X81.959 Y111.6 E56.21665
G1 X81.96 Y111.6 E56.21669
G1 X102.6 Y111.6 E57.17778
G1 X102.6 Y108.4 E57.32678
G1 X81.96 Y108.4 E58.28787
G1 X81.959 Y108.4 E58.28791
G1 X81.615 Y108.4 E58.30393
G1 X81.787 Y108.102 E58.31303
G1 X94.423 Y86.218 E59.48971
G1 X94.768 Y86.817 E59.52189
G1 X104.816 Y104.22 E60.45762
G1 X104.915 Y104.392 E60.46686
G1 X105.087 Y104.293 E60.47284
G1 X107.683 Y102.788 E60.61256
G1 X97.54 Y85.219 E61.5572
G1 X97.365 Y84.917 E61.57345
G1 X97.193 Y84.619 E61.58947
G1 X97.537 Y84.619 E61.59856
G1 X97.538 Y84.619 E61.59861
G1 X124.654 Y84.619 E62.86124
G1 X138.038 Y107.8 E64.10764
G1 X138.213 Y108.102 E64.1239
G1 X138.385 Y108.4 E64.13992
G1 X138.041 Y108.4 E64.14901
G1 X138.04 Y108.4 E64.14906
G1 X117.4 Y108.4 E65.11014
G1 X117.4 Y111.6 E65.25915
G1 X138.04 Y111.6 E66.22023
G1 X138.041 Y111.6 E66.22028
G1 X138.385 Y111.6 E66.2363
G1 X138.213 Y111.898 E66.24539
G1 X125.577 Y133.782 E67.42207
G1 X125.232 Y133.183 E67.45426
G1 X115.181 Y115.774 E68.3903
G1 X115.08 Y115.599 E68.39971
G1 X114.906 Y115.703 E68.40578
G1 X114.546 Y115.92 E68.42535
G1 X112.846 Y116.9 E68.51672
G1 X112.324 Y117.225 E68.54536
G1 X122.459 Y134.781 E69.48928
G0 F6000 X123.067 Y135.531
G0 X123.499 Y135.781
;TYPE:WALL-OUTER
G1 F1200 X96.501 Y135.781 E70.74642
G1 X107.139 Y117.355 E71.73714
G1 X105.271 Y116.277 E71.83756
G1 X105.063 Y116.151 E71.84889
G1 X94.423 Y134.581 E72.83981
G1 X80.923 Y111.2 E74.09698
G1 X102.2 Y111.2 E75.08773
G1 X102.2 Y108.8 E75.19948
G1 X80.923 Y108.8 E76.19023
G1 X94.423 Y85.419 E77.44739
G1 X105.061 Y103.845 E78.43811
G1 X107.137 Y102.642 E78.54983
G1 X96.501 Y84.219 E79.54038
G1 X124.885 Y84.219 E80.86206
G1 X139.077 Y108.8 E82.18373
G1 X117.8 Y108.8 E83.17447
G1 X117.8 Y111.2 E83.28623
G1 X139.077 Y111.2 E84.27697
G1 X125.577 Y134.581 E85.53414
G1 X114.937 Y116.152 E86.52502
G1 X114.746 Y116.267 E86.53541
G1 X113.052 Y117.243 E86.62644
G1 X112.864 Y117.36 E86.63675
G1 X113.011 Y117.615 E86.65046
G1 X123.499 Y135.781 E87.6272
G0 F6000 X123.067 Y135.531
G0 X121.438 Y134.871
G0 X121.438 Y134.591
;TYPE:SKIN
G1 F1200 X98.561 Y134.591 E88.69245
G1 X108.764 Y116.921 E89.64255
G1 X105.878 Y115.253 E89.79777
G1 X104.641 Y114.503 E89.86513
G1 X94.423 Y132.202 E90.81675
G1 X82.983 Y112.39 E91.88203
G1 X103.39 Y112.39 E92.83226
G1 X103.39 Y107.61 E93.05484
G1 X82.983 Y107.61 E94.00508
G1 X94.423 Y87.798 E95.07036
G1 X104.627 Y105.472 E96.02065
G1 X108.761 Y103.076 E96.24314
G1 X98.561 Y85.409 E97.19305
G1 X124.198 Y85.409 E98.38682
G1 X137.017 Y107.61 E99.58054
G1 X116.61 Y107.61 E100.53078
G1 X116.61 Y112.39 E100.75335
G1 X137.017 Y112.39 E101.70359
G1 X125.577 Y132.202 E102.76887
G1 X115.362 Y114.508 E103.72022
G1 X114.151 Y115.235 E103.78599
G1 X112.439 Y116.222 E103.87801
G1 X111.258 Y116.958 E103.94281
G1 X121.438 Y134.591 E104.89088
G1 F2700 E99.89088
G0 F6000 X121.438 Y134.871
G0 X98.215 Y134.791
G0 X107.45 Y117.272
G0 X104.983 Y115.836
G0 X94.849 Y132.023
G0 X94.468 Y131.803
G1 F2700 E104.89088
G1 F1200 X94.254 Y131.589 E104.90497
G0 F6000 X94.675 Y131.444
G1 F1200 X93.48 Y130.25 E104.98363
G0 F6000 X93.099 Y130.469
G0 X92.326 Y129.131
G0 X92.708 Y128.911
G1 F1200 X94.882 Y131.086 E105.12683
G0 F6000 X95.089 Y130.727
G1 F1200 X91.935 Y127.573 E105.33453
G0 F6000 X91.554 Y127.793
G0 X90.78 Y126.454
G0 X91.162 Y126.234
G1 F1200 X95.296 Y130.368 E105.60676
