;FLAVOR:Marlin
;TIME:5954
;Filament used: 7.11846m
;Layer height: 0.28
;MINX:69.587
;MINY:73.019
;MINZ:0.28
;MAXX:150.413
;MAXY:146.981
;MAXZ:29.96
;Generated with Cura_SteamEngine 4.6.0
M140 S52
M105
M190 S52
M104 S203
M105
M109 S203
M82 ;absolute extrusion mode
M201 X500.00 Y500.00 Z100.00 E5000.00 ;Setup machine max acceleration
M203 X500.00 Y500.00 Z10.00 E50.00 ;Setup machine max feedrate
M204 P500.00 R1000.00 T500.00 ;Setup Print/Retract/Travel acceleration
M205 X8.00 Y8.00 Z0.40 E5.00 ;Setup Jerk
M220 S100 ;Reset Feedrate
M221 S100 ;Reset Flowrate

G28 ;Home

G92 E0 ;Reset Extruder
G1 Z2.0 F3000 ;Move Z Axis up
G1 X10.1 Y20 Z0.28 F5000.0 ;Move to start position
G1 X10.1 Y200.0 Z0.28 F1500.0 E15 ;Draw the first line
G1 X10.4 Y200.0 Z0.28 F5000.0 ;Move to side a little
G1 X10.4 Y20 Z0.28 F1500.0 E30 ;Draw the second line
G92 E0 ;Reset Extruder
G1 Z2.0 F3000 ;Move Z Axis up

G92 E0
G92 E0
G1 F2700 E-5
;LAYER_COUNT:107
;LAYER:0
M107
G0 F6000 X123.982 Y73.835 Z0.28
;TYPE:SKIRT
G1 F2700 E0
G1 F1200 X124.743 Y73.869 E0.03547
G1 X125.638 Y73.989 E0.07752
G1 X126.519 Y74.187 E0.11956
G1 X127.379 Y74.462 E0.16161
G1 X128.212 Y74.813 E0.2037
G1 X128.935 Y75.192 E0.24171
G1 X130.298 Y75.979 E0.315
G1 X130.636 Y76.173 E0.33314
G1 X131.399 Y76.656 E0.37519
G1 X132.116 Y77.205 E0.41724
G1 X132.782 Y77.815 E0.4593
G1 X133.392 Y78.481 E0.50135
G1 X133.94 Y79.199 E0.54341
G1 X134.329 Y79.801 E0.57678
G1 X134.791 Y80.579 E0.61892
G1 X147.984 Y103.43 E1.84756
G1 X148.313 Y104.019 E1.87897
G1 X148.325 Y104.039 E1.88006
G1 X148.729 Y104.846 E1.92208
G1 X149.06 Y105.687 E1.96417
G1 X149.315 Y106.553 E2.0062
G1 X149.493 Y107.438 E2.04824
G1 X149.591 Y108.336 E2.0903
G1 X149.613 Y109 E2.12124
G1 X149.613 Y110.997 E2.21423
G1 X149.573 Y111.899 E2.25627
G1 X149.453 Y112.794 E2.29832
G1 X149.255 Y113.675 E2.34036
G1 X148.98 Y114.535 E2.38241
G1 X148.536 Y115.559 E2.43438
G1 X148.532 Y115.567 E2.43479
G1 X148.318 Y115.972 E2.45612
G1 X147.922 Y116.679 E2.49386
G1 X134.677 Y139.617 E3.72722
G1 X134.34 Y140.183 E3.75789
G1 X133.844 Y140.938 E3.79996
G1 X133.283 Y141.646 E3.84202
G1 X132.788 Y142.177 E3.87582
G1 X132.776 Y142.189 E3.87661
G1 X132.11 Y142.799 E3.91867
G1 X131.393 Y143.348 E3.96072
G1 X130.657 Y143.814 E4.00128
G1 X128.745 Y144.915 E4.10401
G1 X128.71 Y144.934 E4.10587
G1 X127.898 Y145.33 E4.14794
G1 X127.055 Y145.652 E4.18996
G1 X126.186 Y145.898 E4.23201
G1 X125.298 Y146.066 E4.27409
G1 X123.995 Y146.169 E4.33496
G1 X123.099 Y146.181 E4.37668
G1 X96.716 Y146.18 E5.60518
G1 X96.018 Y146.17 E5.63769
G1 X96.018 Y146.165 E5.63792
G1 X95.257 Y146.131 E5.67339
G1 X94.362 Y146.011 E5.71544
G1 X93.481 Y145.813 E5.75749
G1 X92.621 Y145.538 E5.79953
G1 X91.788 Y145.187 E5.84162
G1 X91.065 Y144.808 E5.87963
G1 X89.702 Y144.021 E5.95292
G1 X89.356 Y143.822 E5.9715
G1 X88.593 Y143.338 E6.01358
G1 X87.876 Y142.789 E6.05563
G1 X87.211 Y142.179 E6.09765
G1 X86.602 Y141.512 E6.1397
G1 X86.054 Y140.794 E6.18176
G1 X85.668 Y140.194 E6.21498
G1 X85.209 Y139.421 E6.25684
G1 X72.023 Y116.582 E7.48484
G1 X71.69 Y115.988 E7.51655
G1 X71.283 Y115.181 E7.55864
G1 X70.95 Y114.342 E7.60067
G1 X70.692 Y113.476 E7.64274
G1 X70.512 Y112.592 E7.68475
G1 X70.411 Y111.694 E7.72683
G1 X70.387 Y111 E7.75916
G1 X70.387 Y109.003 E7.85215
G1 X70.427 Y108.101 E7.8942
G1 X70.547 Y107.206 E7.93624
G1 X70.745 Y106.325 E7.97829
G1 X71.02 Y105.465 E8.02033
G1 X71.212 Y104.985 E8.04441
G1 X71.215 Y104.978 E8.04476
G1 X71.687 Y104.019 E8.09453
G1 X72.079 Y103.32 E8.13185
G1 X85.327 Y80.376 E9.36552
G1 X85.664 Y79.811 E9.39616
G1 X86.16 Y79.057 E9.43818
G1 X86.722 Y78.349 E9.48027
G1 X87.212 Y77.824 E9.51371
G1 X87.229 Y77.807 E9.51483
G1 X87.895 Y77.197 E9.55689
G1 X88.612 Y76.648 E9.59894
G1 X89.345 Y76.183 E9.63936
G1 X91.051 Y75.201 E9.73101
G1 X91.852 Y74.784 E9.77306
G1 X92.687 Y74.439 E9.81513
G1 X93.549 Y74.169 E9.85719
G1 X94.431 Y73.977 E9.89923
G1 X95.327 Y73.864 E9.94128
G1 X96.007 Y73.831 E9.97298
G1 X96.901 Y73.819 E10.01461
G1 X123.284 Y73.82 E11.24311
G1 X123.982 Y73.835 E11.27562
G0 F6000 X123.988 Y73.435
G1 F1200 X124.761 Y73.469 E11.31165
G1 X125.674 Y73.589 E11.35453
G1 X126.573 Y73.787 E11.3974
G1 X127.451 Y74.063 E11.44025
G1 X128.302 Y74.414 E11.48312
G1 X129.135 Y74.846 E11.52681
G1 X130.503 Y75.635 E11.60034
G1 X130.835 Y75.826 E11.61818
G1 X131.613 Y76.318 E11.66104
G1 X132.346 Y76.875 E11.70391
G1 X133.027 Y77.494 E11.74676
G1 X133.653 Y78.17 E11.78966
G1 X134.217 Y78.897 E11.83251
G1 X134.672 Y79.596 E11.87134
G1 X135.138 Y80.379 E11.91377
G1 X148.333 Y103.234 E13.14263
G1 X148.665 Y103.828 E13.17431
G1 X148.659 Y103.831 E13.17462
G1 X148.997 Y104.472 E13.20837
G1 X149.354 Y105.321 E13.25125
G1 X149.636 Y106.197 E13.2941
G1 X149.84 Y107.095 E13.33698
G1 X149.966 Y108.007 E13.37985
G1 X150.013 Y109 E13.42614
G1 X150.013 Y110.997 E13.51913
G1 X149.973 Y111.917 E13.56201
G1 X149.853 Y112.83 E13.60489
G1 X149.655 Y113.729 E13.64776
G1 X149.379 Y114.607 E13.69061
G1 X148.894 Y115.737 E13.74787
G1 X148.89 Y115.745 E13.74829
G1 X148.667 Y116.167 E13.77051
G1 X148.269 Y116.879 E13.80849
G1 X135.021 Y139.822 E15.04213
G1 X134.684 Y140.388 E15.0728
G1 X134.179 Y141.158 E15.11568
G1 X133.609 Y141.881 E15.15855
G1 X133.071 Y142.46 E15.19535
G1 X133.059 Y142.472 E15.19614
G1 X132.381 Y143.094 E15.23899
G1 X131.651 Y143.655 E15.28186
G1 X130.857 Y144.161 E15.3257
G1 X128.936 Y145.267 E15.42891
G1 X128.901 Y145.286 E15.43077
G1 X128.074 Y145.69 E15.47363
G1 X127.214 Y146.02 E15.51652
G1 X126.33 Y146.274 E15.55935
G1 X125.426 Y146.451 E15.60224
G1 X124.511 Y146.549 E15.64509
G1 X124 Y146.569 E15.6689
G1 X123.099 Y146.581 E15.71086
G1 X96.71 Y146.58 E16.93964
G1 X96.012 Y146.57 E16.97215
G1 X96.012 Y146.565 E16.97238
G1 X95.239 Y146.531 E17.00841
G1 X94.326 Y146.411 E17.05129
G1 X93.427 Y146.213 E17.09415
G1 X92.549 Y145.937 E17.13701
G1 X91.698 Y145.586 E17.17987
G1 X90.865 Y145.154 E17.22357
G1 X89.157 Y144.169 E17.31538
G1 X88.379 Y143.676 E17.35826
G1 X87.647 Y143.118 E17.40112
G1 X86.965 Y142.499 E17.44401
G1 X86.341 Y141.823 E17.48685
G1 X85.777 Y141.095 E17.52973
G1 X85.324 Y140.399 E17.5684
G1 X84.862 Y139.621 E17.61053
G1 X71.674 Y116.777 E18.83878
G1 X71.341 Y116.183 E18.87049
G1 X70.926 Y115.362 E18.91332
G1 X70.584 Y114.507 E18.9562
G1 X70.317 Y113.626 E18.99907
G1 X70.128 Y112.725 E19.04193
G1 X70.018 Y111.811 E19.0848
G1 X69.987 Y111 E19.12259
G1 X69.987 Y109.003 E19.21558
G1 X70.027 Y108.083 E19.25846
G1 X70.147 Y107.17 E19.30134
G1 X70.345 Y106.271 E19.3442
G1 X70.621 Y105.393 E19.38706
G1 X70.844 Y104.827 E19.41539
G1 X70.847 Y104.82 E19.41574
G1 X71.338 Y103.824 E19.46745
G1 X71.732 Y103.12 E19.50501
G1 X84.983 Y80.171 E20.73896
G1 X85.32 Y79.606 E20.76959
G1 X85.826 Y78.837 E20.81246
G1 X86.396 Y78.114 E20.85533
G1 X86.929 Y77.541 E20.89177
G1 X86.946 Y77.524 E20.89289
G1 X87.624 Y76.902 E20.93573
G1 X88.354 Y76.341 E20.9786
G1 X89.145 Y75.837 E21.02228
G1 X90.851 Y74.854 E21.11396
G1 X91.667 Y74.429 E21.1568
G1 X92.517 Y74.075 E21.19967
G1 X93.394 Y73.797 E21.24251
G1 X94.293 Y73.595 E21.28542
G1 X95.205 Y73.473 E21.32826
G1 X96.001 Y73.431 E21.36538
G1 X96.901 Y73.419 E21.40729
G1 X123.29 Y73.42 E22.63607
G1 X123.988 Y73.435 E22.66858
G0 F6000 X123.994 Y73.03
G1 F1200 X123.994 Y73.036 E22.66886
G1 X124.778 Y73.069 E22.7054
G1 X125.708 Y73.189 E22.74906
G1 X126.625 Y73.387 E22.79275
G1 X127.521 Y73.663 E22.8364
G1 X128.391 Y74.014 E22.88009
G1 X129.335 Y74.499 E22.92951
G1 X130.707 Y75.292 E23.0033
G1 X130.722 Y75.301 E23.00411
G1 X131.033 Y75.479 E23.0208
G1 X131.827 Y75.979 E23.06449
G1 X132.575 Y76.545 E23.10817
G1 X133.271 Y77.173 E23.15182
G1 X133.912 Y77.857 E23.19547
G1 X134.492 Y78.594 E23.23914
G1 X135.016 Y79.391 E23.28355
G1 X135.484 Y80.179 E23.32623
G1 X148.682 Y103.039 E24.55535
G1 X149.014 Y103.633 E24.58704
G1 X149.006 Y103.637 E24.58745
G1 X149.259 Y104.096 E24.61186
G1 X149.641 Y104.953 E24.65555
G1 X149.949 Y105.839 E24.69923
G1 X150.18 Y106.748 E24.7429
G1 X150.333 Y107.673 E24.78656
G1 X150.413 Y109 E24.84846
G1 X150.413 Y110.997 E24.94145
G1 X150.373 Y111.934 E24.98512
G1 X150.253 Y112.864 E25.02878
G1 X150.055 Y113.781 E25.07246
G1 X149.779 Y114.677 E25.11612
G1 X149.252 Y115.916 E25.17882
G1 X149.248 Y115.924 E25.17923
G1 X149.017 Y116.361 E25.20225
G1 X148.615 Y117.079 E25.24057
G1 X135.365 Y140.026 E26.47441
G1 X135.028 Y140.592 E26.50508
G1 X134.514 Y141.377 E26.54877
G1 X133.935 Y142.115 E26.59245
G1 X133.354 Y142.743 E26.63229
G1 X133.342 Y142.755 E26.63308
G1 X132.651 Y143.389 E26.67675
G1 X131.909 Y143.963 E26.72043
G1 X131.057 Y144.507 E26.7675
G1 X129.127 Y145.618 E26.87119
G1 X129.092 Y145.637 E26.87305
G1 X128.249 Y146.049 E26.91674
G1 X127.375 Y146.388 E26.96039
G1 X126.475 Y146.651 E27.00405
G1 X125.555 Y146.836 E27.04775
G1 X124.623 Y146.942 E27.09142
G1 X124.006 Y146.969 E27.12018
G1 X123.099 Y146.981 E27.16242
G1 X96.704 Y146.98 E28.39148
G1 X96.006 Y146.97 E28.42399
G1 X96.006 Y146.964 E28.42427
G1 X95.222 Y146.931 E28.4608
G1 X94.292 Y146.811 E28.50447
G1 X93.375 Y146.613 E28.54815
G1 X92.479 Y146.337 E28.59181
G1 X91.609 Y145.986 E28.63549
G1 X90.665 Y145.501 E28.68491
G1 X88.958 Y144.516 E28.77668
G1 X88.165 Y144.015 E28.82036
G1 X87.418 Y143.448 E28.86402
G1 X86.721 Y142.82 E28.90771
G1 X86.081 Y142.135 E28.95136
G1 X85.501 Y141.397 E28.99507
G1 X84.981 Y140.604 E29.03923
G1 X84.516 Y139.821 E29.08163
G1 X71.325 Y116.973 E30.31011
G1 X70.992 Y116.379 E30.34182
G1 X70.569 Y115.542 E30.38549
G1 X70.218 Y114.672 E30.42917
G1 X69.943 Y113.776 E30.47281
G1 X69.745 Y112.859 E30.51649
G1 X69.626 Y111.929 E30.56015
G1 X69.587 Y111 E30.60345
G1 X69.587 Y109.003 E30.69644
G1 X69.627 Y108.066 E30.74011
G1 X69.747 Y107.136 E30.78377
G1 X69.945 Y106.219 E30.82745
G1 X70.221 Y105.323 E30.87111
G1 X70.476 Y104.67 E30.90375
G1 X70.479 Y104.663 E30.90411
G1 X70.988 Y103.628 E30.95781
G1 X71.386 Y102.92 E30.99563
G1 X84.64 Y79.966 E32.22985
G1 X84.977 Y79.401 E32.26049
G1 X85.491 Y78.617 E32.30414
G1 X86.07 Y77.879 E32.34782
G1 X86.646 Y77.258 E32.38726
G1 X86.663 Y77.241 E32.38838
G1 X87.354 Y76.607 E32.43204
G1 X88.096 Y76.033 E32.47573
G1 X88.945 Y75.49 E32.52265
G1 X90.65 Y74.508 E32.61427
G1 X91.481 Y74.074 E32.65793
G1 X92.347 Y73.711 E32.70165
G1 X93.239 Y73.424 E32.74528
G1 X94.153 Y73.214 E32.78895
G1 X95.082 Y73.083 E32.83264
G1 X95.995 Y73.031 E32.87522
G1 X96.901 Y73.019 E32.91741
G1 X123.296 Y73.02 E34.14647
G1 X123.994 Y73.03 E34.17898
G1 F2700 E29.17898
;MESH:P1-6-2.stl
G0 F6000 X124.646 Y85.303
G0 X125.577 Y85.839
G0 X137.363 Y107.81
G0 X117.572 Y108.572
G0 X117.572 Y111.428
G0 X137.363 Y112.19
G0 X125.577 Y132.603
G0 X115.017 Y115.838
G0 X112.556 Y117.283
G0 X122.114 Y134.981
;TYPE:WALL-INNER
G1 F2700 E34.17898
G1 F1200 X121.77 Y134.981 E34.19499
G1 X121.769 Y134.981 E34.19504
G1 X98.23 Y134.981 E35.29112
G1 X98.229 Y134.981 E35.29116
G1 X97.885 Y134.981 E35.30718
G1 X98.057 Y134.683 E35.31627
G1 X108.231 Y117.063 E36.26369
G1 X107.885 Y116.864 E36.28227
G1 X105.679 Y115.589 E36.40091
G1 X104.952 Y115.148 E36.44051
G1 X104.779 Y115.043 E36.44993
G1 X104.678 Y115.218 E36.45597
G1 X94.595 Y132.685 E37.3951
G1 X94.423 Y132.983 E37.41112
G1 X94.251 Y132.685 E37.4202
G1 X82.479 Y112.298 E38.5164
G1 X82.307 Y112 E38.53242
G1 X82.651 Y112 E38.54151
G1 X82.652 Y112 E38.54156
G1 X103 Y112 E39.48905
G1 X103 Y108 E39.67531
G1 X82.652 Y108 E40.62279
G1 X82.651 Y108 E40.62284
G1 X82.307 Y108 E40.63886
G1 X82.479 Y107.702 E40.64795
G1 X94.423 Y87.017 E41.76017
G1 X104.67 Y104.767 E42.71453
G1 X104.769 Y104.939 E42.72377
G1 X104.941 Y104.84 E42.72974
G1 X108.229 Y102.934 E42.90671
G1 X98.057 Y85.317 E43.85395
G1 X97.885 Y85.019 E43.86997
G1 X98.229 Y85.019 E43.87907
G1 X98.23 Y85.019 E43.87911
G1 X121.769 Y85.019 E44.97519
G1 X121.77 Y85.019 E44.97523
G1 X122.114 Y85.019 E44.99125
G1 X121.942 Y85.317 E45.00034
G1 X111.774 Y102.924 E45.94709
G1 X112.649 Y103.446 E45.99454
G1 X114.318 Y104.409 E46.08426
G1 X115.041 Y104.859 E46.12391
G1 X115.216 Y104.967 E46.13349
G1 X115.318 Y104.789 E46.13961
G1 X125.405 Y87.315 E47.07911
G1 X125.577 Y87.017 E47.09513
G1 X125.749 Y87.315 E47.10421
G1 X137.521 Y107.702 E48.20041
G1 X137.693 Y108 E48.21643
G1 X137.349 Y108 E48.22552
G1 X137.348 Y108 E48.22557
G1 X117 Y108 E49.17306
G1 X117 Y112 E49.35931
G1 X137.348 Y112 E50.3068
G1 X137.349 Y112 E50.30685
G1 X137.693 Y112 E50.32286
G1 X137.521 Y112.298 E50.33196
G1 X125.749 Y132.685 E51.42816
G1 X125.577 Y132.983 E51.44418
G1 X125.405 Y132.685 E51.45326
G1 X115.324 Y115.221 E52.39222
G1 X115.223 Y115.046 E52.40162
G1 X115.049 Y115.15 E52.4077
G1 X114.346 Y115.573 E52.4459
G1 X112.64 Y116.557 E52.53761
G1 X111.784 Y117.09 E52.58456
G1 X121.942 Y134.683 E53.53051
G1 X122.114 Y134.981 E53.53961
G0 F6000 X122.459 Y134.781
G1 F1200 X122.634 Y135.083 E53.55586
G1 X122.806 Y135.381 E53.57188
G1 X122.462 Y135.381 E53.58097
G1 X122.461 Y135.381 E53.58102
G1 X97.538 Y135.381 E54.74154
G1 X97.537 Y135.381 E54.74159
G1 X97.193 Y135.381 E54.7576
G1 X97.365 Y135.083 E54.7667
G1 X107.586 Y117.381 E55.71851
G1 X107.685 Y117.209 E55.72775
G1 X107.513 Y117.11 E55.73373
G1 X105.471 Y115.931 E55.84352
G1 X105.094 Y115.702 E55.86406
G1 X104.921 Y115.597 E55.87348
G1 X104.82 Y115.772 E55.87953
G1 X94.423 Y133.782 E56.84786
G1 X94.078 Y133.183 E56.88005
G1 X81.962 Y112.2 E58.00829
G1 X81.787 Y111.898 E58.02454
G1 X81.615 Y111.6 E58.04056
G1 X81.959 Y111.6 E58.04965
G1 X81.96 Y111.6 E58.0497
G1 X102.6 Y111.6 E59.01078
G1 X102.6 Y108.4 E59.15979
G1 X81.96 Y108.4 E60.12087
G1 X81.959 Y108.4 E60.12092
G1 X81.615 Y108.4 E60.13694
G1 X81.787 Y108.102 E60.14603
G1 X94.423 Y86.218 E61.32271
G1 X94.768 Y86.817 E61.3549
G1 X104.816 Y104.22 E62.29063
G1 X104.915 Y104.392 E62.29987
G1 X105.087 Y104.293 E62.30584
G1 X107.683 Y102.788 E62.44557
G1 X97.54 Y85.219 E63.3902
G1 X97.365 Y84.917 E63.40646
G1 X97.193 Y84.619 E63.42248
G1 X97.537 Y84.619 E63.43157
G1 X97.538 Y84.619 E63.43162
G1 X122.462 Y84.619 E64.59218
G1 X122.463 Y84.619 E64.59223
G1 X122.807 Y84.619 E64.60825
G1 X122.635 Y84.917 E64.61734
G1 X112.318 Y102.783 E65.578
G1 X112.851 Y103.101 E65.6069
G1 X114.529 Y104.069 E65.69711
G1 X114.902 Y104.301 E65.71756
G1 X115.076 Y104.409 E65.7271
G1 X115.177 Y104.232 E65.73315
G1 X115.178 Y104.231 E65.73322
G1 X125.577 Y86.218 E66.70171
G1 X125.922 Y86.817 E66.7339
G1 X138.038 Y107.8 E67.86214
G1 X138.213 Y108.102 E67.8784
G1 X138.385 Y108.4 E67.89442
G1 X138.041 Y108.4 E67.90351
G1 X138.04 Y108.4 E67.90356
G1 X117.4 Y108.4 E68.86464
G1 X117.4 Y111.6 E69.01365
G1 X138.04 Y111.6 E69.97473
G1 X138.041 Y111.6 E69.97478
G1 X138.385 Y111.6 E69.9908
G1 X138.213 Y111.898 E69.99989
G1 X125.577 Y133.782 E71.17657
G1 X125.232 Y133.183 E71.20876
G1 X115.181 Y115.774 E72.1448
G1 X115.08 Y115.599 E72.15421
G1 X114.906 Y115.703 E72.16028
G1 X114.546 Y115.92 E72.17985
G1 X112.846 Y116.9 E72.27122
G1 X112.324 Y117.225 E72.29986
G1 X122.459 Y134.781 E73.24378
G0 F6000 X123.067 Y135.531
G0 X123.499 Y135.781
;TYPE:WALL-OUTER
G1 F1200 X96.501 Y135.781 E74.50092
G1 X107.139 Y117.355 E75.49164
G1 X105.271 Y116.277 E75.59206
G1 X105.063 Y116.151 E75.60339
G1 X94.423 Y134.581 E76.59431
G1 X80.923 Y111.2 E77.85148
G1 X102.2 Y111.2 E78.84223
G1 X102.2 Y108.8 E78.95398
G1 X80.923 Y108.8 E79.94473
G1 X94.423 Y85.419 E81.20189
G1 X105.061 Y103.845 E82.19261
G1 X107.137 Y102.642 E82.30433
G1 X96.501 Y84.219 E83.29488
G1 X123.499 Y84.219 E84.55202
G1 X112.862 Y102.642 E85.5426
G1 X113.053 Y102.756 E85.55295
G1 X114.74 Y103.729 E85.64364
G1 X114.936 Y103.851 E85.65439
G1 X125.577 Y85.419 E86.64542
G1 X139.077 Y108.8 E87.90258
G1 X117.8 Y108.8 E88.89333
G1 X117.8 Y111.2 E89.00508
G1 X139.077 Y111.2 E89.99583
G1 X125.577 Y134.581 E91.25299
G1 X114.937 Y116.152 E92.24388
G1 X114.746 Y116.267 E92.25426
G1 X113.052 Y117.243 E92.3453
G1 X112.864 Y117.36 E92.35561
G1 X113.011 Y117.615 E92.36931
G1 X123.499 Y135.781 E93.34605
G0 F6000 X123.067 Y135.531
G0 X121.438 Y134.871
G0 X121.438 Y134.591
;TYPE:SKIN
G1 F1200 X98.561 Y134.591 E94.4113
G1 X108.764 Y116.921 E95.3614
G1 X105.878 Y115.253 E95.51662
G1 X104.641 Y114.503 E95.58398
G1 X94.423 Y132.202 E96.5356
