;FLAVOR:Marlin
;TIME:11691
;Filament used: 15.9015m
;Layer height: 0.2
;MINX:87.684
;MINY:45
;MINZ:0.2
;MAXX:132.316
;MAXY:175
;MAXZ:142.88
;Generated with Cura_SteamEngine 4.6.1
M140 S50
M105
M190 S50
M104 S200
M105
M109 S200
M82 ;absolute extrusion mode
M201 X500.00 Y500.00 Z100.00 E5000.00 ;Setup machine max acceleration
M203 X500.00 Y500.00 Z10.00 E50.00 ;Setup machine max feedrate
M204 P500.00 R1000.00 T500.00 ;Setup Print/Retract/Travel acceleration
M205 X8.00 Y8.00 Z0.40 E5.00 ;Setup Jerk
M220 S100 ;Reset Feedrate
M221 S100 ;Reset Flowrate

G28 ;Home

G92 E0 ;Reset Extruder
G1 Z2.0 F3000 ;Move Z Axis up
G1 X10.1 Y20 Z0.28 F5000.0 ;Move to start position
G1 X10.1 Y200.0 Z0.28 F1500.0 E15 ;Draw the first line
G1 X10.4 Y200.0 Z0.28 F5000.0 ;Move to side a little
G1 X10.4 Y20 Z0.28 F1500.0 E30 ;Draw the second line
G92 E0 ;Reset Extruder
G1 Z2.0 F3000 ;Move Z Axis up

G92 E0
G92 E0
G1 F2700 E-5
;LAYER_COUNT:597
;LAYER:0
M107
G0 F6000 X121.453 Y45.811 Z0.2
;TYPE:SKIRT
G1 F2700 E0
G1 F1200 X122.355 Y45.864 E0.03005
G1 X123.248 Y45.996 E0.06008
G1 X124.126 Y46.207 E0.09011
G1 X124.982 Y46.495 E0.12015
G1 X125.809 Y46.857 E0.15018
G1 X126.601 Y47.292 E0.18023
G1 X127.352 Y47.794 E0.21027
G1 X128.055 Y48.361 E0.24031
G1 X128.705 Y48.988 E0.27035
G1 X129.297 Y49.67 E0.30039
G1 X129.827 Y50.401 E0.33042
G1 X130.289 Y51.177 E0.36046
G1 X130.682 Y51.99 E0.39049
G1 X131 Y52.835 E0.42052
G1 X131.243 Y53.705 E0.45056
G1 X131.408 Y54.593 E0.4806
G1 X131.503 Y55.723 E0.51832
G1 X131.516 Y56.33 E0.53851
G1 X131.516 Y163.264 E4.09515
G1 X131.506 Y164.117 E4.12353
G1 X131.455 Y165.019 E4.15358
G1 X131.324 Y165.913 E4.18363
G1 X131.115 Y166.791 E4.21365
G1 X130.829 Y167.648 E4.2437
G1 X130.468 Y168.476 E4.27374
G1 X130.036 Y169.268 E4.30374
G1 X129.535 Y170.02 E4.3338
G1 X128.969 Y170.724 E4.36384
G1 X128.344 Y171.375 E4.39386
G1 X127.663 Y171.969 E4.42391
G1 X126.932 Y172.5 E4.45396
G1 X126.158 Y172.964 E4.48398
G1 X125.345 Y173.358 E4.51403
G1 X124.501 Y173.678 E4.54405
G1 X123.631 Y173.923 E4.57411
G1 X122.744 Y174.089 E4.60413
G1 X121.593 Y174.187 E4.64255
G1 X120.986 Y174.2 E4.66274
G1 X99.259 Y174.199 E5.38538
G1 X98.561 Y174.19 E5.4086
G1 X97.66 Y174.139 E5.43862
G1 X96.766 Y174.007 E5.46867
G1 X95.888 Y173.798 E5.49869
G1 X95.031 Y173.511 E5.52875
G1 X94.204 Y173.15 E5.55876
G1 X93.411 Y172.717 E5.58881
G1 X92.66 Y172.216 E5.61884
G1 X91.956 Y171.65 E5.64888
G1 X91.305 Y171.024 E5.67892
G1 X90.712 Y170.343 E5.70896
G1 X90.182 Y169.612 E5.73899
G1 X89.718 Y168.837 E5.76903
G1 X89.324 Y168.024 E5.79908
G1 X89.004 Y167.18 E5.8291
G1 X88.76 Y166.31 E5.85915
G1 X88.594 Y165.422 E5.8892
G1 X88.497 Y164.267 E5.92775
G1 X88.484 Y163.658 E5.94801
G1 X88.484 Y56.674 E9.50631
G1 X88.494 Y55.871 E9.53302
G1 X88.546 Y54.969 E9.56308
G1 X88.678 Y54.076 E9.5931
G1 X88.888 Y53.198 E9.62313
G1 X89.175 Y52.341 E9.65318
G1 X89.537 Y51.514 E9.68321
G1 X89.97 Y50.722 E9.71323
G1 X90.472 Y49.971 E9.74328
G1 X91.039 Y49.267 E9.77334
G1 X91.665 Y48.617 E9.80336
G1 X92.346 Y48.024 E9.83339
G1 X93.078 Y47.494 E9.86345
G1 X93.853 Y47.031 E9.89348
G1 X94.666 Y46.638 E9.92351
G1 X95.511 Y46.318 E9.95356
G1 X96.38 Y46.075 E9.98357
G1 X97.268 Y45.909 E10.01362
G1 X98.407 Y45.813 E10.05164
G1 X99.014 Y45.8 E10.07183
G1 X120.755 Y45.801 E10.79494
G1 X121.453 Y45.811 E10.81816
G0 F6000 X121.459 Y45.411
G1 F1200 X122.378 Y45.464 E10.84878
G1 X123.289 Y45.597 E10.8794
G1 X124.185 Y45.808 E10.91001
G1 X125.059 Y46.096 E10.94062
G1 X125.906 Y46.459 E10.97127
G1 X126.717 Y46.894 E11.00188
G1 X127.487 Y47.398 E11.03249
G1 X128.211 Y47.967 E11.06311
G1 X128.883 Y48.597 E11.09375
G1 X129.498 Y49.282 E11.12437
G1 X130.051 Y50.018 E11.15499
G1 X130.538 Y50.799 E11.1856
G1 X130.955 Y51.62 E11.21623
G1 X131.3 Y52.474 E11.24686
G1 X131.569 Y53.354 E11.27747
G1 X131.761 Y54.255 E11.30811
G1 X131.874 Y55.168 E11.33871
G1 X131.903 Y55.712 E11.35683
G1 X131.916 Y56.33 E11.37739
G1 X131.916 Y163.264 E14.93402
G1 X131.906 Y164.122 E14.96256
G1 X131.855 Y165.041 E14.99318
G1 X131.724 Y165.953 E15.02382
G1 X131.514 Y166.849 E15.05443
G1 X131.228 Y167.724 E15.08505
G1 X130.867 Y168.571 E15.11567
G1 X130.433 Y169.383 E15.14629
G1 X129.931 Y170.155 E15.17692
G1 X129.363 Y170.88 E15.20755
G1 X128.735 Y171.553 E15.23817
G1 X128.051 Y172.169 E15.26879
G1 X127.316 Y172.723 E15.2994
G1 X126.536 Y173.212 E15.33002
G1 X125.716 Y173.631 E15.36065
G1 X124.863 Y173.977 E15.39126
G1 X123.983 Y174.248 E15.42189
G1 X123.083 Y174.441 E15.4525
G1 X122.169 Y174.556 E15.48314
G1 X121.604 Y174.587 E15.50196
G1 X120.986 Y174.6 E15.52252
G1 X99.254 Y174.599 E16.24533
G1 X98.556 Y174.59 E16.26855
G1 X97.637 Y174.538 E16.29916
G1 X96.726 Y174.407 E16.32977
G1 X95.83 Y174.197 E16.36038
G1 X94.955 Y173.91 E16.39101
G1 X94.108 Y173.548 E16.42165
G1 X93.296 Y173.114 E16.45227
G1 X92.525 Y172.612 E16.48287
G1 X91.8 Y172.044 E16.5135
G1 X91.127 Y171.415 E16.54414
G1 X90.512 Y170.731 E16.57474
G1 X89.958 Y169.996 E16.60535
G1 X89.47 Y169.215 E16.63598
G1 X89.051 Y168.395 E16.66661
G1 X88.705 Y167.542 E16.69722
G1 X88.435 Y166.662 E16.72784
G1 X88.242 Y165.761 E16.75848
G1 X88.128 Y164.848 E16.78909
G1 X88.097 Y164.277 E16.80811
G1 X88.084 Y163.658 E16.8287
G1 X88.084 Y56.674 E20.387
G1 X88.094 Y55.866 E20.41388
G1 X88.146 Y54.946 E20.44453
G1 X88.278 Y54.035 E20.47514
G1 X88.489 Y53.139 E20.50576
G1 X88.776 Y52.264 E20.53639
G1 X89.139 Y51.418 E20.56701
G1 X89.573 Y50.606 E20.59763
G1 X90.076 Y49.835 E20.62825
G1 X90.645 Y49.111 E20.65887
G1 X91.273 Y48.439 E20.68947
G1 X91.958 Y47.823 E20.72011
G1 X92.694 Y47.27 E20.75073
G1 X93.475 Y46.782 E20.78136
G1 X94.295 Y46.364 E20.81197
G1 X95.149 Y46.019 E20.8426
G1 X96.029 Y45.749 E20.87322
G1 X96.929 Y45.557 E20.90383
G1 X97.843 Y45.443 E20.93446
G1 X98.396 Y45.413 E20.95288
G1 X99.014 Y45.4 E20.97344
G1 X120.761 Y45.401 E21.69675
G1 X121.459 Y45.411 E21.71997
G0 F6000 X121.465 Y45.011
G1 F1200 X122.401 Y45.065 E21.75115
G1 X123.329 Y45.197 E21.78233
G1 X124.243 Y45.409 E21.81353
G1 X125.135 Y45.698 E21.84472
G1 X126 Y46.061 E21.87592
G1 X126.83 Y46.497 E21.9071
G1 X127.621 Y47.002 E21.93832
G1 X128.365 Y47.573 E21.96951
G1 X129.058 Y48.205 E22.0007
G1 X129.695 Y48.893 E22.03189
G1 X130.27 Y49.634 E22.06308
G1 X130.781 Y50.42 E22.09427
G1 X131.223 Y51.248 E22.12548
G1 X131.592 Y52.11 E22.15667
G1 X131.887 Y53 E22.18786
G1 X132.105 Y53.912 E22.21904
G1 X132.245 Y54.84 E22.25026
G1 X132.303 Y55.701 E22.27896
G1 X132.316 Y56.33 E22.29988
G1 X132.316 Y163.264 E25.85652
G1 X132.306 Y164.127 E25.88523
G1 X132.255 Y165.064 E25.91644
G1 X132.123 Y165.992 E25.94762
G1 X131.914 Y166.906 E25.9788
G1 X131.627 Y167.799 E26.01
G1 X131.265 Y168.665 E26.04122
G1 X130.831 Y169.496 E26.0724
G1 X130.327 Y170.287 E26.10359
G1 X129.758 Y171.032 E26.13477
G1 X129.127 Y171.727 E26.16599
G1 X128.44 Y172.365 E26.19718
G1 X127.701 Y172.942 E26.22836
G1 X126.915 Y173.454 E26.25956
G1 X126.089 Y173.897 E26.29074
G1 X125.227 Y174.269 E26.32196
G1 X124.338 Y174.565 E26.35313
G1 X123.426 Y174.785 E26.38433
G1 X122.499 Y174.926 E26.41552
G1 X121.615 Y174.987 E26.44499
G1 X120.986 Y175 E26.46591
G1 X99.249 Y174.999 E27.18889
G1 X98.551 Y174.99 E27.21211
G1 X97.615 Y174.938 E27.24329
G1 X96.686 Y174.806 E27.2745
G1 X95.772 Y174.596 E27.30569
G1 X94.879 Y174.309 E27.33688
G1 X94.014 Y173.946 E27.36809
G1 X93.183 Y173.512 E27.39927
G1 X92.392 Y173.008 E27.43046
G1 X91.647 Y172.438 E27.46166
G1 X90.953 Y171.807 E27.49286
G1 X90.316 Y171.12 E27.52402
G1 X89.739 Y170.38 E27.55523
G1 X89.227 Y169.594 E27.58643
G1 X88.784 Y168.767 E27.61763
G1 X88.413 Y167.906 E27.64882
G1 X88.117 Y167.016 E27.68001
G1 X87.898 Y166.104 E27.71121
G1 X87.757 Y165.177 E27.74239
G1 X87.697 Y164.288 E27.77203
G1 X87.684 Y163.658 E27.79299
G1 X87.684 Y56.674 E31.35129
G1 X87.694 Y55.86 E31.37837
G1 X87.747 Y54.924 E31.40955
G1 X87.879 Y53.995 E31.44076
G1 X88.09 Y53.081 E31.47196
G1 X88.378 Y52.189 E31.50313
G1 X88.741 Y51.324 E31.53433
G1 X89.176 Y50.493 E31.56553
G1 X89.68 Y49.703 E31.5967
G1 X90.25 Y48.958 E31.6279
G1 X90.882 Y48.264 E31.65912
G1 X91.57 Y47.627 E31.6903
G1 X92.31 Y47.051 E31.72149
G1 X93.096 Y46.539 E31.75269
G1 X93.923 Y46.097 E31.78388
G1 X94.785 Y45.727 E31.81508
G1 X95.675 Y45.431 E31.84627
G1 X96.587 Y45.213 E31.87746
G1 X97.514 Y45.072 E31.90865
G1 X98.385 Y45.013 E31.93768
G1 X99.014 Y45 E31.95861
G1 X120.767 Y45.001 E32.68212
G1 X121.465 Y45.011 E32.70534
G1 F2700 E27.70534
;MESH:SideWallswBase7.stl
G0 F6000 X120.506 Y55.335
G0 X120.506 Y56.81
G0 X99.466 Y56.782
G0 X99.284 Y163.4
;TYPE:WALL-INNER
G1 F2700 E32.70534
G1 F1200 X99.284 Y56.6 E36.25752
G1 X120.716 Y56.6 E36.97035
G1 X120.716 Y163.4 E40.52253
G1 X99.284 Y163.4 E41.23536
G0 F6000 X98.884 Y163.8
;TYPE:WALL-OUTER
G1 F1200 X98.884 Y56.2 E44.81415
G1 X121.116 Y56.2 E45.55359
G1 X121.116 Y163.8 E49.13238
G1 X98.884 Y163.8 E49.87182
G0 F6000 X99.154 Y163.53
G0 X99.394 Y163.01
G0 X99.674 Y163.01
;TYPE:SKIN
G1 F1200 X99.674 Y56.99 E53.39806
G1 X120.326 Y56.99 E54.08495
G1 X120.326 Y163.01 E57.61119
G1 X99.674 Y163.01 E58.29808
G0 F6000 X100.058 Y162.849
G1 F1200 X99.833 Y162.624 E58.30866
G0 F6000 X99.833 Y162.058
G1 F1200 X100.624 Y162.849 E58.34587
G0 F6000 X101.189 Y162.849
G1 F1200 X99.833 Y161.493 E58.40965
G0 F6000 X99.833 Y160.927
G1 F1200 X101.755 Y162.849 E58.50005
G0 F6000 X102.321 Y162.849
G1 F1200 X99.833 Y160.361 E58.61708
G0 F6000 X99.833 Y159.796
G1 F1200 X102.886 Y162.849 E58.76069
G0 F6000 X103.452 Y162.849
G1 F1200 X99.833 Y159.23 E58.93091
G0 F6000 X99.833 Y158.664
G1 F1200 X104.018 Y162.849 E59.12776
G0 F6000 X104.583 Y162.849
G1 F1200 X99.833 Y158.099 E59.35119
G0 F6000 X99.833 Y157.533
G1 F1200 X105.149 Y162.849 E59.60124
G0 F6000 X105.715 Y162.849
G1 F1200 X99.833 Y156.967 E59.87791
G0 F6000 X99.833 Y156.402
G1 F1200 X106.28 Y162.849 E60.18115
G0 F6000 X106.846 Y162.849
G1 F1200 X99.833 Y155.836 E60.51102
G0 F6000 X99.833 Y155.27
G1 F1200 X107.412 Y162.849 E60.86752
G0 F6000 X107.978 Y162.849
G1 F1200 X99.833 Y154.705 E61.25061
G0 F6000 X99.833 Y154.139
G1 F1200 X108.543 Y162.849 E61.6603
G0 F6000 X109.109 Y162.849
G1 F1200 X99.833 Y153.573 E62.09662
G0 F6000 X99.833 Y153.008
G1 F1200 X109.675 Y162.849 E62.55953
G0 F6000 X110.24 Y162.849
G1 F1200 X99.833 Y152.442 E63.04904
G0 F6000 X99.833 Y151.876
G1 F1200 X110.806 Y162.849 E63.56518
G0 F6000 X111.372 Y162.849
G1 F1200 X99.833 Y151.31 E64.10794
G0 F6000 X99.833 Y150.745
G1 F1200 X111.937 Y162.849 E64.67727
G0 F6000 X112.503 Y162.849
G1 F1200 X99.833 Y150.179 E65.27323
G0 F6000 X99.833 Y149.613
G1 F1200 X113.069 Y162.849 E65.89581
G0 F6000 X113.634 Y162.849
G1 F1200 X99.833 Y149.048 E66.54497
G0 F6000 X99.833 Y148.482
G1 F1200 X114.2 Y162.849 E67.22075
G0 F6000 X114.766 Y162.849
G1 F1200 X99.833 Y147.916 E67.92315
G0 F6000 X99.833 Y147.351
G1 F1200 X115.331 Y162.849 E68.65213
G0 F6000 X115.897 Y162.849
G1 F1200 X99.833 Y146.785 E69.40773
G0 F6000 X99.833 Y146.219
G1 F1200 X116.463 Y162.849 E70.18996
G0 F6000 X117.029 Y162.849
G1 F1200 X99.833 Y145.654 E70.99878
G0 F6000 X99.833 Y145.088
G1 F1200 X117.594 Y162.849 E71.8342
G0 F6000 X118.16 Y162.849
G1 F1200 X99.833 Y144.522 E72.69625
G0 F6000 X99.833 Y143.957
G1 F1200 X118.726 Y162.849 E73.58489
G0 F6000 X119.291 Y162.849
G1 F1200 X99.833 Y143.391 E74.50014
G0 F6000 X99.833 Y142.825
G1 F1200 X119.857 Y162.849 E75.44201
G0 F6000 X120.165 Y162.592
G1 F1200 X99.833 Y142.259 E76.39838
G0 F6000 X99.833 Y141.694
G1 F1200 X120.165 Y162.026 E77.35474
G0 F6000 X120.165 Y161.46
G1 F1200 X99.833 Y141.128 E78.31109
G0 F6000 X99.833 Y140.562
G1 F1200 X120.165 Y160.895 E79.26747
G0 F6000 X120.165 Y160.329
G1 F1200 X99.833 Y139.997 E80.22383
G0 F6000 X99.833 Y139.431
G1 F1200 X120.165 Y159.763 E81.18018
G0 F6000 X120.165 Y159.198
G1 F1200 X99.833 Y138.865 E82.13656
G0 F6000 X99.833 Y138.3
G1 F1200 X120.165 Y158.632 E83.09292
G0 F6000 X120.165 Y158.066
G1 F1200 X99.833 Y137.734 E84.04927
G0 F6000 X99.833 Y137.168
G1 F1200 X120.165 Y157.5 E85.00563
G0 F6000 X120.165 Y156.935
G1 F1200 X99.833 Y136.603 E85.96198
G0 F6000 X99.833 Y136.037
G1 F1200 X120.165 Y156.369 E86.91834
G0 F6000 X120.165 Y155.803
G1 F1200 X99.833 Y135.471 E87.87469
G0 F6000 X99.833 Y134.906
G1 F1200 X120.165 Y155.238 E88.83105
G0 F6000 X120.165 Y154.672
G1 F1200 X99.833 Y134.34 E89.7874
G0 F6000 X99.833 Y133.774
G1 F1200 X120.165 Y154.106 E90.74376
G0 F6000 X120.165 Y153.541
G1 F1200 X99.833 Y133.209 E91.70011
G0 F6000 X99.833 Y132.643
G1 F1200 X120.165 Y152.975 E92.65646
G0 F6000 X120.165 Y152.409
G1 F1200 X99.833 Y132.077 E93.61282
G0 F6000 X99.833 Y131.511
G1 F1200 X120.165 Y151.844 E94.5692
G0 F6000 X120.165 Y151.278
G1 F1200 X99.833 Y130.946 E95.52555
G0 F6000 X99.833 Y130.38
G1 F1200 X120.165 Y150.712 E96.48191
G0 F6000 X120.165 Y150.147
G1 F1200 X99.833 Y129.814 E97.43829
G0 F6000 X99.833 Y129.249
G1 F1200 X120.165 Y149.581 E98.39464
G0 F6000 X120.165 Y149.015
G1 F1200 X99.833 Y128.683 E99.351
G0 F6000 X99.833 Y128.117
G1 F1200 X120.165 Y148.449 E100.30735
G0 F6000 X120.165 Y147.884
G1 F1200 X99.833 Y127.552 E101.26371
G0 F6000 X99.833 Y126.986
G1 F1200 X120.165 Y147.318 E102.22006
G0 F6000 X120.165 Y146.752
G1 F1200 X99.833 Y126.42 E103.17642
G0 F6000 X99.833 Y125.855
G1 F1200 X120.165 Y146.187 E104.13277
G0 F6000 X120.165 Y145.621
G1 F1200 X99.833 Y125.289 E105.08913
G0 F6000 X99.833 Y124.723
G1 F1200 X120.165 Y145.055 E106.04548
G0 F6000 X120.165 Y144.49
G1 F1200 X99.833 Y124.158 E107.00184
G0 F6000 X99.833 Y123.592
G1 F1200 X120.165 Y143.924 E107.95819
G0 F6000 X120.165 Y143.358
G1 F1200 X99.833 Y123.026 E108.91455
G0 F6000 X99.833 Y122.46
G1 F1200 X120.165 Y142.793 E109.87092
G0 F6000 X120.165 Y142.227
G1 F1200 X99.833 Y121.895 E110.82728
G0 F6000 X99.833 Y121.329
G1 F1200 X120.165 Y141.661 E111.78363
G0 F6000 X120.165 Y141.096
G1 F1200 X99.833 Y120.763 E112.74001
G0 F6000 X99.833 Y120.198
G1 F1200 X120.165 Y140.53 E113.69637
G0 F6000 X120.165 Y139.964
G1 F1200 X99.833 Y119.632 E114.65272
G0 F6000 X99.833 Y119.066
G1 F1200 X120.165 Y139.399 E115.6091
G0 F6000 X120.165 Y138.833
G1 F1200 X99.833 Y118.501 E116.56546
G0 F6000 X99.833 Y117.935
G1 F1200 X120.165 Y138.267 E117.52181
G0 F6000 X120.165 Y137.701
G1 F1200 X99.833 Y117.369 E118.47817
G0 F6000 X99.833 Y116.804
G1 F1200 X120.165 Y137.136 E119.43452
G0 F6000 X120.165 Y136.57
G1 F1200 X99.833 Y116.238 E120.39088
G0 F6000 X99.833 Y115.672
G1 F1200 X120.165 Y136.004 E121.34723
G0 F6000 X120.165 Y135.439
G1 F1200 X99.833 Y115.107 E122.30359
G0 F6000 X99.833 Y114.541
G1 F1200 X120.165 Y134.873 E123.25994
G0 F6000 X120.165 Y134.307
G1 F1200 X99.833 Y113.975 E124.2163
G0 F6000 X99.833 Y113.41
G1 F1200 X120.165 Y133.742 E125.17265
G0 F6000 X120.165 Y133.176
G1 F1200 X99.833 Y112.844 E126.12901
G0 F6000 X99.833 Y112.278
G1 F1200 X120.165 Y132.61 E127.08536
G0 F6000 X120.165 Y132.045
G1 F1200 X99.833 Y111.712 E128.04174
G0 F6000 X99.833 Y111.147
G1 F1200 X120.165 Y131.479 E128.99809
G0 F6000 X120.165 Y130.913
G1 F1200 X99.833 Y110.581 E129.95445
G0 F6000 X99.833 Y110.015
G1 F1200 X120.165 Y130.348 E130.91083
G0 F6000 X120.165 Y129.782
G1 F1200 X99.833 Y109.45 E131.86718
G0 F6000 X99.833 Y108.884
G1 F1200 X120.165 Y129.216 E132.82354
G0 F6000 X120.165 Y128.651
G1 F1200 X99.833 Y108.318 E133.77992
G0 F6000 X99.833 Y107.753
G1 F1200 X120.165 Y128.085 E134.73627
G0 F6000 X120.165 Y127.519
G1 F1200 X99.833 Y107.187 E135.69263
G0 F6000 X99.833 Y106.621
G1 F1200 X120.165 Y126.953 E136.64898
G0 F6000 X120.165 Y126.388
G1 F1200 X99.833 Y106.056 E137.60534
G0 F6000 X99.833 Y105.49
G1 F1200 X120.165 Y125.822 E138.56169
G0 F6000 X120.165 Y125.256
G1 F1200 X99.833 Y104.924 E139.51805
G0 F6000 X99.833 Y104.359
G1 F1200 X120.165 Y124.691 E140.4744
G0 F6000 X120.165 Y124.125
G1 F1200 X99.833 Y103.793 E141.43076
G0 F6000 X99.833 Y103.227
G1 F1200 X120.165 Y123.559 E142.38711
G0 F6000 X120.165 Y122.994
G1 F1200 X99.833 Y102.662 E143.34347
G0 F6000 X99.833 Y102.096
G1 F1200 X120.165 Y122.428 E144.29982
G0 F6000 X120.165 Y121.862
G1 F1200 X99.833 Y101.53 E145.25617
G0 F6000 X99.833 Y100.964
G1 F1200 X120.165 Y121.297 E146.21255
G0 F6000 X120.165 Y120.731
G1 F1200 X99.833 Y100.399 E147.16891
