;FLAVOR:Marlin
;TIME:15431
;Filament used: 19.5952m
;Layer height: 0.2
;MINX:55.337
;MINY:33.836
;MINZ:0.24
;MAXX:164.664
;MAXY:186.165
;MAXZ:143.97
;Generated with Cura_SteamEngine 4.6.1
M140 S50
M105
M190 S50
M104 S200
M105
M109 S200
M82 ;absolute extrusion mode
M201 X500.00 Y500.00 Z100.00 E5000.00 ;Setup machine max acceleration
M203 X500.00 Y500.00 Z10.00 E50.00 ;Setup machine max feedrate
M204 P500.00 R1000.00 T500.00 ;Setup Print/Retract/Travel acceleration
M205 X8.00 Y8.00 Z0.40 E5.00 ;Setup Jerk
M220 S100 ;Reset Feedrate
M221 S100 ;Reset Flowrate

G28 ;Home

G92 E0 ;Reset Extruder
G1 Z2.0 F3000 ;Move Z Axis up
G1 X10.1 Y20 Z0.28 F5000.0 ;Move to start position
G1 X10.1 Y200.0 Z0.28 F1500.0 E15 ;Draw the first line
G1 X10.4 Y200.0 Z0.28 F5000.0 ;Move to side a little
G1 X10.4 Y20 Z0.28 F1500.0 E30 ;Draw the second line
G92 E0 ;Reset Extruder
G1 Z2.0 F3000 ;Move Z Axis up

G92 E0
G92 E0
G1 F2700 E-5
;LAYER_COUNT:597
;LAYER:-6
M107
G0 F12000 X58.877 Y41.845 Z0.24
;TYPE:SUPPORT-INTERFACE
G1 F2700 E0
G1 F1800 X59.388 Y41.131 E0.07009
G1 X59.501 Y40.983 E0.08495
G1 X60.077 Y40.292 E0.15676
G1 X60.178 Y40.179 E0.16886
G1 X60.803 Y39.53 E0.24078
G1 X60.928 Y39.41 E0.25461
G1 X61.599 Y38.807 E0.32663
G1 X61.715 Y38.711 E0.33864
G1 X62.427 Y38.161 E0.41046
G1 X62.586 Y38.048 E0.42603
G1 X63.324 Y37.558 E0.49675
G1 X63.45 Y37.482 E0.50849
G1 X64.244 Y37.036 E0.58119
G1 X64.394 Y36.958 E0.59468
G1 X65.209 Y36.575 E0.66656
G1 X65.352 Y36.515 E0.67894
G1 X66.211 Y36.186 E0.75237
G1 X66.361 Y36.134 E0.76504
G1 X67.211 Y35.879 E0.83588
G1 X67.384 Y35.833 E0.85017
G1 X68.279 Y35.632 E0.92339
G1 X68.409 Y35.609 E0.93393
G1 X69.314 Y35.475 E1.00696
G1 X69.483 Y35.457 E1.02053
G1 X70.556 Y35.382 E1.10639
G1 X71.061 Y35.374 E1.1467
G1 X122.101 Y35.374 E5.22094
G1 X122.766 Y35.332 E5.27413
G1 X123.257 Y35.245 E5.31393
G1 X123.613 Y35.165 E5.34306
G1 X123.792 Y35.132 E5.35758
G1 X124.679 Y35.001 E5.42916
G1 X124.849 Y34.983 E5.4428
G1 X125.922 Y34.908 E5.52866
G1 X126.427 Y34.9 E5.56898
G1 X149.002 Y34.901 E7.37101
G1 X150.126 Y34.946 E7.46081
G1 X151.043 Y35.048 E7.53446
G1 X151.218 Y35.073 E7.54857
G1 X152.107 Y35.237 E7.62073
G1 X152.23 Y35.265 E7.6308
G1 X153.124 Y35.499 E7.70457
G1 X153.287 Y35.548 E7.71815
G1 X154.129 Y35.835 E7.78916
G1 X154.295 Y35.898 E7.80334
G1 X155.098 Y36.239 E7.87298
G1 X155.287 Y36.327 E7.88962
G1 X156.198 Y36.801 E7.97159
G1 X156.977 Y37.276 E8.04442
G1 X157.128 Y37.376 E8.05888
G1 X157.975 Y37.988 E8.14229
G1 X158.681 Y38.576 E8.21564
G1 X158.794 Y38.677 E8.22773
G1 X159.443 Y39.302 E8.29966
G1 X159.563 Y39.427 E8.31349
G1 X160.156 Y40.087 E8.38431
G1 X160.269 Y40.223 E8.39843
G1 X160.812 Y40.926 E8.46934
G1 X160.925 Y41.085 E8.48491
G1 X161.415 Y41.823 E8.55562
G1 X161.491 Y41.949 E8.56737
G1 X161.937 Y42.743 E8.64006
G1 X162.015 Y42.893 E8.65356
G1 X162.398 Y43.708 E8.72544
G1 X162.458 Y43.851 E8.73782
G1 X162.787 Y44.71 E8.81124
G1 X162.839 Y44.86 E8.82392
G1 X163.094 Y45.71 E8.89476
G1 X163.14 Y45.883 E8.90904
G1 X163.339 Y46.769 E8.98153
G1 X163.364 Y46.908 E8.9928
G1 X163.497 Y47.807 E9.06535
G1 X163.515 Y47.969 E9.07836
G1 X163.591 Y49.055 E9.16526
G1 X163.599 Y49.556 E9.20526
G1 X163.599 Y68.171 E10.69119
G1 X163.563 Y69.177 E10.77154
G1 X163.553 Y69.312 E10.78235
G1 X163.451 Y70.229 E10.856
G1 X163.426 Y70.404 E10.87011
G1 X163.264 Y71.282 E10.94138
G1 X163.234 Y71.416 E10.95234
G1 X163.003 Y72.301 E11.02535
G1 X162.951 Y72.473 E11.03969
G1 X162.664 Y73.315 E11.1107
G1 X162.601 Y73.481 E11.12488
G1 X162.26 Y74.284 E11.19452
G1 X162.179 Y74.459 E11.20991
G1 X161.763 Y75.267 E11.28245
G1 X161.223 Y76.163 E11.36596
G1 X161.123 Y76.314 E11.38042
G1 X160.612 Y77.028 E11.4505
G1 X160.499 Y77.176 E11.46537
G1 X159.923 Y77.867 E11.53718
G1 X159.822 Y77.98 E11.54928
G1 X159.197 Y78.629 E11.6212
G1 X159.072 Y78.749 E11.63503
G1 X158.402 Y79.351 E11.70693
G1 X158.285 Y79.448 E11.71906
G1 X157.573 Y79.998 E11.79088
G1 X157.414 Y80.111 E11.80645
G1 X156.676 Y80.601 E11.87716
G1 X156.55 Y80.677 E11.88891
G1 X155.756 Y81.123 E11.9616
G1 X155.605 Y81.201 E11.97517
G1 X154.791 Y81.584 E12.04698
G1 X154.648 Y81.644 E12.05936
G1 X153.789 Y81.973 E12.13279
G1 X153.639 Y82.025 E12.14546
G1 X152.789 Y82.28 E12.2163
G1 X152.616 Y82.326 E12.23059
G1 X151.721 Y82.527 E12.30381
G1 X151.591 Y82.55 E12.31435
G1 X150.686 Y82.684 E12.38738
G1 X150.518 Y82.702 E12.40086
G1 X149.444 Y82.777 E12.4868
G1 X148.939 Y82.785 E12.52712
G1 X109.799 Y82.785 E15.65144
G1 X109.131 Y82.827 E15.70487
G1 X108.46 Y82.956 E15.75941
G1 X107.811 Y83.169 E15.81394
G1 X107.194 Y83.461 E15.86843
G1 X106.619 Y83.829 E15.92292
G1 X106.095 Y84.267 E15.97744
G1 X105.631 Y84.767 E16.03189
G1 X105.232 Y85.323 E16.08652
G1 X104.908 Y85.923 E16.14095
G1 X104.662 Y86.559 E16.19538
G1 X104.496 Y87.228 E16.2504
G1 X104.412 Y88.167 E16.32566
G1 X104.412 Y170.486 E22.89672
G1 X104.376 Y171.492 E22.97707
G1 X104.366 Y171.627 E22.98788
G1 X104.264 Y172.544 E23.06153
G1 X104.239 Y172.719 E23.07564
G1 X104.077 Y173.597 E23.14691
G1 X104.047 Y173.731 E23.15787
G1 X103.816 Y174.616 E23.23088
G1 X103.764 Y174.788 E23.24522
G1 X103.488 Y175.6 E23.31368
G1 X103.408 Y175.809 E23.33155
G1 X103.073 Y176.599 E23.40004
G1 X102.992 Y176.774 E23.41544
G1 X102.511 Y177.699 E23.49866
G1 X102.036 Y178.478 E23.57149
G1 X101.936 Y178.629 E23.58595
G1 X101.425 Y179.343 E23.65603
G1 X101.312 Y179.491 E23.6709
G1 X100.736 Y180.182 E23.74271
G1 X100.635 Y180.295 E23.75481
G1 X100.01 Y180.944 E23.82673
G1 X99.885 Y181.064 E23.84056
G1 X99.215 Y181.666 E23.91246
G1 X99.098 Y181.763 E23.92459
G1 X98.386 Y182.313 E23.99641
G1 X98.227 Y182.426 E24.01198
G1 X97.489 Y182.916 E24.08269
G1 X97.363 Y182.992 E24.09444
G1 X96.569 Y183.438 E24.16713
G1 X96.418 Y183.516 E24.1807
G1 X95.604 Y183.899 E24.25251
G1 X95.461 Y183.959 E24.26489
G1 X94.602 Y184.288 E24.33832
G1 X94.452 Y184.34 E24.35099
G1 X93.602 Y184.595 E24.42183
G1 X93.429 Y184.641 E24.43612
G1 X92.534 Y184.842 E24.50934
G1 X92.404 Y184.865 E24.51988
G1 X91.499 Y184.999 E24.5929
G1 X91.331 Y185.017 E24.60639
G1 X90.257 Y185.092 E24.69233
G1 X89.752 Y185.1 E24.73265
G1 X70.998 Y185.099 E26.22967
G1 X69.874 Y185.054 E26.31947
G1 X68.957 Y184.952 E26.39312
G1 X68.782 Y184.927 E26.40723
G1 X67.893 Y184.763 E26.47939
G1 X67.77 Y184.735 E26.48946
G1 X66.876 Y184.501 E26.56323
G1 X66.713 Y184.452 E26.57681
G1 X65.871 Y184.165 E26.64782
G1 X65.705 Y184.102 E26.662
G1 X64.902 Y183.761 E26.73164
G1 X64.713 Y183.673 E26.74828
G1 X63.802 Y183.199 E26.83025
G1 X63.023 Y182.724 E26.90308
G1 X62.872 Y182.624 E26.91754
G1 X62.158 Y182.113 E26.98763
G1 X62.01 Y182 E27.00249
G1 X61.319 Y181.424 E27.0743
G1 X61.206 Y181.323 E27.0864
G1 X60.557 Y180.698 E27.15832
G1 X60.437 Y180.573 E27.17215
G1 X59.834 Y179.902 E27.24417
G1 X59.737 Y179.784 E27.25636
G1 X59.179 Y179.062 E27.3292
G1 X59.075 Y178.915 E27.34357
G1 X58.582 Y178.172 E27.41475
G1 X58.509 Y178.051 E27.42603
G1 X58.057 Y177.246 E27.49973
G1 X57.985 Y177.107 E27.51222
G1 X57.588 Y176.261 E27.58682
G1 X57.542 Y176.149 E27.59648
G1 X57.213 Y175.29 E27.66991
G1 X57.156 Y175.125 E27.68384
G1 X56.906 Y174.29 E27.75342
G1 X56.86 Y174.117 E27.76771
G1 X56.658 Y173.216 E27.84142
G1 X56.636 Y173.092 E27.85147
G1 X56.501 Y172.178 E27.92522
G1 X56.484 Y172.018 E27.93807
G1 X56.409 Y170.945 E28.02393
G1 X56.401 Y170.444 E28.06392
G1 X56.401 Y49.989 E37.67916
G1 X56.447 Y48.847 E37.7704
G1 X56.549 Y47.93 E37.84405
G1 X56.574 Y47.755 E37.85816
G1 X56.736 Y46.877 E37.92943
G1 X56.766 Y46.743 E37.94039
G1 X56.997 Y45.859 E38.01332
G1 X57.055 Y45.667 E38.02933
G1 X57.336 Y44.844 E38.09875
G1 X57.399 Y44.678 E38.11292
G1 X57.74 Y43.875 E38.18256
G1 X57.821 Y43.7 E38.19796
G1 X58.302 Y42.775 E38.28118
G1 X58.777 Y41.996 E38.35401
G1 X58.877 Y41.845 E38.36847
G0 F12000 X59.2 Y41.393
G1 F1800 X59.2 Y179.089 E49.35996
G0 F12000 X60.8 Y180.932
G1 F1800 X60.8 Y39.533 E60.64704
G0 F12000 X62.4 Y38.181
G1 F1800 X62.4 Y182.286 E72.15012
G0 F12000 X64 Y183.302
G1 F1800 X64 Y37.173 E83.81477
G0 F12000 X65.6 Y36.42
G1 F1800 X65.6 Y184.057 E95.59979
G0 F12000 X67.2 Y184.585
G1 F1800 X67.2 Y35.882 E107.46991
G0 F12000 X68.8 Y35.551
G1 F1800 X68.8 Y184.929 E119.39391
G0 F12000 X70.4 Y185.075
G1 F1800 X70.4 Y35.392 E131.34225
G0 F12000 X72 Y35.374
G1 F1800 X72 Y185.099 E143.29395
G0 F12000 X73.6 Y185.099
G1 F1800 X73.6 Y35.374 E155.24565
G0 F12000 X75.2 Y35.374
G1 F1800 X75.2 Y185.099 E167.19734
G0 F12000 X76.8 Y185.099
G1 F1800 X76.8 Y35.374 E179.14904
G0 F12000 X78.4 Y35.374
G1 F1800 X78.4 Y185.099 E191.10074
G0 F12000 X80 Y185.099
G1 F1800 X80 Y35.374 E203.05243
G0 F12000 X81.6 Y35.374
G1 F1800 X81.6 Y185.099 E215.00413
G0 F12000 X83.2 Y185.099
G1 F1800 X83.2 Y35.374 E226.95583
G0 F12000 X84.8 Y35.374
G1 F1800 X84.8 Y185.099 E238.90753
G0 F12000 X86.4 Y185.099
G1 F1800 X86.4 Y35.374 E250.85922
G0 F12000 X88 Y35.374
G1 F1800 X88 Y185.099 E262.81092
G0 F12000 X89.6 Y185.099
G1 F1800 X89.6 Y35.374 E274.76262
G0 F12000 X91.2 Y35.374
G1 F1800 X91.2 Y185.027 E286.70857
G0 F12000 X92.8 Y184.783
G1 F1800 X92.8 Y35.374 E298.63504
G0 F12000 X94.4 Y35.374
G1 F1800 X94.4 Y184.356 E310.52743
G0 F12000 X96 Y183.713
G1 F1800 X96 Y35.374 E322.36849
G0 F12000 X97.6 Y35.374
G1 F1800 X97.6 Y182.843 E334.1401
G0 F12000 X99.2 Y181.679
G1 F1800 X99.2 Y35.374 E345.8188
G0 F12000 X100.8 Y35.374
G1 F1800 X100.8 Y180.106 E357.37193
G0 F12000 X102.4 Y177.882
G1 F1800 X102.4 Y35.374 E368.74754
G0 F12000 X104 Y35.374
G1 F1800 X104 Y173.912 E379.80624
G1 F2700 E374.80624
G0 F12000 X105.03 Y174.181
G0 X104.399 Y176.2
G0 X103.517 Y178.08
G0 X102.808 Y179.239
G0 X101.537 Y180.883
G0 X100.614 Y181.84
G0 X99.013 Y183.173
G0 X97.894 Y183.915
G0 X96.029 Y184.875
G0 X94.77 Y185.356
G0 X92.746 Y185.885
G0 X91.433 Y186.076
G0 X89.759 Y186.165
G0 X69.944 Y186.126
G0 X68.618 Y185.979
G0 X66.591 Y185.527
G0 X65.301 Y185.087
G0 X63.421 Y184.205
G0 X62.262 Y183.496
G0 X60.618 Y182.225
G0 X59.661 Y181.302
G0 X58.328 Y179.701
G0 X57.586 Y178.582
G0 X56.636 Y176.74
G0 X57.6 Y176.286
G1 F2700 E379.80624
G1 F1800 X57.6 Y44.204 E390.34959
G1 F2700 E385.34959
G0 F12000 X56.77 Y43.436
G0 X57.388 Y42.231
G0 X58.535 Y40.493
G0 X59.393 Y39.46
G0 X60.898 Y38.006
G0 X61.978 Y37.175
G0 X63.744 Y36.096
G0 X64.962 Y35.524
G0 X66.928 Y34.853
G0 X68.243 Y34.557
G0 X70.311 Y34.328
G0 X105.6 Y34.309
G0 X105.6 Y35.374
G1 F2700 E390.34959
G1 F1800 X105.6 Y84.811 E394.29587
G0 F12000 X107.2 Y83.459
G1 F1800 X107.2 Y35.374 E398.13422
G0 F12000 X108.8 Y35.374
G1 F1800 X108.8 Y82.891 E401.92723
G0 F12000 X110.4 Y82.785
G1 F1800 X110.4 Y35.374 E405.71179
G0 F12000 X112 Y35.374
G1 F1800 X112 Y82.785 E409.49634
G0 F12000 X113.6 Y82.785
G1 F1800 X113.6 Y35.374 E413.28089
G0 F12000 X115.2 Y35.374
G1 F1800 X115.2 Y82.785 E417.06544
G0 F12000 X116.8 Y82.785
G1 F1800 X116.8 Y35.374 E420.84999
G0 F12000 X118.4 Y35.374
G1 F1800 X118.4 Y82.785 E424.63454
G0 F12000 X120 Y82.785
G1 F1800 X120 Y35.374 E428.41909
G0 F12000 X121.6 Y35.374
G1 F1800 X121.6 Y82.785 E432.20364
G0 F12000 X123.2 Y82.785
G1 F1800 X123.2 Y35.255 E435.99769
G0 F12000 X124.8 Y34.988
G1 F1800 X124.8 Y82.785 E439.81306
G0 F12000 X126.4 Y82.785
G1 F1800 X126.4 Y34.9 E443.63544
G0 F12000 X128 Y34.901
G1 F1800 X128 Y82.785 E447.45775
G0 F12000 X129.6 Y82.785
G1 F1800 X129.6 Y34.901 E451.28006
G0 F12000 X131.2 Y34.901
G1 F1800 X131.2 Y82.785 E455.10237
G0 F12000 X132.8 Y82.785
G1 F1800 X132.8 Y34.901 E458.92468
G0 F12000 X134.4 Y34.901
G1 F1800 X134.4 Y82.785 E462.74698
G0 F12000 X136 Y82.785
G1 F1800 X136 Y34.901 E466.56929
G0 F12000 X137.6 Y34.901
G1 F1800 X137.6 Y82.785 E470.3916
G0 F12000 X139.2 Y82.785
G1 F1800 X139.2 Y34.901 E474.21391
G0 F12000 X140.8 Y34.901
G1 F1800 X140.8 Y82.785 E478.03622
G0 F12000 X142.4 Y82.785
G1 F1800 X142.4 Y34.901 E481.85852
G0 F12000 X144 Y34.901
G1 F1800 X144 Y82.785 E485.68083
G0 F12000 X145.6 Y82.785
G1 F1800 X145.6 Y34.901 E489.50314
G0 F12000 X147.2 Y34.901
G1 F1800 X147.2 Y82.785 E493.32545
G0 F12000 X148.8 Y82.785
G1 F1800 X148.8 Y34.901 E497.14775
G0 F12000 X150.4 Y34.977
G1 F1800 X150.4 Y82.711 E500.95809
G0 F12000 X152 Y82.465
G1 F1800 X152 Y35.218 E504.72955
G0 F12000 X153.6 Y35.655
G1 F1800 X153.6 Y82.037 E508.43196
G0 F12000 X155.2 Y81.392
G1 F1800 X155.2 Y36.287 E512.03244
G0 F12000 X156.8 Y37.169
G1 F1800 X156.8 Y80.519 E515.49282
G0 F12000 X158.4 Y79.353
G1 F1800 X158.4 Y38.342 E518.7665
G0 F12000 X160 Y39.914
G1 F1800 X160 Y77.775 E521.78873
G0 F12000 X161.6 Y75.538
G1 F1800 X161.6 Y42.144 E524.45438
G0 F12000 X163.2 Y46.151
G1 F1800 X163.2 Y71.547 E526.4816
G0 F300 X163.2 Y71.547 Z0.54
G0 F12000 X161.761 Y75.267
;TIME_ELAPSED:236.230755
;LAYER:-5
M140 S50
;TYPE:SUPPORT
G1 F1800 X162.165 Y74.484 E526.56951
G1 X122.976 Y35.295 E532.0995
G1 X123.255 Y35.245 E532.12779
G1 X123.612 Y35.165 E532.16429
G1 X123.791 Y35.131 E532.18247
G1 X124.171 Y35.076 E532.22078
G1 X162.593 Y73.498 E537.64254
G1 X162.6 Y73.481 E537.64438
G1 X162.663 Y73.314 E537.66219
G1 X162.949 Y72.472 E537.75092
G1 X162.957 Y72.448 E537.75344
G1 X125.45 Y34.94 E543.04615
G1 X125.92 Y34.907 E543.09316
G1 X126.426 Y34.899 E543.14366
G1 X126.824 Y34.9 E543.18337
G1 X163.253 Y71.329 E548.3239
G1 X163.263 Y71.282 E548.32869
G1 X163.425 Y70.403 E548.41788
G1 X163.449 Y70.229 E548.4354
G1 X163.461 Y70.123 E548.44605
G1 X128.238 Y34.9 E553.41639
G1 X129.652 Y34.9 E553.55748
G1 X163.575 Y68.822 E558.34431
G1 X163.598 Y68.171 E558.40931
G1 X163.598 Y67.431 E558.48315
G1 X131.067 Y34.9 E563.07362
G1 X132.481 Y34.9 E563.21471
G1 X163.598 Y66.017 E567.60566
G1 X163.598 Y64.603 E567.74675
G1 X133.895 Y34.9 E571.93816
G1 X135.309 Y34.9 E572.07925
G1 X163.598 Y63.189 E576.07114
G1 X163.598 Y61.774 E576.21232
G1 X136.724 Y34.9 E580.00454
G1 X138.138 Y34.901 E580.14563
G1 X163.598 Y60.36 E583.73824
G1 X163.598 Y58.946 E583.87933
G1 X139.553 Y34.901 E587.27234
G1 X140.967 Y34.901 E587.41342
G1 X163.598 Y57.532 E590.6069
G1 X163.598 Y56.118 E590.74799
G1 X142.381 Y34.901 E593.74194
G1 X143.795 Y34.901 E593.88303
G1 X163.598 Y54.703 E596.67738
G1 X163.598 Y53.289 E596.81847
G1 X145.21 Y34.901 E599.41321
G1 X146.624 Y34.901 E599.5543
G1 X163.598 Y51.875 E601.94952
G1 X163.598 Y50.461 E602.09061
G1 X148.038 Y34.901 E604.28629
G1 X149.001 Y34.901 E604.38238
G1 X149.471 Y34.92 E604.42931
G1 X163.589 Y49.038 E606.42152
G1 X163.514 Y47.968 E606.52854
G1 X163.496 Y47.806 E606.54481
G1 X163.448 Y47.482 E606.57749
G1 X151.01 Y35.044 E608.33262
G1 X151.042 Y35.048 E608.33584
G1 X151.216 Y35.073 E608.35338
G1 X152.106 Y35.237 E608.44368
G1 X152.228 Y35.264 E608.45615
G1 X152.792 Y35.412 E608.51433
G1 X163.095 Y45.715 E609.9682
G1 X163.093 Y45.709 E609.96883
G1 X162.838 Y44.86 E610.05728
G1 X162.786 Y44.709 E610.07321
G1 X162.457 Y43.851 E610.1649
G1 X162.396 Y43.707 E610.18051
G1 X162.304 Y43.51 E610.2022
G1 X154.985 Y36.191 E611.23499
G1 X155.097 Y36.238 E611.24711
G1 X155.286 Y36.326 E611.26791
G1 X156.197 Y36.8 E611.37038
G1 X156.976 Y37.275 E611.46142
G1 X157.127 Y37.376 E611.47955
G1 X157.974 Y37.987 E611.58376
G1 X158.68 Y38.575 E611.67543
G1 X158.793 Y38.677 E611.69062
G1 X159.441 Y39.301 E611.78039
G1 X159.562 Y39.427 E611.79782
G1 X160.155 Y40.087 E611.88635
G1 X160.268 Y40.223 E611.90399
G1 X160.811 Y40.925 E611.99255
G1 X160.924 Y41.085 E612.01209
G1 X161.414 Y41.822 E612.1004
G1 X161.489 Y41.949 E612.11512
G1 X161.935 Y42.743 E612.20599
G1 X162.013 Y42.893 E612.22286
G1 F2700 E607.22286
G0 F12000 X162.977 Y42.439
G0 X163.786 Y44.341
G0 X164.172 Y45.622
G0 X164.554 Y47.68
G0 X164.664 Y49.553
G0 X164.625 Y69.242
G0 X164.478 Y70.568
G0 X164.026 Y72.595
G0 X163.586 Y73.885
G0 X162.71 Y75.754
G0 X161.761 Y75.267
G1 F2700 E612.22286
G1 F1800 X161.676 Y75.409 E612.23937
G1 X121.64 Y35.373 E617.88888
G1 X120.226 Y35.373 E618.02997
G1 X161.14 Y76.287 E623.80338
G1 X161.122 Y76.313 E623.80653
G1 X160.61 Y77.027 E623.8942
G1 X160.548 Y77.109 E623.90446
G1 X118.812 Y35.373 E629.79386
G1 X117.398 Y35.373 E629.93495
G1 X159.907 Y77.883 E635.9335
G1 X159.821 Y77.979 E635.94636
G1 X159.217 Y78.607 E636.0333
G1 X115.983 Y35.373 E642.13408
G1 X114.569 Y35.373 E642.27517
G1 X158.477 Y79.281 E648.47107
G1 X158.401 Y79.35 E648.48131
