;FLAVOR:Marlin
;TIME:8384
;Filament used: 10.1384m
;Layer height: 0.2
;MINX:25.656
;MINY:72.5
;MINZ:0.2
;MAXX:194.381
;MAXY:147.5
;MAXZ:69.92
;Generated with Cura_SteamEngine 4.6.1
M140 S50
M105
M190 S50
M104 S200
M105
M109 S200
M82 ;absolute extrusion mode
M201 X500.00 Y500.00 Z100.00 E5000.00 ;Setup machine max acceleration
M203 X500.00 Y500.00 Z10.00 E50.00 ;Setup machine max feedrate
M204 P500.00 R1000.00 T500.00 ;Setup Print/Retract/Travel acceleration
M205 X8.00 Y8.00 Z0.40 E5.00 ;Setup Jerk
M220 S100 ;Reset Feedrate
M221 S100 ;Reset Flowrate

G28 ;Home

G92 E0 ;Reset Extruder
G1 Z2.0 F3000 ;Move Z Axis up
G1 X10.1 Y20 Z0.28 F5000.0 ;Move to start position
G1 X10.1 Y200.0 Z0.28 F1500.0 E15 ;Draw the first line
G1 X10.4 Y200.0 Z0.28 F5000.0 ;Move to side a little
G1 X10.4 Y20 Z0.28 F1500.0 E30 ;Draw the second line
G92 E0 ;Reset Extruder
G1 Z2.0 F3000 ;Move Z Axis up

G92 E0
G92 E0
G1 F2700 E-5
;LAYER_COUNT:293
;LAYER:0
M107
G0 F6000 X183.518 Y73.311 Z0.2
;TYPE:SKIRT
G1 F2700 E0
G1 F1200 X184.42 Y73.364 E0.03005
G1 X185.313 Y73.496 E0.06008
G1 X186.191 Y73.707 E0.09011
G1 X187.047 Y73.995 E0.12015
G1 X187.874 Y74.357 E0.15018
G1 X188.666 Y74.792 E0.18023
G1 X189.417 Y75.294 E0.21027
G1 X190.12 Y75.861 E0.24031
G1 X190.77 Y76.488 E0.27035
G1 X191.362 Y77.17 E0.30039
G1 X191.892 Y77.901 E0.33042
G1 X192.354 Y78.677 E0.36046
G1 X192.747 Y79.49 E0.39049
G1 X193.065 Y80.335 E0.42052
G1 X193.308 Y81.205 E0.45056
G1 X193.473 Y82.093 E0.4806
G1 X193.568 Y83.216 E0.51809
G1 X193.581 Y83.822 E0.53825
G1 X193.58 Y135.89 E2.27004
G1 X193.571 Y136.617 E2.29422
G1 X193.52 Y137.519 E2.32427
G1 X193.389 Y138.413 E2.35432
G1 X193.18 Y139.291 E2.38434
G1 X192.894 Y140.148 E2.41439
G1 X192.533 Y140.976 E2.44443
G1 X192.101 Y141.768 E2.47444
G1 X191.6 Y142.52 E2.50449
G1 X191.034 Y143.224 E2.53454
G1 X190.409 Y143.875 E2.56455
G1 X189.728 Y144.469 E2.59461
G1 X188.997 Y145 E2.62466
G1 X188.223 Y145.464 E2.65467
G1 X187.41 Y145.858 E2.68472
G1 X186.566 Y146.178 E2.71474
G1 X185.696 Y146.423 E2.7448
G1 X184.809 Y146.589 E2.77482
G1 X183.658 Y146.687 E2.81324
G1 X183.051 Y146.7 E2.83343
G1 X157.113 Y146.699 E3.69613
G1 X156.412 Y146.689 E3.71945
G1 X155.51 Y146.636 E3.7495
G1 X154.617 Y146.504 E3.77953
G1 X153.738 Y146.293 E3.80959
G1 X152.882 Y146.005 E3.83963
G1 X152.055 Y145.643 E3.86966
G1 X151.263 Y145.209 E3.8997
G1 X150.513 Y144.706 E3.92973
G1 X149.81 Y144.139 E3.95977
G1 X149.16 Y143.513 E3.98979
G1 X148.817 Y143.133 E4.00681
G1 X148.002 Y142.183 E4.04844
G1 X146.228 Y140.17 E4.13769
G1 X144.489 Y138.305 E4.2225
G1 X142.699 Y136.494 E4.30719
G1 X140.89 Y134.763 E4.39047
G1 X139.002 Y133.055 E4.47514
G1 X137.022 Y131.363 E4.56177
G1 X135.104 Y129.818 E4.64368
G1 X133.06 Y128.264 E4.72908
G1 X131.007 Y126.792 E4.81311
G1 X128.875 Y125.353 E4.89866
G1 X126.763 Y124.013 E4.98185
G1 X124.57 Y122.707 E5.06674
G1 X122.33 Y121.457 E5.15206
G1 X120.086 Y120.288 E5.23622
G1 X117.833 Y119.193 E5.31953
G1 X115.486 Y118.134 E5.40517
G1 X113.15 Y117.158 E5.48938
G1 X110.777 Y116.243 E5.57397
G1 X108.387 Y115.402 E5.65824
G1 X105.963 Y114.624 E5.74291
G1 X103.536 Y113.919 E5.82697
G1 X101.06 Y113.276 E5.91205
G1 X98.596 Y112.709 E5.99615
G1 X96.08 Y112.203 E6.08151
G1 X93.592 Y111.779 E6.16545
G1 X91.098 Y111.425 E6.24923
G1 X88.594 Y111.141 E6.33305
G1 X86.021 Y110.923 E6.41894
G1 X83.538 Y110.783 E6.50165
G1 X79.594 Y110.7 E6.63286
G1 X57.441 Y110.699 E7.36967
G1 X56.738 Y110.689 E7.39305
G1 X55.836 Y110.636 E7.42311
G1 X54.943 Y110.504 E7.45313
G1 X54.065 Y110.293 E7.48316
G1 X53.209 Y110.005 E7.5132
G1 X52.382 Y109.643 E7.54323
G1 X51.59 Y109.209 E7.57327
G1 X50.596 Y108.522 E7.61346
G1 X50.398 Y108.367 E7.62182
G1 X50.139 Y108.157 E7.63291
G1 X49.348 Y107.495 E7.66722
G1 X30.481 Y91.663 E8.4864
G1 X29.991 Y91.24 E8.50793
G1 X29.334 Y90.62 E8.53797
G1 X28.734 Y89.945 E8.56801
G1 X28.197 Y89.219 E8.59805
G1 X27.726 Y88.448 E8.6281
G1 X27.325 Y87.639 E8.65813
G1 X26.997 Y86.798 E8.68815
G1 X26.745 Y85.93 E8.71821
G1 X26.571 Y85.044 E8.74825
G1 X26.475 Y84.146 E8.77828
G1 X26.46 Y83.243 E8.80832
G1 X26.524 Y82.342 E8.83836
G1 X26.668 Y81.451 E8.86838
G1 X26.89 Y80.575 E8.89844
G1 X27.189 Y79.723 E8.92847
G1 X27.561 Y78.901 E8.95848
G1 X28.006 Y78.114 E8.98855
G1 X28.518 Y77.37 E9.01859
G1 X29.093 Y76.675 E9.04859
G1 X29.728 Y76.032 E9.07865
G1 X30.418 Y75.449 E9.10869
G1 X31.156 Y74.929 E9.13872
G1 X31.937 Y74.476 E9.16875
G1 X32.756 Y74.094 E9.19881
G1 X33.605 Y73.786 E9.22885
G1 X34.478 Y73.554 E9.25889
G1 X35.368 Y73.401 E9.28893
G1 X36.453 Y73.321 E9.32511
G1 X37.609 Y73.3 E9.36357
G1 X182.674 Y73.3 E14.18845
G1 X182.82 Y73.301 E14.1933
G1 X183.518 Y73.311 E14.21652
G0 F6000 X183.524 Y72.911
G1 F1200 X184.443 Y72.964 E14.24714
G1 X185.354 Y73.097 E14.27776
G1 X186.25 Y73.308 E14.30838
G1 X187.124 Y73.596 E14.33898
G1 X187.971 Y73.959 E14.36963
G1 X188.782 Y74.394 E14.40024
G1 X189.552 Y74.898 E14.43085
G1 X190.276 Y75.467 E14.46148
G1 X190.948 Y76.097 E14.49212
G1 X191.563 Y76.782 E14.52273
G1 X192.116 Y77.518 E14.55335
G1 X192.603 Y78.299 E14.58397
G1 X193.02 Y79.12 E14.61459
G1 X193.365 Y79.974 E14.64523
G1 X193.634 Y80.854 E14.67583
G1 X193.826 Y81.755 E14.70647
G1 X193.939 Y82.668 E14.73707
G1 X193.968 Y83.204 E14.75492
G1 X193.981 Y83.822 E14.77548
G1 X193.98 Y135.895 E16.50744
G1 X193.971 Y136.622 E16.53162
G1 X193.92 Y137.541 E16.56223
G1 X193.789 Y138.453 E16.59288
G1 X193.579 Y139.349 E16.62349
G1 X193.293 Y140.224 E16.65411
G1 X192.932 Y141.071 E16.68473
G1 X192.498 Y141.883 E16.71535
G1 X191.996 Y142.655 E16.74598
G1 X191.428 Y143.38 E16.77661
G1 X190.8 Y144.053 E16.80723
G1 X190.116 Y144.669 E16.83784
G1 X189.381 Y145.223 E16.86846
G1 X188.601 Y145.712 E16.89908
G1 X187.781 Y146.131 E16.9297
G1 X186.928 Y146.477 E16.96032
G1 X186.048 Y146.748 E16.99094
G1 X185.148 Y146.941 E17.02156
G1 X184.234 Y147.056 E17.0522
G1 X183.669 Y147.087 E17.07102
G1 X183.051 Y147.1 E17.09158
G1 X157.107 Y147.099 E17.95448
G1 X156.406 Y147.089 E17.9778
G1 X155.487 Y147.036 E18.00841
G1 X154.576 Y146.903 E18.03904
G1 X153.68 Y146.692 E18.06965
G1 X152.805 Y146.404 E18.10029
G1 X151.959 Y146.041 E18.13091
G1 X151.148 Y145.606 E18.16152
G1 X150.377 Y145.102 E18.19215
G1 X149.653 Y144.533 E18.22278
G1 X148.981 Y143.904 E18.2534
G1 X148.513 Y143.393 E18.27644
G1 X147.668 Y142.409 E18.31958
G1 X145.919 Y140.424 E18.40758
G1 X144.212 Y138.593 E18.49083
G1 X142.438 Y136.799 E18.57475
G1 X140.591 Y135.031 E18.65979
G1 X138.757 Y133.373 E18.74202
G1 X136.777 Y131.68 E18.82867
G1 X134.834 Y130.115 E18.91165
G1 X132.831 Y128.592 E18.99534
G1 X130.772 Y127.116 E19.0796
G1 X128.667 Y125.695 E19.16407
G1 X126.565 Y124.361 E19.24687
G1 X124.349 Y123.042 E19.33265
G1 X122.156 Y121.818 E19.41618
G1 X119.905 Y120.645 E19.5006
G1 X117.672 Y119.56 E19.58318
G1 X115.316 Y118.497 E19.66914
G1 X113.006 Y117.531 E19.75242
G1 X110.619 Y116.611 E19.83751
G1 X108.28 Y115.788 E19.91998
G1 X105.833 Y115.003 E20.00545
G1 X103.421 Y114.301 E20.089
G1 X100.976 Y113.667 E20.17301
G1 X98.506 Y113.098 E20.25732
G1 X95.999 Y112.595 E20.34236
G1 X93.581 Y112.183 E20.42394
G1 X91.029 Y111.82 E20.50968
G1 X88.516 Y111.536 E20.59379
G1 X86 Y111.322 E20.67778
G1 X83.535 Y111.183 E20.75989
G1 X79.585 Y111.1 E20.8913
G1 X57.435 Y111.099 E21.62801
G1 X56.732 Y111.089 E21.6514
G1 X55.813 Y111.036 E21.68201
G1 X54.902 Y110.903 E21.71263
G1 X54.006 Y110.692 E21.74325
G1 X53.132 Y110.404 E21.77386
G1 X52.285 Y110.041 E21.80451
G1 X51.474 Y109.606 E21.83512
G1 X50.349 Y108.837 E21.88044
G1 X50.151 Y108.682 E21.8888
G1 X49.882 Y108.464 E21.90032
G1 X49.091 Y107.802 E21.93463
G1 X30.219 Y91.966 E22.75402
G1 X29.729 Y91.543 E22.77555
G1 X29.059 Y90.911 E22.80619
G1 X28.446 Y90.224 E22.83681
G1 X27.896 Y89.487 E22.8674
G1 X27.411 Y88.704 E22.89803
G1 X26.996 Y87.882 E22.92866
G1 X26.654 Y87.028 E22.95925
G1 X26.387 Y86.146 E22.9899
G1 X26.198 Y85.245 E23.02052
G1 X26.087 Y84.331 E23.05115
G1 X26.057 Y83.411 E23.08176
G1 X26.106 Y82.492 E23.11237
G1 X26.235 Y81.58 E23.14301
G1 X26.442 Y80.683 E23.17363
G1 X26.727 Y79.808 E23.20423
G1 X27.086 Y78.96 E23.23486
G1 X27.518 Y78.147 E23.26548
G1 X28.019 Y77.374 E23.29612
G1 X28.584 Y76.648 E23.32672
G1 X29.211 Y75.974 E23.35733
G1 X29.894 Y75.356 E23.38797
G1 X30.628 Y74.8 E23.4186
G1 X31.407 Y74.31 E23.44921
G1 X32.226 Y73.889 E23.47983
G1 X33.078 Y73.541 E23.51044
G1 X33.957 Y73.268 E23.54106
G1 X34.857 Y73.073 E23.57169
G1 X35.77 Y72.956 E23.6023
G1 X36.445 Y72.921 E23.62478
G1 X37.609 Y72.9 E23.6635
G1 X182.674 Y72.9 E28.48838
G1 X182.826 Y72.901 E28.49344
G1 X183.524 Y72.911 E28.51666
G0 F6000 X183.53 Y72.511
G1 F1200 X184.466 Y72.565 E28.54784
G1 X185.394 Y72.697 E28.57902
G1 X186.308 Y72.909 E28.61022
G1 X187.2 Y73.198 E28.64141
G1 X188.065 Y73.561 E28.67261
G1 X188.895 Y73.997 E28.70379
G1 X189.686 Y74.502 E28.73501
G1 X190.43 Y75.073 E28.7662
G1 X191.123 Y75.705 E28.7974
G1 X191.76 Y76.393 E28.82858
G1 X192.335 Y77.134 E28.85978
G1 X192.846 Y77.92 E28.89096
G1 X193.288 Y78.748 E28.92218
G1 X193.657 Y79.61 E28.95336
G1 X193.952 Y80.5 E28.98455
G1 X194.17 Y81.412 E29.01574
G1 X194.31 Y82.34 E29.04695
G1 X194.367 Y83.193 E29.07538
G1 X194.381 Y83.822 E29.09631
G1 X194.38 Y135.9 E30.82843
G1 X194.371 Y136.627 E30.85261
G1 X194.32 Y137.564 E30.88382
G1 X194.188 Y138.492 E30.915
G1 X193.979 Y139.406 E30.94618
G1 X193.692 Y140.299 E30.97738
G1 X193.33 Y141.165 E31.0086
G1 X192.896 Y141.996 E31.03978
G1 X192.392 Y142.787 E31.07098
G1 X191.823 Y143.532 E31.10216
G1 X191.192 Y144.227 E31.13338
G1 X190.505 Y144.865 E31.16456
G1 X189.766 Y145.442 E31.19575
G1 X188.98 Y145.954 E31.22695
G1 X188.154 Y146.397 E31.25812
G1 X187.292 Y146.769 E31.28935
G1 X186.403 Y147.065 E31.32051
G1 X185.491 Y147.285 E31.35171
G1 X184.564 Y147.426 E31.3829
G1 X183.68 Y147.487 E31.41237
G1 X183.051 Y147.5 E31.4333
G1 X157.101 Y147.499 E32.2964
G1 X156.4 Y147.489 E32.31972
G1 X155.464 Y147.436 E32.3509
G1 X154.535 Y147.303 E32.38211
G1 X153.622 Y147.091 E32.41328
G1 X152.729 Y146.803 E32.44449
G1 X151.865 Y146.439 E32.47568
G1 X151.034 Y146.003 E32.50689
G1 X150.244 Y145.498 E32.53807
G1 X149.5 Y144.928 E32.56925
G1 X148.807 Y144.296 E32.60044
G1 X148.21 Y143.654 E32.6296
G1 X147.402 Y142.712 E32.67088
G1 X145.627 Y140.698 E32.76017
G1 X143.917 Y138.865 E32.84354
G1 X142.142 Y137.068 E32.92755
G1 X140.347 Y135.35 E33.01019
G1 X138.457 Y133.641 E33.09494
G1 X136.529 Y131.993 E33.1793
G1 X134.609 Y130.447 E33.26129
G1 X132.595 Y128.916 E33.34543
G1 X130.544 Y127.445 E33.42938
G1 X128.45 Y126.032 E33.5134
G1 X126.311 Y124.674 E33.59767
G1 X124.171 Y123.401 E33.68049
G1 X121.983 Y122.179 E33.76384
G1 X119.724 Y121.002 E33.84856
G1 X117.469 Y119.906 E33.93196
G1 X115.176 Y118.872 E34.01562
G1 X112.857 Y117.902 E34.09922
G1 X110.468 Y116.982 E34.18437
G1 X108.141 Y116.163 E34.26642
G1 X105.747 Y115.394 E34.35005
G1 X103.313 Y114.687 E34.43435
G1 X100.891 Y114.058 E34.51758
G1 X98.409 Y113.487 E34.60229
G1 X95.952 Y112.993 E34.68564
G1 X93.494 Y112.574 E34.76858
G1 X90.965 Y112.215 E34.85353
G1 X88.508 Y111.937 E34.93578
G1 X85.978 Y111.722 E35.02023
G1 X83.505 Y111.583 E35.10261
G1 X79.577 Y111.5 E35.23328
G1 X57.43 Y111.499 E35.9699
G1 X56.727 Y111.489 E35.99328
G1 X55.79 Y111.436 E36.0245
G1 X54.862 Y111.303 E36.05568
G1 X53.948 Y111.091 E36.08688
G1 X53.056 Y110.803 E36.11806
G1 X52.191 Y110.439 E36.14927
G1 X51.361 Y110.003 E36.18046
G1 X50.57 Y109.498 E36.21167
G1 X50.102 Y109.152 E36.23103
G1 X49.904 Y108.997 E36.23939
G1 X49.625 Y108.771 E36.25133
G1 X48.834 Y108.109 E36.28564
G1 X29.958 Y92.269 E37.10522
G1 X29.468 Y91.846 E37.12675
G1 X28.785 Y91.203 E37.15795
G1 X28.159 Y90.505 E37.18914
G1 X27.595 Y89.755 E37.22035
G1 X27.096 Y88.961 E37.25154
G1 X26.668 Y88.127 E37.28272
G1 X26.311 Y87.259 E37.31393
G1 X26.03 Y86.364 E37.34513
G1 X25.827 Y85.449 E37.37631
G1 X25.702 Y84.519 E37.40752
G1 X25.656 Y83.583 E37.43869
G1 X25.691 Y82.645 E37.46991
G1 X25.805 Y81.715 E37.50107
G1 X25.998 Y80.797 E37.53227
G1 X26.269 Y79.899 E37.56347
G1 X26.615 Y79.027 E37.59467
G1 X27.034 Y78.188 E37.62586
G1 X27.523 Y77.388 E37.65705
G1 X28.079 Y76.632 E37.68826
G1 X28.696 Y75.927 E37.71942
G1 X29.372 Y75.276 E37.75063
G1 X30.101 Y74.686 E37.78183
G1 X30.877 Y74.159 E37.81303
G1 X31.695 Y73.701 E37.84421
G1 X32.55 Y73.314 E37.87542
G1 X33.434 Y73.001 E37.90661
G1 X34.342 Y72.765 E37.93782
G1 X35.266 Y72.607 E37.96899
G1 X36.437 Y72.521 E38.00805
G1 X37.609 Y72.5 E38.04703
G1 X182.674 Y72.5 E42.87192
G1 X182.832 Y72.501 E42.87717
G1 X183.53 Y72.511 E42.90039
G1 F2700 E37.90039
;MESH:SideWallswBase51.stl
G0 F6000 X182.961 Y82.835
G0 X182.961 Y83.92
G0 X182.599 Y135.718
G0 X157.151 Y135.9
;TYPE:WALL-INNER
G1 F2700 E42.90039
G1 F1200 X157.151 Y99.9 E44.09775
G1 X57.097 Y99.9 E47.42556
G1 X56.28 Y99.214 E47.46105
G1 X38.267 Y84.1 E48.24312
G1 X182.781 Y84.1 E53.04967
G1 X182.781 Y135.9 E54.77255
G1 X157.151 Y135.9 E55.62501
G0 F6000 X156.751 Y136.3
;TYPE:WALL-OUTER
G1 F1200 X156.751 Y100.3 E56.82237
G1 X56.952 Y100.3 E60.1417
G1 X56.023 Y99.52 E60.18205
G1 X37.169 Y83.7 E61.00064
G1 X183.181 Y83.7 E65.85702
G1 X183.181 Y136.3 E67.6065
G1 X156.751 Y136.3 E68.48557
G0 F6000 X157.021 Y136.03
G0 X157.261 Y135.51
G0 X157.541 Y135.51
;TYPE:SKIN
G1 F1200 X157.541 Y99.51 E69.68293
G1 X57.24 Y99.51 E73.01896
G1 X39.339 Y84.49 E73.79617
G1 X182.391 Y84.49 E78.5541
G1 X182.391 Y135.51 E80.25103
G1 X157.541 Y135.51 E81.07754
G1 F2700 E76.07754
G0 F6000 X157.261 Y135.51
G0 X157.333 Y135.718
G0 X182.599 Y135.718
G0 X182.671 Y84.932
G0 X182.23 Y84.932
G1 F2700 E81.07754
G1 F1200 X181.947 Y84.649 E81.09085
G0 F6000 X181.382 Y84.649
G1 F1200 X182.23 Y85.498 E81.13077
G0 F6000 X182.23 Y86.064
G1 F1200 X180.816 Y84.649 E81.1973
G0 F6000 X180.25 Y84.649
G1 F1200 X182.23 Y86.629 E81.29043
G0 F6000 X182.23 Y87.195
G1 F1200 X179.685 Y84.649 E81.41017
G0 F6000 X179.119 Y84.649
G1 F1200 X182.23 Y87.761 E81.55652
G0 F6000 X182.23 Y88.326
G1 F1200 X178.553 Y84.649 E81.72948
G0 F6000 X177.987 Y84.649
G1 F1200 X182.23 Y88.892 E81.92905
G0 F6000 X182.23 Y89.458
G1 F1200 X177.422 Y84.649 E82.15523
G0 F6000 X176.856 Y84.649
G1 F1200 X182.23 Y90.023 E82.40801
G0 F6000 X182.23 Y90.589
G1 F1200 X176.29 Y84.649 E82.68741
G0 F6000 X175.725 Y84.649
G1 F1200 X182.23 Y91.155 E82.9934
G0 F6000 X182.23 Y91.72
G1 F1200 X175.159 Y84.649 E83.326
G0 F6000 X174.593 Y84.649
G1 F1200 X182.23 Y92.286 E83.68522
G0 F6000 X182.23 Y92.852
G1 F1200 X174.028 Y84.649 E84.07104
G0 F6000 X173.462 Y84.649
G1 F1200 X182.23 Y93.417 E84.48346
G0 F6000 X182.23 Y93.983
G1 F1200 X172.896 Y84.649 E84.92251
G0 F6000 X172.331 Y84.649
G1 F1200 X182.23 Y94.549 E85.38815
G0 F6000 X182.23 Y95.115
G1 F1200 X171.765 Y84.649 E85.88041
G0 F6000 X171.199 Y84.649
G1 F1200 X182.23 Y95.68 E86.39928
G0 F6000 X182.23 Y96.246
G1 F1200 X170.634 Y84.649 E86.94474
G0 F6000 X170.068 Y84.649
G1 F1200 X182.23 Y96.812 E87.51683
G0 F6000 X182.23 Y97.377
G1 F1200 X169.502 Y84.649 E88.11552
G0 F6000 X168.937 Y84.649
G1 F1200 X182.23 Y97.943 E88.7408
G0 F6000 X182.23 Y98.509
G1 F1200 X168.371 Y84.649 E89.39271
G0 F6000 X167.805 Y84.649
G1 F1200 X182.23 Y99.074 E90.07122
G0 F6000 X182.23 Y99.64
G1 F1200 X167.239 Y84.649 E90.77635
G0 F6000 X166.674 Y84.649
G1 F1200 X182.23 Y100.206 E91.50808
G0 F6000 X182.23 Y100.771
G1 F1200 X166.108 Y84.649 E92.26641
G0 F6000 X165.542 Y84.649
G1 F1200 X182.23 Y101.337 E93.05136
G0 F6000 X182.23 Y101.903
G1 F1200 X164.977 Y84.649 E93.86291
G0 F6000 X164.411 Y84.649
G1 F1200 X182.23 Y102.468 E94.70106
G0 F6000 X182.23 Y103.034
G1 F1200 X163.845 Y84.649 E95.56584
G0 F6000 X163.28 Y84.649
G1 F1200 X182.23 Y103.6 E96.45721
G0 F6000 X182.23 Y104.166
G1 F1200 X162.714 Y84.649 E97.37521
G0 F6000 X162.148 Y84.649
G1 F1200 X182.23 Y104.731 E98.3198
G0 F6000 X182.23 Y105.297
G1 F1200 X161.583 Y84.649 E99.291
G0 F6000 X161.017 Y84.649
G1 F1200 X182.23 Y105.863 E100.28881
G0 F6000 X182.23 Y106.428
G1 F1200 X160.451 Y84.649 E101.31323
G0 F6000 X159.886 Y84.649
G1 F1200 X182.23 Y106.994 E102.36425
G0 F6000 X182.23 Y107.56
G1 F1200 X159.32 Y84.649 E103.44189
G0 F6000 X158.754 Y84.649
G1 F1200 X182.23 Y108.125 E104.54613
G0 F6000 X182.23 Y108.691
