;FLAVOR:Marlin
;TIME:9514
;Filament used: 13.5419m
;Layer height: 0.2
;MINX:81.784
;MINY:33.835
;MINZ:0.24
;MAXX:139.079
;MAXY:186.165
;MAXZ:71.13
;Generated with Cura_SteamEngine 4.6.1
M140 S50
M105
M190 S50
M104 S200
M105
M109 S200
M82 ;absolute extrusion mode
M201 X500.00 Y500.00 Z100.00 E5000.00 ;Setup machine max acceleration
M203 X500.00 Y500.00 Z10.00 E50.00 ;Setup machine max feedrate
M204 P500.00 R1000.00 T500.00 ;Setup Print/Retract/Travel acceleration
M205 X8.00 Y8.00 Z0.40 E5.00 ;Setup Jerk
M220 S100 ;Reset Feedrate
M221 S100 ;Reset Flowrate

G28 ;Home

G92 E0 ;Reset Extruder
G1 Z2.0 F3000 ;Move Z Axis up
G1 X10.1 Y20 Z0.28 F5000.0 ;Move to start position
G1 X10.1 Y200.0 Z0.28 F1500.0 E15 ;Draw the first line
G1 X10.4 Y200.0 Z0.28 F5000.0 ;Move to side a little
G1 X10.4 Y20 Z0.28 F1500.0 E30 ;Draw the second line
G92 E0 ;Reset Extruder
G1 Z2.0 F3000 ;Move Z Axis up

G92 E0
G92 E0
G1 F2700 E-5
;LAYER_COUNT:293
;LAYER:-6
M107
G0 F12000 X83.405 Y43.226 Z0.24
;TYPE:SUPPORT-INTERFACE
G1 F2700 E0
G1 F1800 X83.886 Y42.301 E0.08322
G1 X84.361 Y41.522 E0.15606
G1 X84.461 Y41.371 E0.17051
G1 X84.972 Y40.657 E0.2406
G1 X85.085 Y40.509 E0.25546
G1 X85.661 Y39.818 E0.32727
G1 X85.762 Y39.705 E0.33937
G1 X86.387 Y39.056 E0.41129
G1 X86.512 Y38.936 E0.42512
G1 X87.183 Y38.333 E0.49714
G1 X87.299 Y38.237 E0.50916
G1 X88.011 Y37.687 E0.58097
G1 X88.17 Y37.574 E0.59654
G1 X88.908 Y37.084 E0.66726
G1 X89.034 Y37.008 E0.679
G1 X89.828 Y36.562 E0.7517
G1 X89.978 Y36.484 E0.76519
G1 X90.793 Y36.101 E0.83708
G1 X90.936 Y36.041 E0.84946
G1 X91.795 Y35.712 E0.92288
G1 X91.945 Y35.66 E0.93555
G1 X92.795 Y35.405 E1.00639
G1 X92.968 Y35.359 E1.02068
G1 X93.863 Y35.158 E1.0939
G1 X93.993 Y35.135 E1.10444
G1 X94.898 Y35.001 E1.17747
G1 X95.067 Y34.983 E1.19104
G1 X96.14 Y34.908 E1.2769
G1 X96.645 Y34.9 E1.31721
G1 X123.418 Y34.901 E3.45435
G1 X124.542 Y34.946 E3.54415
G1 X125.459 Y35.048 E3.6178
G1 X125.634 Y35.073 E3.63191
G1 X126.523 Y35.237 E3.70407
G1 X126.646 Y35.265 E3.71414
G1 X127.54 Y35.499 E3.78791
G1 X127.703 Y35.548 E3.80149
G1 X128.545 Y35.835 E3.8725
G1 X128.711 Y35.898 E3.88667
G1 X129.514 Y36.239 E3.95631
G1 X129.703 Y36.327 E3.97296
G1 X130.614 Y36.801 E4.05493
G1 X131.393 Y37.276 E4.12776
G1 X131.544 Y37.376 E4.14222
G1 X132.258 Y37.887 E4.21231
G1 X132.406 Y38 E4.22717
G1 X133.097 Y38.576 E4.29898
G1 X133.21 Y38.677 E4.31108
G1 X133.859 Y39.302 E4.383
G1 X133.979 Y39.427 E4.39683
G1 X134.582 Y40.098 E4.46884
G1 X134.678 Y40.214 E4.48086
G1 X135.237 Y40.938 E4.55388
G1 X135.331 Y41.069 E4.56675
G1 X135.831 Y41.823 E4.63897
G1 X135.907 Y41.949 E4.65071
G1 X136.353 Y42.743 E4.72341
G1 X136.431 Y42.893 E4.7369
G1 X136.814 Y43.708 E4.80878
G1 X136.874 Y43.851 E4.82116
G1 X137.203 Y44.71 E4.89459
G1 X137.255 Y44.86 E4.90726
G1 X137.51 Y45.71 E4.9781
G1 X137.556 Y45.883 E4.99239
G1 X137.755 Y46.769 E5.06488
G1 X137.78 Y46.908 E5.07615
G1 X137.913 Y47.807 E5.14869
G1 X137.931 Y47.969 E5.1617
G1 X138.007 Y49.055 E5.24861
G1 X138.015 Y49.556 E5.2886
G1 X138.015 Y170.486 E14.94176
G1 X137.979 Y171.492 E15.02211
G1 X137.969 Y171.627 E15.03292
G1 X137.867 Y172.544 E15.10657
G1 X137.842 Y172.719 E15.12068
G1 X137.68 Y173.597 E15.19195
G1 X137.65 Y173.731 E15.20291
G1 X137.419 Y174.616 E15.27592
G1 X137.367 Y174.788 E15.29027
G1 X137.091 Y175.6 E15.35872
G1 X137.011 Y175.809 E15.37659
G1 X136.676 Y176.599 E15.44509
G1 X136.595 Y176.774 E15.46048
G1 X136.179 Y177.582 E15.53302
G1 X135.639 Y178.478 E15.61653
G1 X135.539 Y178.629 E15.63099
G1 X135.028 Y179.343 E15.70107
G1 X134.915 Y179.491 E15.71594
G1 X134.339 Y180.182 E15.78775
G1 X134.238 Y180.295 E15.79985
G1 X133.613 Y180.944 E15.87177
G1 X133.488 Y181.064 E15.8856
G1 X132.818 Y181.666 E15.9575
G1 X132.701 Y181.763 E15.96963
G1 X131.989 Y182.313 E16.04145
G1 X131.83 Y182.426 E16.05702
G1 X131.092 Y182.916 E16.12773
G1 X130.966 Y182.992 E16.13948
G1 X130.172 Y183.438 E16.21217
G1 X130.021 Y183.516 E16.22574
G1 X129.207 Y183.899 E16.29755
G1 X129.064 Y183.959 E16.30993
G1 X128.205 Y184.288 E16.38336
G1 X128.055 Y184.34 E16.39603
G1 X127.205 Y184.595 E16.46687
G1 X127.032 Y184.641 E16.48116
G1 X126.137 Y184.842 E16.55438
G1 X126.007 Y184.865 E16.56492
G1 X125.102 Y184.999 E16.63795
G1 X124.934 Y185.017 E16.65143
G1 X123.86 Y185.092 E16.73737
G1 X123.355 Y185.1 E16.77769
G1 X96.582 Y185.099 E18.91483
G1 X95.458 Y185.054 E19.00462
G1 X94.541 Y184.952 E19.07827
G1 X94.366 Y184.927 E19.09238
G1 X93.477 Y184.763 E19.16454
G1 X93.354 Y184.735 E19.17461
G1 X92.46 Y184.501 E19.24838
G1 X92.297 Y184.452 E19.26197
G1 X91.455 Y184.165 E19.33297
G1 X91.289 Y184.102 E19.34715
G1 X90.486 Y183.761 E19.41679
G1 X90.297 Y183.673 E19.43343
G1 X89.386 Y183.199 E19.5154
G1 X88.607 Y182.724 E19.58823
G1 X88.456 Y182.624 E19.60269
G1 X87.742 Y182.113 E19.67278
G1 X87.594 Y182 E19.68764
G1 X86.903 Y181.424 E19.75945
G1 X86.79 Y181.323 E19.77155
G1 X86.141 Y180.698 E19.84347
G1 X86.021 Y180.573 E19.8573
G1 X85.418 Y179.902 E19.92932
G1 X85.321 Y179.784 E19.94151
G1 X84.763 Y179.062 E20.01435
G1 X84.659 Y178.915 E20.02872
G1 X84.166 Y178.172 E20.0999
G1 X84.093 Y178.051 E20.11118
G1 X83.641 Y177.246 E20.18488
G1 X83.569 Y177.107 E20.19737
G1 X83.172 Y176.261 E20.27197
G1 X83.126 Y176.149 E20.28164
G1 X82.797 Y175.29 E20.35506
G1 X82.74 Y175.125 E20.369
G1 X82.49 Y174.29 E20.43857
G1 X82.444 Y174.117 E20.45286
G1 X82.242 Y173.216 E20.52657
G1 X82.22 Y173.092 E20.53662
G1 X82.085 Y172.178 E20.61037
G1 X82.068 Y172.018 E20.62322
G1 X81.993 Y170.945 E20.70908
G1 X81.985 Y170.444 E20.74907
G1 X81.985 Y49.514 E30.40223
G1 X82.021 Y48.508 E30.48258
G1 X82.031 Y48.373 E30.49339
G1 X82.133 Y47.456 E30.56704
G1 X82.158 Y47.281 E30.58115
G1 X82.32 Y46.403 E30.65242
G1 X82.35 Y46.269 E30.66338
G1 X82.581 Y45.384 E30.73639
G1 X82.633 Y45.212 E30.75074
G1 X82.92 Y44.37 E30.82175
G1 X82.983 Y44.204 E30.83592
G1 X83.324 Y43.401 E30.90556
G1 X83.405 Y43.226 E30.92095
G0 F12000 X83.2 Y43.693
G1 F1800 X83.2 Y176.32 E41.50781
G0 F12000 X84.8 Y179.109
G1 F1800 X84.8 Y40.897 E52.54049
G0 F12000 X86.4 Y39.043
G1 F1800 X86.4 Y180.947 E63.86788
G0 F12000 X88 Y182.297
G1 F1800 X88 Y37.695 E75.41064
G0 F12000 X89.6 Y36.69
G1 F1800 X89.6 Y183.31 E87.11448
G0 F12000 X91.2 Y184.064
G1 F1800 X91.2 Y35.939 E98.93846
G0 F12000 X92.8 Y35.403
G1 F1800 X92.8 Y184.589 E110.84713
G0 F12000 X94.4 Y184.931
G1 F1800 X94.4 Y35.074 E122.80936
G0 F12000 X96 Y34.917
G1 F1800 X96 Y185.075 E134.79563
G0 F12000 X97.6 Y185.099
G1 F1800 X97.6 Y34.901 E146.78508
G0 F12000 X99.2 Y34.901
G1 F1800 X99.2 Y185.099 E158.77453
G0 F12000 X100.8 Y185.099
G1 F1800 X100.8 Y34.901 E170.76399
G0 F12000 X102.4 Y34.901
G1 F1800 X102.4 Y185.099 E182.75344
G0 F12000 X104 Y185.099
G1 F1800 X104 Y34.901 E194.74289
G0 F12000 X105.6 Y34.901
G1 F1800 X105.6 Y185.099 E206.73235
G0 F12000 X107.2 Y185.099
G1 F1800 X107.2 Y34.901 E218.7218
G0 F12000 X108.8 Y34.901
G1 F1800 X108.8 Y185.099 E230.71126
G0 F12000 X110.4 Y185.099
G1 F1800 X110.4 Y34.901 E242.70071
G0 F12000 X112 Y34.901
G1 F1800 X112 Y185.099 E254.69016
G0 F12000 X113.6 Y185.099
G1 F1800 X113.6 Y34.901 E266.67962
G0 F12000 X115.2 Y34.901
G1 F1800 X115.2 Y185.099 E278.66907
G0 F12000 X116.8 Y185.099
G1 F1800 X116.8 Y34.901 E290.65853
G0 F12000 X118.4 Y34.901
G1 F1800 X118.4 Y185.099 E302.64798
G0 F12000 X120 Y185.099
G1 F1800 X120 Y34.901 E314.63743
G0 F12000 X121.6 Y34.901
G1 F1800 X121.6 Y185.099 E326.62689
G0 F12000 X123.2 Y185.099
G1 F1800 X123.2 Y34.901 E338.61634
G0 F12000 X124.8 Y34.975
G1 F1800 X124.8 Y185.027 E350.59414
G0 F12000 X126.4 Y184.783
G1 F1800 X126.4 Y35.215 E362.5333
G0 F12000 X128 Y35.65
G1 F1800 X128 Y184.357 E374.40374
G0 F12000 X129.6 Y183.715
G1 F1800 X129.6 Y36.28 E386.17264
G0 F12000 X131.2 Y37.159
G1 F1800 X131.2 Y182.845 E397.80193
G0 F12000 X132.8 Y181.681
G1 F1800 X132.8 Y38.329 E409.2449
G0 F12000 X134.4 Y39.896
G1 F1800 X134.4 Y180.109 E420.43731
G0 F12000 X136 Y177.88
G1 F1800 X136 Y42.115 E431.27466
G0 F12000 X137.6 Y46.079
G1 F1800 X137.6 Y173.923 E441.47972
G1 F2700 E436.47972
G0 F300 X137.6 Y173.923 Z0.54
G0 F12000 X138.63 Y174.192
G0 X138.002 Y176.2
G0 X137.12 Y178.08
G0 X136.411 Y179.239
G0 X135.14 Y180.883
G0 X134.217 Y181.84
G0 X132.616 Y183.173
G0 X131.497 Y183.915
G0 X129.632 Y184.875
G0 X128.373 Y185.356
G0 X126.349 Y185.885
G0 X125.036 Y186.076
G0 X123.362 Y186.165
G0 X95.528 Y186.126
G0 X94.202 Y185.979
G0 X92.175 Y185.527
G0 X90.885 Y185.087
G0 X89.005 Y184.205
G0 X87.846 Y183.496
G0 X86.202 Y182.225
G0 X85.245 Y181.302
G0 X83.912 Y179.701
G0 X83.702 Y179.384
G0 X82.707 Y177.757
G0 X83.568 Y177.106
;TIME_ELAPSED:195.227812
;LAYER:-5
M140 S50
;TYPE:SUPPORT
G1 F2700 E441.47972
G1 F1800 X83.64 Y177.244 E441.49525
G1 X84.092 Y178.05 E441.58746
G1 X84.165 Y178.171 E441.60156
G1 X84.658 Y178.914 E441.69053
G1 X84.763 Y179.061 E441.70856
G1 X85.32 Y179.783 E441.79954
G1 X85.417 Y179.901 E441.81479
G1 X86.02 Y180.572 E441.9048
G1 X86.141 Y180.696 E441.92209
G1 X86.79 Y181.321 E442.01199
G1 X86.902 Y181.423 E442.02711
G1 X87.593 Y181.999 E442.11687
G1 X87.742 Y182.112 E442.13553
G1 X88.456 Y182.623 E442.22314
G1 X88.606 Y182.722 E442.24107
G1 X89.386 Y183.197 E442.33219
G1 X90.297 Y183.672 E442.43471
G1 X90.366 Y183.704 E442.4423
G1 X83.392 Y176.73 E443.4264
G1 X83.172 Y176.259 E443.47828
G1 X83.126 Y176.148 E443.49026
G1 X82.797 Y175.289 E443.58205
G1 X82.739 Y175.124 E443.5995
G1 X82.542 Y174.466 E443.66803
G1 X92.617 Y184.541 E445.08972
G1 X93.353 Y184.734 E445.16565
G1 X93.477 Y184.762 E445.17833
G1 X94.365 Y184.926 E445.26843
G1 X94.424 Y184.934 E445.27437
G1 X82.156 Y172.666 E447.00552
G1 X82.085 Y172.177 E447.05483
G1 X82.067 Y172.017 E447.07089
G1 X82.003 Y171.099 E447.16271
G1 X95.977 Y185.073 E449.1346
G1 X96.582 Y185.097 E449.19501
G1 X97.416 Y185.097 E449.27823
G1 X81.984 Y169.666 E451.45578
G1 X81.984 Y168.251 E451.59697
G1 X98.83 Y185.097 E453.97412
G1 X100.245 Y185.097 E454.11531
G1 X81.984 Y166.837 E456.69206
G1 X81.984 Y165.423 E456.83315
G1 X101.659 Y185.097 E459.60944
G1 X103.073 Y185.097 E459.75053
G1 X81.984 Y164.009 E462.72634
G1 X81.984 Y162.594 E462.86753
G1 X104.487 Y185.097 E466.04295
G1 X105.901 Y185.097 E466.18404
G1 X81.984 Y161.18 E469.55898
G1 X81.984 Y159.766 E469.70007
G1 X107.316 Y185.097 E473.27462
G1 X108.73 Y185.097 E473.41571
G1 X81.984 Y158.352 E477.18979
G1 X81.984 Y156.938 E477.33088
G1 X110.145 Y185.098 E481.30463
G1 X111.559 Y185.098 E481.44572
G1 X81.984 Y155.523 E485.61907
G1 X81.984 Y154.109 E485.76016
G1 X112.973 Y185.098 E490.13304
G1 X114.387 Y185.098 E490.27413
G1 X81.984 Y152.695 E494.84655
G1 X81.984 Y151.281 E494.98764
G1 X115.802 Y185.098 E499.75965
G1 X117.216 Y185.098 E499.90074
G1 X81.984 Y149.867 E504.87229
G1 X81.984 Y148.452 E505.01347
G1 X118.63 Y185.098 E510.18462
G1 X120.044 Y185.098 E510.32571
G1 X81.984 Y147.038 E515.69639
G1 X81.984 Y145.624 E515.83748
G1 X121.459 Y185.098 E521.40776
G1 X122.873 Y185.098 E521.54885
G1 X81.984 Y144.21 E527.31865
G1 X81.984 Y142.795 E527.45984
G1 X124.252 Y185.063 E533.42431
G1 X124.933 Y185.016 E533.49243
G1 X125.102 Y184.998 E533.50939
G1 X125.536 Y184.933 E533.55317
G1 X81.984 Y141.381 E539.69883
G1 X81.984 Y139.967 E539.83992
G1 X126.726 Y184.709 E546.1535
G1 X127.032 Y184.64 E546.1848
G1 X127.204 Y184.593 E546.20259
G1 X127.835 Y184.404 E546.26832
G1 X81.984 Y138.553 E552.73839
G1 X81.984 Y137.139 E552.87948
G1 X128.875 Y184.029 E559.49623
G1 X129.063 Y183.958 E559.51628
G1 X129.206 Y183.898 E559.53176
G1 X129.853 Y183.593 E559.60313
G1 X81.984 Y135.724 E566.35796
G1 X81.984 Y134.31 E566.49905
G1 X130.773 Y183.098 E573.38364
G1 X130.966 Y182.99 E573.4057
G1 X131.091 Y182.915 E573.42025
G1 X131.639 Y182.55 E573.48595
G1 X81.984 Y132.896 E580.49273
G1 X81.984 Y131.482 E580.63382
G1 X132.454 Y181.952 E587.75569
G1 X132.7 Y181.762 E587.7867
G1 X132.817 Y181.664 E587.80193
G1 X133.219 Y181.302 E587.85591
G1 X81.984 Y130.068 E595.08565
G1 X81.984 Y128.653 E595.22684
G1 X133.938 Y180.607 E602.55811
G1 X134.237 Y180.294 E602.6013
G1 X134.338 Y180.18 E602.6165
G1 X134.606 Y179.861 E602.65807
G1 X81.984 Y127.239 E610.0836
G1 X81.984 Y125.825 E610.22469
G1 X135.225 Y179.066 E617.73757
G1 X135.538 Y178.628 E617.79129
G1 X135.639 Y178.477 E617.80941
G1 X135.794 Y178.22 E617.83936
G1 X81.984 Y124.411 E625.43246
G1 X81.984 Y122.996 E625.57365
G1 X136.311 Y177.323 E633.23978
G1 X136.595 Y176.773 E633.30154
G1 X136.675 Y176.597 E633.32083
G1 X136.772 Y176.37 E633.34546
G1 X81.984 Y121.582 E641.07664
G1 X81.984 Y120.168 E641.21773
G1 X137.173 Y175.357 E649.0055
G1 X137.366 Y174.786 E649.06564
G1 X137.419 Y174.615 E649.0835
G1 X137.507 Y174.277 E649.11835
G1 X81.984 Y118.754 E656.95325
G1 X81.984 Y117.34 E657.09433
G1 X137.767 Y173.123 E664.96592
G1 X137.841 Y172.717 E665.0071
G1 X137.866 Y172.543 E665.02464
G1 X137.94 Y171.882 E665.091
G1 X81.984 Y115.925 E672.98707
G1 X81.984 Y114.511 E673.12816
G1 X138.013 Y170.54 E681.03446
G1 X138.015 Y170.485 E681.03995
G1 X138.015 Y169.127 E681.17545
G1 X81.984 Y113.097 E689.08196
G1 X81.984 Y111.683 E689.22305
G1 X138.015 Y167.713 E697.12956
G1 X138.015 Y166.299 E697.27065
G1 X81.984 Y110.269 E705.17716
G1 X81.984 Y108.854 E705.31834
G1 X138.015 Y164.885 E713.22492
G1 X138.015 Y163.471 E713.36601
G1 X81.984 Y107.439 E721.27266
G1 X81.984 Y106.025 E721.41375
G1 X138.015 Y162.056 E729.32033
G1 X138.015 Y160.642 E729.46142
G1 X81.984 Y104.611 E737.368
G1 X81.984 Y103.197 E737.50909
G1 X138.015 Y159.228 E745.41567
G1 X138.015 Y157.814 E745.55676
G1 X81.984 Y101.783 E753.46334
G1 X81.984 Y100.368 E753.60453
G1 X138.015 Y156.399 E761.51111
G1 X138.015 Y154.985 E761.6522
G1 X81.984 Y98.954 E769.55878
G1 X81.984 Y97.54 E769.69987
G1 X138.015 Y153.571 E777.60645
G1 X138.015 Y152.157 E777.74753
G1 X81.984 Y96.126 E785.65411
G1 X81.984 Y94.712 E785.7952
G1 X138.015 Y150.743 E793.70178
G1 X138.015 Y149.328 E793.84297
G1 X81.984 Y93.297 E801.74955
G1 X81.984 Y91.883 E801.89064
G1 X138.015 Y147.914 E809.79722
G1 X138.015 Y146.5 E809.93831
G1 X81.984 Y90.469 E817.84489
G1 X81.984 Y89.055 E817.98598
G1 X138.015 Y145.086 E825.89256
G1 X138.015 Y143.672 E826.03365
G1 X81.984 Y87.64 E833.9403
G1 X81.984 Y86.226 E834.08139
G1 X138.015 Y142.257 E841.98797
G1 X138.015 Y140.843 E842.12906
G1 X81.984 Y84.812 E850.03564
G1 X81.984 Y83.398 E850.17672
G1 X138.015 Y139.429 E858.0833
G1 X138.015 Y138.015 E858.22439
G1 X81.984 Y81.984 E866.13097
G1 X81.984 Y80.569 E866.27216
G1 X138.015 Y136.601 E874.17881
G1 X138.015 Y135.186 E874.32
G1 X81.984 Y79.155 E882.22658
G1 X81.984 Y77.741 E882.36767
G1 X138.015 Y133.772 E890.27425
G1 X138.015 Y132.358 E890.41534
G1 X81.984 Y76.327 E898.32192
G1 X81.984 Y74.913 E898.46301
G1 X138.015 Y130.944 E906.36959
G1 X138.015 Y129.529 E906.51078
G1 X81.984 Y73.498 E914.41736
G1 X81.984 Y72.084 E914.55845
G1 X138.015 Y128.115 E922.46503
G1 X138.015 Y126.701 E922.60611
G1 X81.984 Y70.67 E930.51269
G1 X81.984 Y69.256 E930.65378
G1 X138.015 Y125.287 E938.56036
G1 X138.015 Y123.873 E938.70145
G1 X81.984 Y67.841 E946.6081
G1 X81.984 Y66.427 E946.74919
G1 X138.015 Y122.458 E954.65577
G1 X138.015 Y121.044 E954.79686
G1 X81.984 Y65.013 E962.70344
G1 X81.984 Y63.599 E962.84453
G1 X138.015 Y119.63 E970.75111
G1 X138.015 Y118.216 E970.8922
G1 X81.984 Y62.185 E978.79878
G1 X81.984 Y60.77 E978.93997
G1 X138.015 Y116.802 E986.84662
G1 X138.015 Y115.387 E986.98781
G1 X81.984 Y59.356 E994.89439
G1 X81.984 Y57.942 E995.03547
G1 X138.015 Y113.973 E1002.94205
G1 X138.015 Y112.559 E1003.08314
G1 X81.984 Y56.528 E1010.98972
G1 X81.984 Y55.114 E1011.13081
G1 X138.015 Y111.145 E1019.03739
G1 X138.014 Y109.73 E1019.17858
G1 X81.984 Y53.699 E1027.08509
G1 X81.984 Y52.285 E1027.22618
G1 X138.014 Y108.316 E1035.13269
G1 X138.014 Y106.901 E1035.27388
G1 X81.984 Y50.871 E1043.18032
G1 X81.984 Y49.513 E1043.31582
G1 X81.985 Y49.458 E1043.32131
G1 X138.014 Y105.487 E1051.2276
G1 X138.014 Y104.073 E1051.36869
G1 X82.058 Y48.117 E1059.26469
G1 X82.132 Y47.456 E1059.33106
G1 X82.157 Y47.281 E1059.34869
G1 X82.231 Y46.876 E1059.38977
G1 X138.014 Y102.659 E1067.26136
G1 X138.014 Y101.244 E1067.40255
G1 X82.491 Y45.722 E1075.23737
G1 X82.58 Y45.383 E1075.27234
