;FLAVOR:Marlin
;TIME:13124
;Filament used: 14.6794m
;Layer height: 0.2
;MINX:19.614
;MINY:38.656
;MINZ:0.24
;MAXX:200.387
;MAXY:197.209
;MAXZ:53.97
;Generated with Cura_SteamEngine 4.6.1
M140 S50
M105
M190 S50
M104 S200
M105
M109 S200
M82 ;absolute extrusion mode
M201 X500.00 Y500.00 Z100.00 E5000.00 ;Setup machine max acceleration
M203 X500.00 Y500.00 Z10.00 E50.00 ;Setup machine max feedrate
M204 P500.00 R1000.00 T500.00 ;Setup Print/Retract/Travel acceleration
M205 X8.00 Y8.00 Z0.40 E5.00 ;Setup Jerk
M220 S100 ;Reset Feedrate
M221 S100 ;Reset Flowrate

G28 ;Home

G92 E0 ;Reset Extruder
G1 Z2.0 F3000 ;Move Z Axis up
G1 X10.1 Y20 Z0.28 F5000.0 ;Move to start position
G1 X10.1 Y200.0 Z0.28 F1500.0 E15 ;Draw the first line
G1 X10.4 Y200.0 Z0.28 F5000.0 ;Move to side a little
G1 X10.4 Y20 Z0.28 F1500.0 E30 ;Draw the second line
G92 E0 ;Reset Extruder
G1 Z2.0 F3000 ;Move Z Axis up

G92 E0
G92 E0
G1 F2700 E-5
;LAYER_COUNT:224
;LAYER:-6
M107
G0 F12000 X32.556 Y160.025 Z0.24
;TYPE:SUPPORT-INTERFACE
G1 F2700 E0
G1 F1800 X32.686 Y160.002 E0.01054
G1 X33.591 Y159.868 E0.08357
G1 X33.76 Y159.85 E0.09713
G1 X34.833 Y159.775 E0.18299
G1 X35.338 Y159.767 E0.22331
G1 X184.69 Y159.767 E12.14523
G1 X184.725 Y159.768 E12.14803
G1 X185.849 Y159.813 E12.23782
G1 X186.766 Y159.915 E12.31147
G1 X186.941 Y159.94 E12.32558
G1 X187.83 Y160.104 E12.39774
G1 X187.953 Y160.132 E12.40781
G1 X188.847 Y160.366 E12.48158
G1 X189.01 Y160.415 E12.49517
G1 X189.852 Y160.702 E12.56618
G1 X190.018 Y160.765 E12.58035
G1 X190.821 Y161.106 E12.64999
G1 X191.01 Y161.194 E12.66663
G1 X191.921 Y161.668 E12.74861
G1 X192.7 Y162.143 E12.82144
G1 X192.851 Y162.243 E12.83589
G1 X193.565 Y162.754 E12.90598
G1 X193.713 Y162.867 E12.92085
G1 X194.404 Y163.443 E12.99265
G1 X194.517 Y163.544 E13.00475
G1 X195.166 Y164.169 E13.07668
G1 X195.286 Y164.294 E13.09051
G1 X195.889 Y164.965 E13.16252
G1 X195.985 Y165.081 E13.17454
G1 X196.544 Y165.805 E13.24755
G1 X196.638 Y165.936 E13.26042
G1 X197.138 Y166.69 E13.33264
G1 X197.214 Y166.816 E13.34439
G1 X197.66 Y167.61 E13.41708
G1 X197.738 Y167.76 E13.43058
G1 X198.121 Y168.575 E13.50246
G1 X198.181 Y168.718 E13.51484
G1 X198.51 Y169.577 E13.58827
G1 X198.562 Y169.727 E13.60094
G1 X198.817 Y170.577 E13.67178
G1 X198.863 Y170.75 E13.68607
G1 X199.062 Y171.636 E13.75855
G1 X199.087 Y171.775 E13.76983
G1 X199.22 Y172.674 E13.84237
G1 X199.238 Y172.836 E13.85538
G1 X199.314 Y173.922 E13.94228
G1 X199.322 Y174.423 E13.98228
G1 X199.322 Y181.53 E14.54959
G1 X199.286 Y182.536 E14.62995
G1 X199.276 Y182.671 E14.64075
G1 X199.174 Y183.588 E14.7144
G1 X199.149 Y183.763 E14.72851
G1 X198.987 Y184.641 E14.79978
G1 X198.957 Y184.775 E14.81074
G1 X198.726 Y185.66 E14.88375
G1 X198.674 Y185.832 E14.8981
G1 X198.398 Y186.644 E14.96656
G1 X198.318 Y186.853 E14.98442
G1 X197.983 Y187.643 E15.05292
G1 X197.902 Y187.818 E15.06831
G1 X197.486 Y188.626 E15.14086
G1 X196.946 Y189.522 E15.22436
G1 X196.846 Y189.673 E15.23882
G1 X196.335 Y190.387 E15.30891
G1 X196.222 Y190.535 E15.32377
G1 X195.646 Y191.226 E15.39558
G1 X195.545 Y191.339 E15.40768
G1 X194.92 Y191.988 E15.4796
G1 X194.795 Y192.108 E15.49343
G1 X194.125 Y192.71 E15.56533
G1 X194.008 Y192.807 E15.57746
G1 X193.296 Y193.357 E15.64928
G1 X193.137 Y193.47 E15.66485
G1 X192.399 Y193.96 E15.73556
G1 X192.273 Y194.036 E15.74731
G1 X191.479 Y194.482 E15.82001
G1 X191.328 Y194.56 E15.83357
G1 X190.514 Y194.943 E15.90538
G1 X190.371 Y195.003 E15.91776
G1 X189.512 Y195.332 E15.99119
G1 X189.362 Y195.384 E16.00386
G1 X188.512 Y195.639 E16.0747
G1 X188.339 Y195.685 E16.08899
G1 X187.444 Y195.886 E16.16221
G1 X187.314 Y195.909 E16.17275
G1 X186.409 Y196.043 E16.24578
G1 X186.241 Y196.061 E16.25926
G1 X185.167 Y196.136 E16.3452
G1 X184.662 Y196.144 E16.38552
G1 X35.31 Y196.144 E28.30744
G1 X35.275 Y196.143 E28.31024
G1 X34.151 Y196.098 E28.40003
G1 X33.234 Y195.996 E28.47368
G1 X33.059 Y195.971 E28.48779
G1 X32.17 Y195.807 E28.55996
G1 X32.047 Y195.779 E28.57003
G1 X31.153 Y195.545 E28.64379
G1 X30.99 Y195.496 E28.65738
G1 X30.148 Y195.209 E28.72839
G1 X29.982 Y195.146 E28.74256
G1 X29.179 Y194.805 E28.8122
G1 X28.99 Y194.717 E28.82884
G1 X28.079 Y194.243 E28.91082
G1 X27.3 Y193.768 E28.98365
G1 X27.149 Y193.668 E28.9981
G1 X26.435 Y193.157 E29.06819
G1 X26.287 Y193.044 E29.08306
G1 X25.596 Y192.468 E29.15486
G1 X25.483 Y192.367 E29.16696
G1 X24.834 Y191.742 E29.23889
G1 X24.714 Y191.617 E29.25272
G1 X24.111 Y190.946 E29.32473
G1 X24.014 Y190.828 E29.33692
G1 X23.456 Y190.106 E29.40976
G1 X23.352 Y189.959 E29.42414
G1 X22.859 Y189.216 E29.49531
G1 X22.786 Y189.095 E29.50659
G1 X22.334 Y188.29 E29.58029
G1 X22.262 Y188.151 E29.59279
G1 X21.865 Y187.305 E29.66738
G1 X21.819 Y187.193 E29.67705
G1 X21.49 Y186.334 E29.75047
G1 X21.433 Y186.169 E29.76441
G1 X21.183 Y185.334 E29.83399
G1 X21.137 Y185.161 E29.84828
G1 X20.935 Y184.26 E29.92198
G1 X20.913 Y184.136 E29.93204
G1 X20.778 Y183.222 E30.00579
G1 X20.761 Y183.062 E30.01863
G1 X20.686 Y181.989 E30.10449
G1 X20.678 Y181.488 E30.14449
G1 X20.678 Y174.381 E30.7118
G1 X20.714 Y173.375 E30.79215
G1 X20.724 Y173.24 E30.80296
G1 X20.826 Y172.323 E30.87661
G1 X20.851 Y172.148 E30.89072
G1 X21.013 Y171.27 E30.96199
G1 X21.043 Y171.136 E30.97295
G1 X21.274 Y170.251 E31.04596
G1 X21.326 Y170.079 E31.06031
G1 X21.613 Y169.237 E31.13132
G1 X21.676 Y169.071 E31.14549
G1 X22.017 Y168.268 E31.21513
G1 X22.098 Y168.093 E31.23052
G1 X22.579 Y167.168 E31.31374
G1 X23.054 Y166.389 E31.38658
G1 X23.154 Y166.238 E31.40103
G1 X23.665 Y165.524 E31.47112
G1 X23.778 Y165.376 E31.48598
G1 X24.354 Y164.685 E31.55779
G1 X24.455 Y164.572 E31.56989
G1 X25.08 Y163.923 E31.64181
G1 X25.205 Y163.803 E31.65565
G1 X25.876 Y163.2 E31.72766
G1 X25.992 Y163.104 E31.73968
G1 X26.704 Y162.554 E31.81149
G1 X26.863 Y162.441 E31.82706
G1 X27.601 Y161.951 E31.89778
G1 X27.727 Y161.875 E31.90952
G1 X28.521 Y161.429 E31.98222
G1 X28.671 Y161.351 E31.99571
G1 X29.486 Y160.968 E32.0676
G1 X29.629 Y160.908 E32.07998
G1 X30.488 Y160.579 E32.1534
G1 X30.638 Y160.527 E32.16607
G1 X31.488 Y160.272 E32.23691
G1 X31.661 Y160.226 E32.2512
G1 X32.556 Y160.025 E32.32442
G0 F12000 X32 Y160.149
G1 F1800 X32 Y195.766 E35.16753
G0 F12000 X33.6 Y196.036
G1 F1800 X33.6 Y159.867 E38.05469
G0 F12000 X35.2 Y159.769
G1 F1800 X35.2 Y196.139 E40.9579
G0 F12000 X36.8 Y196.144
G1 F1800 X36.8 Y159.767 E43.86167
G0 F12000 X38.4 Y159.767
G1 F1800 X38.4 Y196.144 E46.76544
G0 F12000 X40 Y196.144
G1 F1800 X40 Y159.767 E49.66921
G0 F12000 X41.6 Y159.767
G1 F1800 X41.6 Y196.144 E52.57298
G0 F12000 X43.2 Y196.144
G1 F1800 X43.2 Y159.767 E55.47675
G0 F12000 X44.8 Y159.767
G1 F1800 X44.8 Y196.144 E58.38052
G0 F12000 X46.4 Y196.144
G1 F1800 X46.4 Y159.767 E61.28429
G0 F12000 X48 Y159.767
G1 F1800 X48 Y196.144 E64.18806
G0 F12000 X49.6 Y196.144
G1 F1800 X49.6 Y159.767 E67.09183
G0 F12000 X51.2 Y159.767
G1 F1800 X51.2 Y196.144 E69.9956
G0 F12000 X52.8 Y196.144
G1 F1800 X52.8 Y159.767 E72.89937
G0 F12000 X54.4 Y159.767
G1 F1800 X54.4 Y196.144 E75.80314
G0 F12000 X56 Y196.144
G1 F1800 X56 Y159.767 E78.70691
G0 F12000 X57.6 Y159.767
G1 F1800 X57.6 Y196.144 E81.61068
G0 F12000 X59.2 Y196.144
G1 F1800 X59.2 Y159.767 E84.51445
G0 F12000 X60.8 Y159.767
G1 F1800 X60.8 Y196.144 E87.41822
G0 F12000 X62.4 Y196.144
G1 F1800 X62.4 Y159.767 E90.32198
G0 F12000 X64 Y159.767
G1 F1800 X64 Y196.144 E93.22575
G0 F12000 X65.6 Y196.144
G1 F1800 X65.6 Y159.767 E96.12952
G0 F12000 X67.2 Y159.767
G1 F1800 X67.2 Y196.144 E99.03329
G0 F12000 X68.8 Y196.144
G1 F1800 X68.8 Y159.767 E101.93706
G0 F12000 X70.4 Y159.767
G1 F1800 X70.4 Y196.144 E104.84083
G0 F12000 X72 Y196.144
G1 F1800 X72 Y159.767 E107.7446
G0 F12000 X73.6 Y159.767
G1 F1800 X73.6 Y196.144 E110.64837
G0 F12000 X75.2 Y196.144
G1 F1800 X75.2 Y159.767 E113.55214
G0 F12000 X76.8 Y159.767
G1 F1800 X76.8 Y196.144 E116.45591
G0 F12000 X78.4 Y196.144
G1 F1800 X78.4 Y159.767 E119.35968
G0 F12000 X80 Y159.767
G1 F1800 X80 Y196.144 E122.26345
G0 F12000 X81.6 Y196.144
G1 F1800 X81.6 Y159.767 E125.16722
G0 F12000 X83.2 Y159.767
G1 F1800 X83.2 Y196.144 E128.07099
G0 F12000 X84.8 Y196.144
G1 F1800 X84.8 Y159.767 E130.97476
G0 F12000 X86.4 Y159.767
G1 F1800 X86.4 Y196.144 E133.87853
G0 F12000 X88 Y196.144
G1 F1800 X88 Y159.767 E136.7823
G0 F12000 X89.6 Y159.767
G1 F1800 X89.6 Y196.144 E139.68607
G0 F12000 X91.2 Y196.144
G1 F1800 X91.2 Y159.767 E142.58983
G0 F12000 X92.8 Y159.767
G1 F1800 X92.8 Y196.144 E145.4936
G0 F12000 X94.4 Y196.144
G1 F1800 X94.4 Y159.767 E148.39737
G0 F12000 X96 Y159.767
G1 F1800 X96 Y196.144 E151.30114
G0 F12000 X97.6 Y196.144
G1 F1800 X97.6 Y159.767 E154.20491
G0 F12000 X99.2 Y159.767
G1 F1800 X99.2 Y196.144 E157.10868
G0 F12000 X100.8 Y196.144
G1 F1800 X100.8 Y159.767 E160.01245
G0 F12000 X102.4 Y159.767
G1 F1800 X102.4 Y196.144 E162.91622
G0 F12000 X104 Y196.144
G1 F1800 X104 Y159.767 E165.81999
G0 F12000 X105.6 Y159.767
G1 F1800 X105.6 Y196.144 E168.72376
G0 F12000 X107.2 Y196.144
G1 F1800 X107.2 Y159.767 E171.62753
G0 F12000 X108.8 Y159.767
G1 F1800 X108.8 Y196.144 E174.5313
G0 F12000 X110.4 Y196.144
G1 F1800 X110.4 Y159.767 E177.43507
G0 F12000 X112 Y159.767
G1 F1800 X112 Y196.144 E180.33884
G0 F12000 X113.6 Y196.144
G1 F1800 X113.6 Y159.767 E183.24261
G0 F12000 X115.2 Y159.767
G1 F1800 X115.2 Y196.144 E186.14638
G0 F12000 X116.8 Y196.144
G1 F1800 X116.8 Y159.767 E189.05015
G0 F12000 X118.4 Y159.767
G1 F1800 X118.4 Y196.144 E191.95392
G0 F12000 X120 Y196.144
G1 F1800 X120 Y159.767 E194.85768
G0 F12000 X121.6 Y159.767
G1 F1800 X121.6 Y196.144 E197.76145
G0 F12000 X123.2 Y196.144
G1 F1800 X123.2 Y159.767 E200.66522
G0 F12000 X124.8 Y159.767
G1 F1800 X124.8 Y196.144 E203.56899
G0 F12000 X126.4 Y196.144
G1 F1800 X126.4 Y159.767 E206.47276
G0 F12000 X128 Y159.767
G1 F1800 X128 Y196.144 E209.37653
G0 F12000 X129.6 Y196.144
G1 F1800 X129.6 Y159.767 E212.2803
G0 F12000 X131.2 Y159.767
G1 F1800 X131.2 Y196.144 E215.18407
G0 F12000 X132.8 Y196.144
G1 F1800 X132.8 Y159.767 E218.08784
G0 F12000 X134.4 Y159.767
G1 F1800 X134.4 Y196.144 E220.99161
G0 F12000 X136 Y196.144
G1 F1800 X136 Y159.767 E223.89538
G0 F12000 X137.6 Y159.767
G1 F1800 X137.6 Y196.144 E226.79915
G0 F12000 X139.2 Y196.144
G1 F1800 X139.2 Y159.767 E229.70292
G0 F12000 X140.8 Y159.767
G1 F1800 X140.8 Y196.144 E232.60669
G0 F12000 X142.4 Y196.144
G1 F1800 X142.4 Y159.767 E235.51046
G0 F12000 X144 Y159.767
G1 F1800 X144 Y196.144 E238.41423
G0 F12000 X145.6 Y196.144
G1 F1800 X145.6 Y159.767 E241.318
G0 F12000 X147.2 Y159.767
G1 F1800 X147.2 Y196.144 E244.22177
G0 F12000 X148.8 Y196.144
G1 F1800 X148.8 Y159.767 E247.12553
G0 F12000 X150.4 Y159.767
G1 F1800 X150.4 Y196.144 E250.0293
G0 F12000 X152 Y196.144
G1 F1800 X152 Y159.767 E252.93307
G0 F12000 X153.6 Y159.767
G1 F1800 X153.6 Y196.144 E255.83684
G0 F12000 X155.2 Y196.144
G1 F1800 X155.2 Y159.767 E258.74061
G0 F12000 X156.8 Y159.767
G1 F1800 X156.8 Y196.144 E261.64438
G0 F12000 X158.4 Y196.144
G1 F1800 X158.4 Y159.767 E264.54815
G0 F12000 X160 Y159.767
G1 F1800 X160 Y196.144 E267.45192
G0 F12000 X161.6 Y196.144
G1 F1800 X161.6 Y159.767 E270.35569
G0 F12000 X163.2 Y159.767
G1 F1800 X163.2 Y196.144 E273.25946
G0 F12000 X164.8 Y196.144
G1 F1800 X164.8 Y159.767 E276.16323
G0 F12000 X166.4 Y159.767
G1 F1800 X166.4 Y196.144 E279.067
G0 F12000 X168 Y196.144
G1 F1800 X168 Y159.767 E281.97077
G0 F12000 X169.6 Y159.767
G1 F1800 X169.6 Y196.144 E284.87454
G0 F12000 X171.2 Y196.144
G1 F1800 X171.2 Y159.767 E287.77831
G0 F12000 X172.8 Y159.767
G1 F1800 X172.8 Y196.144 E290.68208
G0 F12000 X174.4 Y196.144
G1 F1800 X174.4 Y159.767 E293.58585
G0 F12000 X176 Y159.767
G1 F1800 X176 Y196.144 E296.48961
G0 F12000 X177.6 Y196.144
G1 F1800 X177.6 Y159.767 E299.39338
G0 F12000 X179.2 Y159.767
G1 F1800 X179.2 Y196.144 E302.29715
G0 F12000 X180.8 Y196.144
G1 F1800 X180.8 Y159.767 E305.20092
G0 F12000 X182.4 Y159.767
G1 F1800 X182.4 Y196.144 E308.10469
G0 F12000 X184 Y196.144
G1 F1800 X184 Y159.767 E311.00846
G0 F12000 X185.6 Y159.804
G1 F1800 X185.6 Y196.106 E313.90624
G0 F12000 X187.2 Y195.926
G1 F1800 X187.2 Y159.988 E316.77497
G0 F12000 X188.8 Y160.354
G1 F1800 X188.8 Y195.553 E319.58471
G0 F12000 X190.4 Y194.991
G1 F1800 X190.4 Y160.928 E322.30376
G0 F12000 X192 Y161.717
G1 F1800 X192 Y194.19 E324.8959
G0 F12000 X193.6 Y193.123
G1 F1800 X193.6 Y162.781 E327.31793
G0 F12000 X195.2 Y164.205
G1 F1800 X195.2 Y191.698 E329.51254
G0 F12000 X196.8 Y189.738
G1 F1800 X196.8 Y166.181 E331.39296
G0 F12000 X198.4 Y169.29
G1 F1800 X198.4 Y186.639 E332.77783
G1 F2700 E327.77783
G0 F12000 X199.309 Y187.244
G0 X198.427 Y189.124
G0 X197.718 Y190.283
G0 X196.447 Y191.927
G0 X195.524 Y192.884
G0 X193.923 Y194.217
G0 X192.804 Y194.959
G0 X190.939 Y195.919
G0 X189.68 Y196.4
G0 X187.656 Y196.929
G0 X186.343 Y197.12
G0 X184.669 Y197.209
G0 X34.221 Y197.17
G0 X32.895 Y197.023
G0 X31.747 Y196.768
G0 X30.658 Y196.508
G0 X30.4 Y195.294
G1 F2700 E332.77783
G1 F1800 X30.4 Y160.612 E335.5463
G0 F12000 X28.8 Y161.29
G1 F1800 X28.8 Y194.618 E338.20668
G0 F12000 X27.2 Y193.701
G1 F1800 X27.2 Y162.217 E340.71987
G0 F12000 X25.6 Y163.448
G1 F1800 X25.6 Y192.471 E343.03662
G0 F12000 X24 Y190.809
G1 F1800 X24 Y165.109 E345.0881
G0 F12000 X22.4 Y167.512
G1 F1800 X22.4 Y188.407 E346.75603
G1 F2700 E341.75603
G0 F12000 X21.312 Y188.63
G0 X20.491 Y186.703
G0 X20.273 Y185.978
G0 X19.861 Y184.302
G0 X20.8 Y183.37
G1 F2700 E346.75603
G1 F1800 X20.8 Y172.556 E347.61925
G1 F2700 E342.61925
G0 F300 X20.8 Y172.556 Z0.54
G0 F12000 X19.665 Y173.136
G0 X19.614 Y174.356
G0 X19.632 Y182.231
G0 X19.861 Y184.302
G0 X20.157 Y185.617
G0 X20.828 Y187.582
G0 X21.4 Y188.801
G0 X22.479 Y190.567
G0 X22.714 Y190.872
G0 X23.923 Y192.328
G0 X24.714 Y191.616
;TIME_ELAPSED:167.930489
;LAYER:-5
M140 S50
;TYPE:SUPPORT
G1 F2700 E347.61925
G1 F1800 X24.834 Y191.741 E347.63654
G1 X25.483 Y192.366 E347.72644
G1 X25.539 Y192.416 E347.73393
G1 X24.487 Y191.365 E347.88231
G1 X24.11 Y190.945 E347.93863
G1 X24.014 Y190.827 E347.9538
G1 X23.456 Y190.105 E348.04485
G1 X23.352 Y189.957 E348.0629
G1 X22.858 Y189.215 E348.15185
G1 X22.785 Y189.094 E348.16595
G1 X22.333 Y188.289 E348.25807
G1 X22.261 Y188.15 E348.27369
G1 X21.885 Y187.348 E348.36207
G1 X29.46 Y194.923 E349.43098
G1 X29.982 Y195.145 E349.48758
G1 X30.148 Y195.208 E349.5053
G1 X30.989 Y195.495 E349.59397
G1 X31.153 Y195.544 E349.61105
G1 X31.616 Y195.665 E349.6588
G1 X21.146 Y185.194 E351.1363
G1 X21.136 Y185.16 E351.13983
G1 X20.934 Y184.259 E351.23197
G1 X20.912 Y184.135 E351.24453
G1 X20.81 Y183.444 E351.31423
G1 X33.376 Y196.011 E353.0875
G1 X34.151 Y196.096 E353.16529
G1 X34.907 Y196.127 E353.24079
G1 X20.684 Y181.904 E355.24781
G1 X20.677 Y181.486 E355.28952
G1 X20.677 Y180.484 E355.3895
G1 X36.336 Y196.142 E357.59908
G1 X37.751 Y196.142 E357.74027
G1 X20.677 Y179.069 E360.14953
G1 X20.677 Y177.655 E360.29062
G1 X39.165 Y196.142 E362.8994
G1 X40.579 Y196.142 E363.04049
G1 X20.677 Y176.241 E365.84881
G1 X20.677 Y174.827 E365.9899
G1 X41.993 Y196.142 E368.99775
G1 X43.407 Y196.142 E369.13884
G1 X20.711 Y173.446 E372.34149
G1 X20.713 Y173.374 E372.34867
G1 X20.723 Y173.239 E372.36218
G1 X20.825 Y172.321 E372.45434
G1 X20.846 Y172.167 E372.46985
G1 X44.822 Y196.142 E375.85305
G1 X46.236 Y196.142 E375.99414
G1 X21.081 Y170.988 E379.54371
G1 X21.274 Y170.25 E379.61983
G1 X21.325 Y170.078 E379.63773
G1 X21.391 Y169.883 E379.65827
G1 X47.65 Y196.142 E383.3637
G1 X49.064 Y196.142 E383.50479
G1 X21.769 Y168.847 E387.35641
G1 X22.016 Y168.267 E387.41931
G1 X22.097 Y168.092 E387.43855
G1 X22.21 Y167.874 E387.46305
G1 X50.478 Y196.142 E391.45197
G1 X51.893 Y196.142 E391.59316
G1 X22.707 Y166.957 E395.71155
G1 X23.053 Y166.388 E395.778
G1 X23.154 Y166.237 E395.79613
G1 X23.256 Y166.092 E395.81381
G1 X53.307 Y196.142 E400.05427
G1 X54.721 Y196.142 E400.19535
G1 X23.857 Y165.279 E404.55053
G1 X24.353 Y164.684 E404.62782
G1 X24.455 Y164.571 E404.64301
G1 X24.508 Y164.515 E404.6507
G1 X56.135 Y196.142 E409.11361
G1 X57.55 Y196.142 E409.2548
G1 X25.207 Y163.8 E413.81868
G1 X25.875 Y163.198 E413.90841
G1 X25.955 Y163.134 E413.91863
G1 X58.964 Y196.142 E418.57648
G1 X60.378 Y196.142 E418.71757
