;FLAVOR:Marlin
;TIME:8522
;Filament used: 12.146m
;Layer height: 0.2
;MINX:80.921
;MINY:40.336
;MINZ:0.24
;MAXX:139.061
;MAXY:179.665
;MAXZ:71.13
;Generated with Cura_SteamEngine 4.6.1
M140 S50
M105
M190 S50
M104 S200
M105
M109 S200
M82 ;absolute extrusion mode
M201 X500.00 Y500.00 Z100.00 E5000.00 ;Setup machine max acceleration
M203 X500.00 Y500.00 Z10.00 E50.00 ;Setup machine max feedrate
M204 P500.00 R1000.00 T500.00 ;Setup Print/Retract/Travel acceleration
M205 X8.00 Y8.00 Z0.40 E5.00 ;Setup Jerk
M220 S100 ;Reset Feedrate
M221 S100 ;Reset Flowrate

G28 ;Home

G92 E0 ;Reset Extruder
G1 Z2.0 F3000 ;Move Z Axis up
G1 X10.1 Y20 Z0.28 F5000.0 ;Move to start position
G1 X10.1 Y200.0 Z0.28 F1500.0 E15 ;Draw the first line
G1 X10.4 Y200.0 Z0.28 F5000.0 ;Move to side a little
G1 X10.4 Y20 Z0.28 F1500.0 E30 ;Draw the second line
G92 E0 ;Reset Extruder
G1 Z2.0 F3000 ;Move Z Axis up

G92 E0
G92 E0
G1 F2700 E-5
;LAYER_COUNT:293
;LAYER:-6
M107
G0 F12000 X83.886 Y48.801 Z0.24
;TYPE:SUPPORT-INTERFACE
G1 F2700 E0
G1 F1800 X84.361 Y48.022 E0.07283
G1 X84.461 Y47.871 E0.08729
G1 X84.972 Y47.157 E0.15738
G1 X85.085 Y47.009 E0.17224
G1 X85.661 Y46.318 E0.24405
G1 X85.762 Y46.205 E0.25615
G1 X86.387 Y45.556 E0.32807
G1 X86.512 Y45.436 E0.3419
G1 X87.183 Y44.833 E0.41391
G1 X87.299 Y44.737 E0.42593
G1 X88.011 Y44.187 E0.49775
G1 X88.17 Y44.074 E0.51332
G1 X88.908 Y43.584 E0.58403
G1 X89.034 Y43.508 E0.59578
G1 X89.828 Y43.062 E0.66847
G1 X89.978 Y42.984 E0.68197
G1 X90.793 Y42.601 E0.75385
G1 X90.936 Y42.541 E0.76623
G1 X91.795 Y42.212 E0.83966
G1 X91.945 Y42.16 E0.85233
G1 X92.795 Y41.905 E0.92317
G1 X92.968 Y41.859 E0.93746
G1 X93.863 Y41.658 E1.01068
G1 X93.993 Y41.635 E1.02122
G1 X94.898 Y41.501 E1.09425
G1 X95.067 Y41.483 E1.10781
G1 X96.14 Y41.408 E1.19367
G1 X96.645 Y41.4 E1.23399
G1 X123.418 Y41.401 E3.37113
G1 X124.542 Y41.446 E3.46092
G1 X125.459 Y41.548 E3.53457
G1 X125.634 Y41.573 E3.54868
G1 X126.523 Y41.737 E3.62084
G1 X126.646 Y41.765 E3.63091
G1 X127.54 Y41.999 E3.70468
G1 X127.703 Y42.048 E3.71827
G1 X128.545 Y42.335 E3.78928
G1 X128.711 Y42.398 E3.80345
G1 X129.514 Y42.739 E3.87309
G1 X129.703 Y42.827 E3.88973
G1 X130.614 Y43.301 E3.97171
G1 X131.393 Y43.776 E4.04454
G1 X131.544 Y43.876 E4.05899
G1 X132.258 Y44.387 E4.12908
G1 X132.406 Y44.5 E4.14395
G1 X133.097 Y45.076 E4.21575
G1 X133.21 Y45.177 E4.22785
G1 X133.859 Y45.802 E4.29978
G1 X133.979 Y45.927 E4.31361
G1 X134.582 Y46.598 E4.38562
G1 X134.678 Y46.714 E4.39764
G1 X135.237 Y47.438 E4.47065
G1 X135.331 Y47.569 E4.48352
G1 X135.831 Y48.323 E4.55574
G1 X135.907 Y48.449 E4.56749
G1 X136.353 Y49.243 E4.64018
G1 X136.431 Y49.393 E4.65368
G1 X136.814 Y50.208 E4.72556
G1 X136.874 Y50.351 E4.73794
G1 X137.203 Y51.21 E4.81137
G1 X137.255 Y51.36 E4.82404
G1 X137.51 Y52.21 E4.89488
G1 X137.556 Y52.383 E4.90917
G1 X137.755 Y53.269 E4.98165
G1 X137.78 Y53.408 E4.99293
G1 X137.913 Y54.307 E5.06547
G1 X137.931 Y54.469 E5.07848
G1 X138.007 Y55.555 E5.16538
G1 X138.015 Y56.056 E5.20538
G1 X138.015 Y163.986 E13.82082
G1 X137.979 Y164.992 E13.90117
G1 X137.969 Y165.127 E13.91198
G1 X137.867 Y166.044 E13.98563
G1 X137.842 Y166.219 E13.99974
G1 X137.68 Y167.097 E14.07101
G1 X137.65 Y167.231 E14.08197
G1 X137.419 Y168.116 E14.15498
G1 X137.367 Y168.288 E14.16933
G1 X137.091 Y169.1 E14.23778
G1 X137.011 Y169.309 E14.25565
G1 X136.676 Y170.099 E14.32415
G1 X136.595 Y170.274 E14.33954
G1 X136.179 Y171.082 E14.41208
G1 X135.639 Y171.978 E14.49559
G1 X135.539 Y172.129 E14.51005
G1 X135.028 Y172.843 E14.58013
G1 X134.915 Y172.991 E14.595
G1 X134.339 Y173.682 E14.66681
G1 X134.238 Y173.795 E14.67891
G1 X133.613 Y174.444 E14.75083
G1 X133.488 Y174.564 E14.76466
G1 X132.818 Y175.166 E14.83656
G1 X132.701 Y175.263 E14.84869
G1 X131.989 Y175.813 E14.92051
G1 X131.83 Y175.926 E14.93608
G1 X131.092 Y176.416 E15.00679
G1 X130.966 Y176.492 E15.01854
G1 X130.172 Y176.938 E15.09123
G1 X130.021 Y177.016 E15.1048
G1 X129.207 Y177.399 E15.17661
G1 X129.064 Y177.459 E15.18899
G1 X128.205 Y177.788 E15.26242
G1 X128.055 Y177.84 E15.27509
G1 X127.205 Y178.095 E15.34593
G1 X127.032 Y178.141 E15.36022
G1 X126.137 Y178.342 E15.43344
G1 X126.007 Y178.365 E15.44398
G1 X125.102 Y178.499 E15.51701
G1 X124.934 Y178.517 E15.53049
G1 X123.86 Y178.592 E15.61643
G1 X123.355 Y178.6 E15.65675
G1 X96.582 Y178.599 E17.79389
G1 X95.458 Y178.554 E17.88368
G1 X94.541 Y178.452 E17.95733
G1 X94.366 Y178.427 E17.97144
G1 X93.477 Y178.263 E18.0436
G1 X93.354 Y178.235 E18.05367
G1 X92.46 Y178.001 E18.12744
G1 X92.297 Y177.952 E18.14103
G1 X91.455 Y177.665 E18.21203
G1 X91.289 Y177.602 E18.22621
G1 X90.486 Y177.261 E18.29585
G1 X90.297 Y177.173 E18.31249
G1 X89.386 Y176.699 E18.39446
G1 X88.607 Y176.224 E18.46729
G1 X88.456 Y176.124 E18.48175
G1 X87.742 Y175.613 E18.55184
G1 X87.594 Y175.5 E18.5667
G1 X86.903 Y174.924 E18.63851
G1 X86.79 Y174.823 E18.65061
G1 X86.141 Y174.198 E18.72253
G1 X86.021 Y174.073 E18.73636
G1 X85.418 Y173.402 E18.80838
G1 X85.321 Y173.284 E18.82057
G1 X84.763 Y172.562 E18.89341
G1 X84.659 Y172.415 E18.90778
G1 X84.166 Y171.672 E18.97896
G1 X84.093 Y171.551 E18.99024
G1 X83.641 Y170.746 E19.06394
G1 X83.569 Y170.607 E19.07643
G1 X83.172 Y169.761 E19.15103
G1 X83.126 Y169.649 E19.1607
G1 X82.797 Y168.79 E19.23412
G1 X82.74 Y168.625 E19.24806
G1 X82.49 Y167.79 E19.31763
G1 X82.444 Y167.617 E19.33192
G1 X82.242 Y166.716 E19.40563
G1 X82.22 Y166.592 E19.41568
G1 X82.085 Y165.678 E19.48943
G1 X82.068 Y165.518 E19.50228
G1 X81.993 Y164.445 E19.58814
G1 X81.985 Y163.944 E19.62813
G1 X81.985 Y56.014 E28.24357
G1 X82.021 Y55.008 E28.32393
G1 X82.031 Y54.873 E28.33473
G1 X82.133 Y53.956 E28.40838
G1 X82.158 Y53.781 E28.4225
G1 X82.32 Y52.903 E28.49376
G1 X82.35 Y52.769 E28.50473
G1 X82.581 Y51.884 E28.57774
G1 X82.633 Y51.712 E28.59208
G1 X82.92 Y50.87 E28.66309
G1 X82.983 Y50.704 E28.67726
G1 X83.324 Y49.901 E28.7469
G1 X83.405 Y49.726 E28.7623
G1 X83.886 Y48.801 E28.84552
G0 F12000 X83.2 Y50.193
G1 F1800 X83.2 Y169.82 E38.39466
G0 F12000 X84.8 Y172.609
G1 F1800 X84.8 Y47.397 E48.38963
G0 F12000 X86.4 Y45.543
G1 F1800 X86.4 Y174.447 E58.6793
G0 F12000 X88 Y175.797
G1 F1800 X88 Y44.195 E69.18434
G0 F12000 X89.6 Y43.19
G1 F1800 X89.6 Y176.81 E79.85047
G0 F12000 X91.2 Y177.564
G1 F1800 X91.2 Y42.439 E90.63673
G0 F12000 X92.8 Y41.903
G1 F1800 X92.8 Y178.089 E101.50769
G0 F12000 X94.4 Y178.431
G1 F1800 X94.4 Y41.574 E112.4322
G0 F12000 X96 Y41.417
G1 F1800 X96 Y178.575 E123.38075
G0 F12000 X97.6 Y178.599
G1 F1800 X97.6 Y41.401 E134.33249
G0 F12000 X99.2 Y41.401
G1 F1800 X99.2 Y178.599 E145.28422
G0 F12000 X100.8 Y178.599
G1 F1800 X100.8 Y41.401 E156.23596
G0 F12000 X102.4 Y41.401
G1 F1800 X102.4 Y178.599 E167.1877
G0 F12000 X104 Y178.599
G1 F1800 X104 Y41.401 E178.13944
G0 F12000 X105.6 Y41.401
G1 F1800 X105.6 Y178.599 E189.09117
G0 F12000 X107.2 Y178.599
G1 F1800 X107.2 Y41.401 E200.04291
G0 F12000 X108.8 Y41.401
G1 F1800 X108.8 Y178.599 E210.99465
G0 F12000 X110.4 Y178.599
G1 F1800 X110.4 Y41.401 E221.94639
G0 F12000 X112 Y41.401
G1 F1800 X112 Y178.599 E232.89812
G0 F12000 X113.6 Y178.599
G1 F1800 X113.6 Y41.401 E243.84986
G0 F12000 X115.2 Y41.401
G1 F1800 X115.2 Y178.599 E254.8016
G0 F12000 X116.8 Y178.599
G1 F1800 X116.8 Y41.401 E265.75334
G0 F12000 X118.4 Y41.401
G1 F1800 X118.4 Y178.599 E276.70507
G0 F12000 X120 Y178.599
G1 F1800 X120 Y41.401 E287.65681
G0 F12000 X121.6 Y41.401
G1 F1800 X121.6 Y178.599 E298.60855
G0 F12000 X123.2 Y178.599
G1 F1800 X123.2 Y41.401 E309.56029
G0 F12000 X124.8 Y41.475
G1 F1800 X124.8 Y178.527 E320.50037
G0 F12000 X126.4 Y178.283
G1 F1800 X126.4 Y41.715 E331.40182
G0 F12000 X128 Y42.15
G1 F1800 X128 Y177.857 E342.23454
G0 F12000 X129.6 Y177.215
G1 F1800 X129.6 Y42.78 E352.96572
G0 F12000 X131.2 Y43.659
G1 F1800 X131.2 Y176.345 E363.55729
G0 F12000 X132.8 Y175.181
G1 F1800 X132.8 Y44.829 E373.96255
G0 F12000 X134.4 Y46.396
G1 F1800 X134.4 Y173.609 E384.11724
G0 F12000 X136 Y171.38
G1 F1800 X136 Y48.615 E393.91688
G0 F12000 X137.6 Y52.579
G1 F1800 X137.6 Y167.423 E403.08422
G0 F300 X137.6 Y167.423 Z0.54
G0 F12000 X136.178 Y171.081
;TIME_ELAPSED:177.935941
;LAYER:-5
M140 S50
;TYPE:SUPPORT
G1 F1800 X136.506 Y170.447 E403.15545
G1 X81.984 Y115.925 E410.84909
G1 X81.984 Y114.511 E410.99018
G1 X136.942 Y169.469 E418.74535
G1 X137.01 Y169.308 E418.76279
G1 X137.091 Y169.098 E418.78524
G1 X137.318 Y168.431 E418.85555
G1 X81.984 Y113.097 E426.66377
G1 X81.984 Y111.683 E426.80486
G1 X137.626 Y167.324 E434.65648
G1 X137.65 Y167.23 E434.66616
G1 X137.68 Y167.095 E434.67996
G1 X137.841 Y166.218 E434.76893
G1 X137.854 Y166.138 E434.77701
G1 X81.984 Y110.269 E442.6608
G1 X81.984 Y108.854 E442.80199
G1 X137.983 Y164.853 E450.70406
G1 X138.014 Y163.985 E450.79072
G1 X138.014 Y163.47 E450.84211
G1 X81.984 Y107.44 E458.74855
G1 X81.984 Y106.026 E458.88964
G1 X138.014 Y162.056 E466.79607
G1 X138.014 Y160.641 E466.93726
G1 X81.984 Y104.612 E474.84363
G1 X81.984 Y103.197 E474.98482
G1 X138.014 Y159.227 E482.89126
G1 X138.014 Y157.813 E483.03235
G1 X81.984 Y101.783 E490.93879
G1 X81.984 Y100.369 E491.07988
G1 X138.014 Y156.399 E498.98631
G1 X138.014 Y154.985 E499.1274
G1 X81.984 Y98.955 E507.03384
G1 X81.984 Y97.541 E507.17493
G1 X138.014 Y153.57 E515.0813
G1 X138.014 Y152.156 E515.22239
G1 X81.984 Y96.126 E523.12883
G1 X81.984 Y94.712 E523.26992
G1 X138.014 Y150.742 E531.17635
G1 X138.014 Y149.328 E531.31744
G1 X81.984 Y93.298 E539.22388
G1 X81.984 Y91.884 E539.36497
G1 X138.014 Y147.914 E547.27141
G1 X138.014 Y146.499 E547.4126
G1 X81.984 Y90.47 E555.31897
G1 X81.984 Y89.055 E555.46016
G1 X138.014 Y145.085 E563.36659
G1 X138.014 Y143.671 E563.50768
G1 X81.984 Y87.641 E571.41412
G1 X81.984 Y86.227 E571.55521
G1 X138.014 Y142.257 E579.46165
G1 X138.014 Y140.842 E579.60284
G1 X81.984 Y84.813 E587.50921
G1 X81.984 Y83.399 E587.6503
G1 X138.014 Y139.428 E595.55666
G1 X138.014 Y138.014 E595.69775
G1 X81.984 Y81.984 E603.60419
G1 X81.984 Y80.57 E603.74528
G1 X138.014 Y136.6 E611.65172
G1 X138.014 Y135.186 E611.79281
G1 X81.984 Y79.156 E619.69925
G1 X81.984 Y77.742 E619.84034
G1 X138.014 Y133.771 E627.7467
G1 X138.014 Y132.357 E627.88779
G1 X81.984 Y76.327 E635.79423
G1 X81.984 Y74.913 E635.93532
G1 X138.014 Y130.943 E643.84176
G1 X138.014 Y129.529 E643.98285
G1 X81.984 Y73.499 E651.88929
G1 X81.984 Y72.085 E652.03038
G1 X138.014 Y128.115 E659.93682
G1 X138.014 Y126.7 E660.078
G1 X81.984 Y70.671 E667.98437
G1 X81.984 Y69.256 E668.12556
G1 X138.014 Y125.286 E676.032
G1 X138.014 Y123.872 E676.17309
G1 X81.984 Y67.842 E684.07953
G1 X81.984 Y66.428 E684.22062
G1 X138.014 Y122.458 E692.12706
G1 X138.014 Y121.043 E692.26824
G1 X81.984 Y65.014 E700.17461
G1 X81.984 Y63.6 E700.3157
G1 X138.014 Y119.629 E708.22207
G1 X138.014 Y118.215 E708.36316
G1 X81.984 Y62.185 E716.2696
G1 X81.984 Y60.771 E716.41069
G1 X138.014 Y116.801 E724.31713
G1 X138.014 Y115.387 E724.45821
G1 X81.984 Y59.357 E732.36465
G1 X81.984 Y57.943 E732.50574
G1 X138.014 Y113.972 E740.41211
G1 X138.014 Y112.558 E740.5532
G1 X81.984 Y56.528 E748.45964
G1 X81.984 Y56.014 E748.51092
G1 X82.015 Y55.145 E748.59769
G1 X138.014 Y111.144 E756.49975
G1 X138.014 Y109.73 E756.64084
G1 X82.145 Y53.861 E764.52456
G1 X82.157 Y53.781 E764.53263
G1 X82.319 Y52.903 E764.62172
G1 X82.348 Y52.769 E764.6354
G1 X82.372 Y52.674 E764.64518
G1 X138.014 Y108.316 E772.49686
G1 X138.014 Y106.901 E772.63805
G1 X82.681 Y51.568 E780.44614
G1 X82.918 Y50.869 E780.51978
G1 X82.981 Y50.703 E780.5375
G1 X83.056 Y50.529 E780.55641
G1 X138.014 Y105.487 E788.31157
G1 X138.014 Y104.073 E788.45266
G1 X83.493 Y49.552 E796.14617
G1 X83.884 Y48.8 E796.23074
G1 X83.987 Y48.631 E796.25048
G1 X138.014 Y102.659 E803.87435
G1 X138.014 Y101.244 E804.01554
G1 X84.535 Y47.765 E811.562
G1 X84.971 Y47.156 E811.63674
G1 X85.084 Y47.009 E811.65524
G1 X85.133 Y46.949 E811.66297
G1 X138.014 Y99.83 E819.12505
G1 X138.014 Y98.416 E819.26614
G1 X85.781 Y46.183 E826.63678
G1 X86.385 Y45.556 E826.72365
G1 X86.479 Y45.466 E826.73663
G1 X138.014 Y97.002 E834.00885
G1 X138.014 Y95.588 E834.14994
G1 X87.225 Y44.798 E841.31688
G1 X87.297 Y44.737 E841.3263
G1 X88.01 Y44.187 E841.41615
G1 X88.02 Y44.18 E841.41737
G1 X138.014 Y94.173 E848.47199
G1 X138.014 Y92.759 E848.61308
G1 X88.866 Y43.611 E855.54839
G1 X88.906 Y43.583 E855.55327
G1 X89.033 Y43.508 E855.56798
G1 X89.765 Y43.096 E855.6518
G1 X138.014 Y91.345 E862.46025
G1 X138.014 Y89.931 E862.60134
G1 X90.718 Y42.635 E869.27532
G1 X90.791 Y42.601 E869.28335
G1 X90.935 Y42.54 E869.29896
G1 X91.733 Y42.236 E869.38416
G1 X138.014 Y88.517 E875.91491
G1 X138.014 Y87.102 E876.0561
G1 X92.812 Y41.901 E882.43452
G1 X92.967 Y41.859 E882.45055
G1 X93.862 Y41.657 E882.5421
G1 X93.966 Y41.64 E882.55261
G1 X138.014 Y85.688 E888.76826
G1 X138.014 Y84.274 E888.90935
G1 X95.213 Y41.473 E894.94903
G1 X96.139 Y41.408 E895.04166
G1 X96.556 Y41.401 E895.08327
G1 X138.014 Y82.86 E900.93351
G1 X138.014 Y81.445 E901.0747
G1 X97.968 Y41.4 E906.72555
G1 X99.383 Y41.4 E906.86674
G1 X138.014 Y80.031 E912.31799
G1 X138.014 Y78.617 E912.45908
G1 X100.797 Y41.4 E917.7108
G1 X102.211 Y41.4 E917.85189
G1 X138.014 Y77.203 E922.90408
G1 X138.014 Y75.789 E923.04517
G1 X103.625 Y41.4 E927.89783
G1 X105.04 Y41.4 E928.03902
G1 X138.014 Y74.374 E932.69201
G1 X138.014 Y72.96 E932.8331
G1 X106.454 Y41.4 E937.28656
G1 X107.868 Y41.4 E937.42765
G1 X138.014 Y71.546 E941.68157
G1 X138.014 Y70.132 E941.82266
G1 X109.282 Y41.4 E945.87706
G1 X110.697 Y41.401 E946.01825
G1 X138.014 Y68.718 E949.87297
G1 X138.014 Y67.303 E950.01416
G1 X112.111 Y41.401 E953.66928
G1 X113.525 Y41.401 E953.81037
G1 X138.014 Y65.889 E957.26596
G1 X138.014 Y64.475 E957.40705
G1 X114.94 Y41.401 E960.66304
G1 X116.354 Y41.401 E960.80413
G1 X138.014 Y63.061 E963.86059
G1 X138.014 Y61.646 E964.00178
G1 X117.768 Y41.401 E966.85864
G1 X119.182 Y41.401 E966.99973
G1 X138.014 Y60.232 E969.65706
G1 X138.014 Y58.818 E969.79815
G1 X120.597 Y41.401 E972.25588
G1 X122.011 Y41.401 E972.39696
G1 X138.014 Y57.404 E974.65516
G1 X138.013 Y56.055 E974.78976
G1 X138.013 Y55.988 E974.79645
G1 X123.426 Y41.401 E976.85483
G1 X124.541 Y41.446 E976.96618
G1 X124.928 Y41.489 E977.00503
G1 X137.932 Y54.493 E978.84004
G1 X137.93 Y54.469 E978.84244
G1 X137.912 Y54.307 E978.8587
G1 X137.779 Y53.407 E978.94948
G1 X137.754 Y53.269 E978.96347
G1 X137.648 Y52.795 E979.01194
G1 X126.61 Y41.757 E980.56952
G1 X126.644 Y41.765 E980.57301
G1 X127.539 Y41.999 E980.66531
G1 X127.702 Y42.048 E980.68229
G1 X128.544 Y42.335 E980.77106
G1 X128.637 Y42.37 E980.78097
G1 X137.033 Y50.766 E981.96574
G1 X136.873 Y50.35 E982.01021
G1 X136.813 Y50.208 E982.02559
G1 X136.43 Y49.392 E982.11553
G1 X136.352 Y49.242 E982.1324
G1 X135.906 Y48.448 E982.22327
G1 X135.83 Y48.322 E982.23796
G1 X135.488 Y47.807 E982.29964
G1 X131.593 Y43.912 E982.84927
G1 X132.257 Y44.386 E982.93067
G1 X132.405 Y44.5 E982.94931
G1 X133.096 Y45.075 E983.03901
G1 X133.209 Y45.177 E983.0542
G1 X133.858 Y45.802 E983.1441
G1 X133.978 Y45.926 E983.16132
G1 X134.581 Y46.597 E983.25134
G1 X134.676 Y46.714 E983.26637
G1 X135.236 Y47.437 E983.35762
G1 X135.33 Y47.568 E983.37371
G1 F2700 E978.37371
G0 F12000 X136.217 Y46.979
G0 X137.293 Y48.743
G0 X137.865 Y49.961
G0 X138.536 Y51.927
G0 X138.832 Y53.242
G0 X139.061 Y55.31
G0 X139.041 Y165.057
G0 X138.894 Y166.383
G0 X138.442 Y168.41
G0 X138.002 Y169.7
G0 X137.126 Y171.568
G0 X136.178 Y171.081
G1 F2700 E983.37371
G1 F1800 X136.009 Y171.364 E983.4066
G1 X81.984 Y117.34 E991.03004
G1 X81.984 Y118.754 E991.17113
G1 X135.463 Y172.233 E998.7176
G1 X135.027 Y172.842 E998.79233
G1 X134.915 Y172.99 E998.81085
G1 X134.865 Y173.049 E998.81857
G1 X81.984 Y120.168 E1006.28065
G1 X81.984 Y121.582 E1006.42174
G1 X134.218 Y173.816 E1013.79252
G1 X133.613 Y174.443 E1013.87946
G1 X133.52 Y174.532 E1013.8923
G1 X81.984 Y122.996 E1021.16459
G1 X81.984 Y124.411 E1021.30578
G1 X132.774 Y175.2 E1028.47272
G1 X132.701 Y175.262 E1028.48228
G1 X131.988 Y175.812 E1028.57213
G1 X131.978 Y175.819 E1028.57335
G1 X81.984 Y125.825 E1035.62804
G1 X81.984 Y127.239 E1035.76913
G1 X131.132 Y176.387 E1042.70444
G1 X131.091 Y176.414 E1042.70934
G1 X130.966 Y176.491 E1042.72399
