;FLAVOR:Marlin
;TIME:8053
;Filament used: 7.1795m
;Layer height: 0.2
;MINX:87.529
;MINY:72.5
;MINZ:0.2
;MAXX:132.456
;MAXY:147.5
;MAXZ:143
;Generated with Cura_SteamEngine 4.6.1
M140 S50
M105
M190 S50
M104 S200
M105
M109 S200
M82 ;absolute extrusion mode
M201 X500.00 Y500.00 Z100.00 E5000.00 ;Setup machine max acceleration
M203 X500.00 Y500.00 Z10.00 E50.00 ;Setup machine max feedrate
M204 P500.00 R1000.00 T500.00 ;Setup Print/Retract/Travel acceleration
M205 X8.00 Y8.00 Z0.40 E5.00 ;Setup Jerk
M220 S100 ;Reset Feedrate
M221 S100 ;Reset Flowrate

G28 ;Home

G92 E0 ;Reset Extruder
G1 Z2.0 F3000 ;Move Z Axis up
G1 X10.1 Y20 Z0.28 F5000.0 ;Move to start position
G1 X10.1 Y200.0 Z0.28 F1500.0 E15 ;Draw the first line
G1 X10.4 Y200.0 Z0.28 F5000.0 ;Move to side a little
G1 X10.4 Y20 Z0.28 F1500.0 E30 ;Draw the second line
G92 E0 ;Reset Extruder
G1 Z2.0 F3000 ;Move Z Axis up

G92 E0
G92 E0
G1 F2700 E-5
;LAYER_COUNT:598
;LAYER:0
M107
G0 F6000 X101.35 Y73.311 Z0.2
;TYPE:SKIRT
G1 F2700 E0
G1 F1200 X102.252 Y73.364 E0.03005
G1 X103.145 Y73.496 E0.06008
G1 X104.024 Y73.707 E0.09014
G1 X104.88 Y73.995 E0.12018
G1 X105.707 Y74.357 E0.15021
G1 X106.499 Y74.791 E0.18025
G1 X107.569 Y75.539 E0.22367
G1 X108.138 Y75.997 E0.24796
G1 X127.595 Y92.324 E1.09276
G1 X128.122 Y92.779 E1.11592
G1 X128.779 Y93.399 E1.14596
G1 X129.378 Y94.075 E1.176
G1 X129.915 Y94.801 E1.20604
G1 X130.386 Y95.571 E1.23606
G1 X130.787 Y96.381 E1.26612
G1 X131.115 Y97.222 E1.29614
G1 X131.367 Y98.089 E1.32617
G1 X131.541 Y98.975 E1.35621
G1 X131.637 Y99.873 E1.38624
G1 X131.64 Y101.064 E1.42586
G1 X131.623 Y101.373 E1.43615
G1 X131.461 Y104.033 E1.52479
G1 X131.377 Y106.616 E1.61074
G1 X131.361 Y108.339 E1.66805
G1 X131.36 Y135.904 E2.58487
G1 X131.35 Y136.631 E2.60905
G1 X131.298 Y137.533 E2.6391
G1 X131.166 Y138.426 E2.66912
G1 X130.955 Y139.305 E2.69919
G1 X130.668 Y140.161 E2.72922
G1 X130.306 Y140.988 E2.75924
G1 X129.872 Y141.78 E2.78928
G1 X129.37 Y142.531 E2.81933
G1 X128.804 Y143.234 E2.84935
G1 X128.177 Y143.885 E2.87941
G1 X127.496 Y144.477 E2.90942
G1 X126.765 Y145.007 E2.93945
G1 X125.989 Y145.47 E2.96951
G1 X125.176 Y145.863 E2.99954
G1 X124.331 Y146.183 E3.02959
G1 X123.462 Y146.426 E3.0596
G1 X122.574 Y146.591 E3.08964
G1 X121.438 Y146.687 E3.12756
G1 X120.831 Y146.7 E3.14776
G1 X99.104 Y146.699 E3.8704
G1 X98.406 Y146.69 E3.89362
G1 X97.505 Y146.639 E3.92363
G1 X96.611 Y146.507 E3.95369
G1 X95.733 Y146.298 E3.98371
G1 X94.876 Y146.011 E4.01377
G1 X94.049 Y145.65 E4.04378
G1 X93.256 Y145.217 E4.07383
G1 X92.505 Y144.716 E4.10386
G1 X91.801 Y144.15 E4.1339
G1 X91.15 Y143.524 E4.16394
G1 X90.557 Y142.843 E4.19397
G1 X90.027 Y142.112 E4.224
G1 X89.563 Y141.337 E4.25405
G1 X89.169 Y140.524 E4.2841
G1 X88.849 Y139.68 E4.31412
G1 X88.605 Y138.81 E4.34417
G1 X88.439 Y137.922 E4.37422
G1 X88.342 Y136.767 E4.41277
G1 X88.329 Y136.158 E4.43303
G1 X88.33 Y84.036 E6.16661
G1 X88.339 Y83.371 E6.18873
G1 X88.391 Y82.469 E6.21878
G1 X88.523 Y81.576 E6.24881
G1 X88.733 Y80.698 E6.27883
G1 X89.02 Y79.841 E6.30889
G1 X89.382 Y79.014 E6.33892
G1 X89.815 Y78.222 E6.36894
G1 X90.317 Y77.471 E6.39899
G1 X90.884 Y76.767 E6.42905
G1 X91.51 Y76.117 E6.45907
G1 X92.191 Y75.524 E6.4891
G1 X92.923 Y74.994 E6.51916
G1 X93.698 Y74.531 E6.54918
G1 X94.511 Y74.138 E6.57922
G1 X95.356 Y73.818 E6.60927
G1 X96.225 Y73.575 E6.63928
G1 X97.113 Y73.409 E6.66933
G1 X98.252 Y73.313 E6.70735
G1 X98.859 Y73.3 E6.72754
G1 X100.649 Y73.301 E6.78708
G1 X101.35 Y73.311 E6.81039
G0 F6000 X101.356 Y72.911
G1 F1200 X102.275 Y72.964 E6.84101
G1 X103.186 Y73.097 E6.87163
G1 X104.082 Y73.308 E6.90225
G1 X104.957 Y73.596 E6.93289
G1 X105.803 Y73.959 E6.96351
G1 X106.614 Y74.394 E6.99412
G1 X107.385 Y74.898 E7.02475
G1 X107.819 Y75.226 E7.04285
G1 X108.396 Y75.691 E7.06749
G1 X127.856 Y92.022 E7.91245
G1 X128.383 Y92.477 E7.93561
G1 X129.053 Y93.108 E7.96622
G1 X129.666 Y93.795 E7.99684
G1 X130.217 Y94.533 E8.02748
G1 X130.702 Y95.316 E8.05811
G1 X131.117 Y96.137 E8.08871
G1 X131.459 Y96.992 E8.11934
G1 X131.725 Y97.873 E8.14994
G1 X131.915 Y98.774 E8.18057
G1 X132.025 Y99.688 E8.21119
G1 X132.055 Y100.608 E8.24181
G1 X132.04 Y101.086 E8.25771
G1 X132.022 Y101.398 E8.26811
G1 X131.859 Y104.072 E8.35721
G1 X131.777 Y106.589 E8.44097
G1 X131.761 Y108.343 E8.49931
G1 X131.76 Y135.91 E9.41619
G1 X131.75 Y136.637 E9.44037
G1 X131.697 Y137.556 E9.47099
G1 X131.565 Y138.467 E9.50161
G1 X131.354 Y139.363 E9.53222
G1 X131.067 Y140.238 E9.56285
G1 X130.704 Y141.084 E9.59347
G1 X130.27 Y141.896 E9.62409
G1 X129.766 Y142.667 E9.65473
G1 X129.198 Y143.391 E9.68534
G1 X128.569 Y144.063 E9.71595
G1 X127.884 Y144.678 E9.74657
G1 X127.148 Y145.231 E9.77719
G1 X126.367 Y145.719 E9.80782
G1 X125.547 Y146.137 E9.83843
G1 X124.693 Y146.482 E9.86907
G1 X123.813 Y146.751 E9.89967
G1 X122.912 Y146.944 E9.93032
G1 X121.999 Y147.057 E9.96092
G1 X121.449 Y147.087 E9.97924
G1 X120.831 Y147.1 E9.9998
G1 X99.099 Y147.099 E10.72261
G1 X98.401 Y147.09 E10.74582
G1 X97.482 Y147.038 E10.77644
G1 X96.571 Y146.907 E10.80705
G1 X95.675 Y146.697 E10.83766
G1 X94.8 Y146.41 E10.86829
G1 X93.953 Y146.048 E10.89892
G1 X93.141 Y145.614 E10.92955
G1 X92.37 Y145.112 E10.96015
G1 X91.645 Y144.544 E10.99078
G1 X90.972 Y143.915 E11.02142
G1 X90.357 Y143.231 E11.05201
G1 X89.803 Y142.496 E11.08262
G1 X89.315 Y141.715 E11.11325
G1 X88.896 Y140.895 E11.14388
G1 X88.55 Y140.042 E11.1745
G1 X88.28 Y139.162 E11.20511
G1 X88.087 Y138.261 E11.23576
G1 X87.973 Y137.348 E11.26636
G1 X87.942 Y136.777 E11.28538
G1 X87.929 Y136.158 E11.30597
G1 X87.93 Y84.031 E13.03973
G1 X87.939 Y83.366 E13.06185
G1 X87.991 Y82.446 E13.09249
G1 X88.123 Y81.535 E13.12311
G1 X88.334 Y80.639 E13.15373
G1 X88.621 Y79.764 E13.18435
G1 X88.984 Y78.918 E13.21497
G1 X89.418 Y78.106 E13.2456
G1 X89.921 Y77.335 E13.27621
G1 X90.49 Y76.611 E13.30684
G1 X91.118 Y75.939 E13.33743
G1 X91.803 Y75.323 E13.36807
G1 X92.539 Y74.77 E13.39869
G1 X93.32 Y74.282 E13.42932
G1 X94.14 Y73.864 E13.45994
G1 X94.994 Y73.519 E13.49057
G1 X95.874 Y73.249 E13.52119
G1 X96.774 Y73.057 E13.55179
G1 X97.688 Y72.943 E13.58243
G1 X98.241 Y72.913 E13.60085
G1 X98.859 Y72.9 E13.62141
G1 X100.655 Y72.901 E13.68114
G1 X101.356 Y72.911 E13.70446
G0 F6000 X101.362 Y72.511
G1 F1200 X102.298 Y72.564 E13.73564
G1 X103.227 Y72.697 E13.76686
G1 X104.14 Y72.909 E13.79803
G1 X105.033 Y73.197 E13.82924
G1 X105.897 Y73.561 E13.86042
G1 X106.728 Y73.997 E13.89163
G1 X107.518 Y74.502 E13.92282
G1 X108.068 Y74.914 E13.94567
G1 X108.653 Y75.384 E13.97063
G1 X128.118 Y91.719 E14.81581
G1 X128.645 Y92.174 E14.83896
G1 X129.328 Y92.816 E14.87014
G1 X129.954 Y93.515 E14.90135
G1 X130.518 Y94.264 E14.93253
G1 X131.016 Y95.059 E14.96374
G1 X131.445 Y95.893 E14.99493
G1 X131.801 Y96.761 E15.02613
G1 X132.082 Y97.655 E15.0573
G1 X132.286 Y98.571 E15.08851
G1 X132.41 Y99.5 E15.11969
G1 X132.456 Y100.437 E15.15089
G1 X132.439 Y101.108 E15.17321
G1 X132.422 Y101.422 E15.18367
G1 X132.258 Y104.108 E15.27318
G1 X132.177 Y106.606 E15.3563
G1 X132.161 Y108.347 E15.41421
G1 X132.16 Y135.915 E16.33113
G1 X132.15 Y136.642 E16.35531
G1 X132.097 Y137.579 E16.38652
G1 X131.965 Y138.507 E16.4177
G1 X131.754 Y139.421 E16.4489
G1 X131.465 Y140.313 E16.48009
G1 X131.102 Y141.178 E16.51129
G1 X130.667 Y142.009 E16.54248
G1 X130.162 Y142.799 E16.57367
G1 X129.592 Y143.544 E16.60487
G1 X128.961 Y144.238 E16.63607
G1 X128.272 Y144.875 E16.66728
G1 X127.532 Y145.451 E16.69847
G1 X126.746 Y145.962 E16.72965
G1 X125.919 Y146.404 E16.76083
G1 X125.057 Y146.774 E16.79203
G1 X124.167 Y147.069 E16.82322
G1 X123.255 Y147.288 E16.85442
G1 X122.328 Y147.428 E16.8856
G1 X121.46 Y147.487 E16.91453
G1 X120.831 Y147.5 E16.93546
G1 X99.094 Y147.499 E17.65843
G1 X98.396 Y147.49 E17.68165
G1 X97.46 Y147.438 E17.71283
G1 X96.531 Y147.306 E17.74404
G1 X95.617 Y147.096 E17.77523
G1 X94.724 Y146.809 E17.80643
G1 X93.859 Y146.446 E17.83763
G1 X93.028 Y146.012 E17.86881
G1 X92.237 Y145.508 E17.90001
G1 X91.492 Y144.938 E17.93121
G1 X90.798 Y144.307 E17.9624
G1 X90.161 Y143.62 E17.99356
G1 X89.584 Y142.88 E18.02477
G1 X89.072 Y142.094 E18.05597
G1 X88.629 Y141.267 E18.08718
G1 X88.258 Y140.406 E18.11836
G1 X87.962 Y139.516 E18.14956
G1 X87.743 Y138.604 E18.18075
G1 X87.602 Y137.677 E18.21194
G1 X87.542 Y136.788 E18.24157
G1 X87.529 Y136.158 E18.26253
G1 X87.53 Y84.025 E19.99648
G1 X87.539 Y83.36 E20.0186
G1 X87.592 Y82.424 E20.04978
G1 X87.724 Y81.495 E20.08099
G1 X87.935 Y80.581 E20.11219
G1 X88.223 Y79.689 E20.14337
G1 X88.586 Y78.824 E20.17457
G1 X89.021 Y77.993 E20.20577
G1 X89.525 Y77.203 E20.23693
G1 X90.095 Y76.458 E20.26813
G1 X90.727 Y75.764 E20.29935
G1 X91.415 Y75.127 E20.33054
G1 X92.155 Y74.551 E20.36173
G1 X92.941 Y74.039 E20.39293
G1 X93.768 Y73.597 E20.42412
G1 X94.63 Y73.227 E20.45532
G1 X95.52 Y72.931 E20.48651
G1 X96.432 Y72.713 E20.5177
G1 X97.359 Y72.572 E20.54889
G1 X98.23 Y72.513 E20.57792
G1 X98.859 Y72.5 E20.59885
G1 X100.661 Y72.501 E20.65878
G1 X101.362 Y72.511 E20.6821
G1 F2700 E15.6821
;MESH:SideWallswBase52.stl
G0 F6000 X101.058 Y82.835
G0 X101.058 Y83.92
G0 X120.387 Y100.601
G0 X120.561 Y135.9
;TYPE:WALL-INNER
G1 F2700 E20.6821
G1 F1200 X99.129 Y135.9 E21.39493
G1 X99.129 Y84.1 E23.11781
G1 X100.993 Y84.1 E23.1798
G1 X120.561 Y100.519 E24.0294
G1 X120.561 Y135.9 E25.20617
G0 F6000 X120.961 Y136.3
;TYPE:WALL-OUTER
G1 F1200 X98.729 Y136.3 E25.94561
G1 X98.729 Y83.7 E27.69509
G1 X101.138 Y83.7 E27.77522
G1 X120.961 Y100.333 E28.63588
G1 X120.961 Y136.3 E29.83215
G0 F6000 X120.691 Y136.03
G0 X120.451 Y135.51
G0 X120.171 Y135.51
;TYPE:SKIN
G1 F1200 X99.519 Y135.51 E30.51904
G1 X99.519 Y84.49 E32.21597
G1 X100.85 Y84.49 E32.26024
G1 X120.171 Y100.701 E33.09909
G1 X120.171 Y135.51 E34.25685
G0 F6000 X120.451 Y135.51
G0 X120.387 Y135.697
G0 X100.276 Y135.79
G0 X100.276 Y135.349
G1 F1200 X99.678 Y134.751 E34.28497
G0 F6000 X99.678 Y134.185
G1 F1200 X100.842 Y135.349 E34.33972
G0 F6000 X101.408 Y135.349
G1 F1200 X99.678 Y133.619 E34.4211
G0 F6000 X99.678 Y133.054
G1 F1200 X101.973 Y135.349 E34.52905
G0 F6000 X102.539 Y135.349
G1 F1200 X99.678 Y132.488 E34.66362
G0 F6000 X99.678 Y131.922
G1 F1200 X103.105 Y135.349 E34.82482
G0 F6000 X103.671 Y135.349
G1 F1200 X99.678 Y131.357 E35.01261
G0 F6000 X99.678 Y130.791
G1 F1200 X104.236 Y135.349 E35.22701
G0 F6000 X104.802 Y135.349
G1 F1200 X99.678 Y130.225 E35.46802
G0 F6000 X99.678 Y129.66
G1 F1200 X105.368 Y135.349 E35.73564
G0 F6000 X105.933 Y135.349
G1 F1200 X99.678 Y129.094 E36.02986
G0 F6000 X99.678 Y128.528
G1 F1200 X106.499 Y135.349 E36.35069
G0 F6000 X107.065 Y135.349
G1 F1200 X99.678 Y127.962 E36.69816
G0 F6000 X99.678 Y127.397
G1 F1200 X107.63 Y135.349 E37.07219
G0 F6000 X108.196 Y135.349
G1 F1200 X99.678 Y126.831 E37.47286
G0 F6000 X99.678 Y126.265
G1 F1200 X108.762 Y135.349 E37.90014
G0 F6000 X109.327 Y135.349
G1 F1200 X99.678 Y125.7 E38.354
G0 F6000 X99.678 Y125.134
G1 F1200 X109.893 Y135.349 E38.83448
G0 F6000 X110.459 Y135.349
G1 F1200 X99.678 Y124.568 E39.34159
G0 F6000 X99.678 Y124.003
G1 F1200 X111.024 Y135.349 E39.87527
G0 F6000 X111.59 Y135.349
G1 F1200 X99.678 Y123.437 E40.43557
G0 F6000 X99.678 Y122.871
G1 F1200 X112.156 Y135.349 E41.0225
G0 F6000 X112.722 Y135.349
G1 F1200 X99.678 Y122.306 E41.63602
G0 F6000 X99.678 Y121.74
G1 F1200 X113.287 Y135.349 E42.27615
G0 F6000 X113.853 Y135.349
G1 F1200 X99.678 Y121.174 E42.9429
G0 F6000 X99.678 Y120.609
G1 F1200 X114.419 Y135.349 E43.63625
G0 F6000 X114.984 Y135.349
G1 F1200 X99.678 Y120.043 E44.35619
G0 F6000 X99.678 Y119.477
G1 F1200 X115.55 Y135.349 E45.10276
G0 F6000 X116.116 Y135.349
G1 F1200 X99.678 Y118.912 E45.87593
G0 F6000 X99.678 Y118.346
G1 F1200 X116.681 Y135.349 E46.6757
G0 F6000 X117.247 Y135.349
G1 F1200 X99.678 Y117.78 E47.50209
G0 F6000 X99.678 Y117.214
G1 F1200 X117.813 Y135.349 E48.35511
G0 F6000 X118.378 Y135.349
G1 F1200 X99.678 Y116.649 E49.2347
G0 F6000 X99.678 Y116.083
G1 F1200 X118.944 Y135.349 E50.14091
G0 F6000 X119.51 Y135.349
G1 F1200 X99.678 Y115.517 E51.07375
G0 F6000 X99.678 Y114.952
G1 F1200 X120.01 Y135.284 E52.0301
G0 F6000 X120.01 Y134.718
G1 F1200 X99.678 Y114.386 E52.98646
G0 F6000 X99.678 Y113.82
G1 F1200 X120.01 Y134.153 E53.94284
G0 F6000 X120.01 Y133.587
G1 F1200 X99.678 Y113.255 E54.89919
G0 F6000 X99.678 Y112.689
G1 F1200 X120.01 Y133.021 E55.85555
G0 F6000 X120.01 Y132.455
G1 F1200 X99.678 Y112.123 E56.8119
G0 F6000 X99.678 Y111.558
G1 F1200 X120.01 Y131.89 E57.76826
G0 F6000 X120.01 Y131.324
G1 F1200 X99.678 Y110.992 E58.72461
G0 F6000 X99.678 Y110.426
G1 F1200 X120.01 Y130.758 E59.68097
G0 F6000 X120.01 Y130.193
G1 F1200 X99.678 Y109.861 E60.63732
G0 F6000 X99.678 Y109.295
G1 F1200 X120.01 Y129.627 E61.59368
G0 F6000 X120.01 Y129.061
G1 F1200 X99.678 Y108.729 E62.55003
G0 F6000 X99.678 Y108.164
G1 F1200 X120.01 Y128.496 E63.50639
G0 F6000 X120.01 Y127.93
G1 F1200 X99.678 Y107.598 E64.46274
G0 F6000 X99.678 Y107.032
G1 F1200 X120.01 Y127.364 E65.4191
G0 F6000 X120.01 Y126.799
G1 F1200 X99.678 Y106.466 E66.37548
G0 F6000 X99.678 Y105.901
G1 F1200 X120.01 Y126.233 E67.33183
G0 F6000 X120.01 Y125.667
G1 F1200 X99.678 Y105.335 E68.28819
G0 F6000 X99.678 Y104.769
G1 F1200 X120.01 Y125.102 E69.24456
G0 F6000 X120.01 Y124.536
G1 F1200 X99.678 Y104.204 E70.20092
G0 F6000 X99.678 Y103.638
G1 F1200 X120.01 Y123.97 E71.15727
G0 F6000 X120.01 Y123.404
G1 F1200 X99.678 Y103.072 E72.11363
G0 F6000 X99.678 Y102.507
G1 F1200 X120.01 Y122.839 E73.06998
G0 F6000 X120.01 Y122.273
G1 F1200 X99.678 Y101.941 E74.02634
G0 F6000 X99.678 Y101.375
G1 F1200 X120.01 Y121.707 E74.98269
G0 F6000 X120.01 Y121.142
G1 F1200 X99.678 Y100.81 E75.93905
G0 F6000 X99.678 Y100.244
G1 F1200 X120.01 Y120.576 E76.8954
G0 F6000 X120.01 Y120.01
G1 F1200 X99.678 Y99.678 E77.85176
G0 F6000 X99.678 Y99.113
G1 F1200 X120.01 Y119.445 E78.80811
G0 F6000 X120.01 Y118.879
G1 F1200 X99.678 Y98.547 E79.76447
G0 F6000 X99.678 Y97.981
G1 F1200 X120.01 Y118.313 E80.72082
G0 F6000 X120.01 Y117.748
G1 F1200 X99.678 Y97.415 E81.6772
G0 F6000 X99.678 Y96.85
G1 F1200 X120.01 Y117.182 E82.63356
G0 F6000 X120.01 Y116.616
G1 F1200 X99.678 Y96.284 E83.58991
G0 F6000 X99.678 Y95.718
G1 F1200 X120.01 Y116.051 E84.54629
G0 F6000 X120.01 Y115.485
G1 F1200 X99.678 Y95.153 E85.50264
G0 F6000 X99.678 Y94.587
G1 F1200 X120.01 Y114.919 E86.459
G0 F6000 X120.01 Y114.354
G1 F1200 X99.678 Y94.021 E87.41538
G0 F6000 X99.678 Y93.456
G1 F1200 X120.01 Y113.788 E88.37173
G0 F6000 X120.01 Y113.222
G1 F1200 X99.678 Y92.89 E89.32809
G0 F6000 X99.678 Y92.324
G1 F1200 X120.01 Y112.656 E90.28444
G0 F6000 X120.01 Y112.091
G1 F1200 X99.678 Y91.759 E91.2408
G0 F6000 X99.678 Y91.193
G1 F1200 X120.01 Y111.525 E92.19715
G0 F6000 X120.01 Y110.959
G1 F1200 X99.678 Y90.627 E93.15351
G0 F6000 X99.678 Y90.062
G1 F1200 X120.01 Y110.394 E94.10986
G0 F6000 X120.01 Y109.828
G1 F1200 X99.678 Y89.496 E95.06622
G0 F6000 X99.678 Y88.93
G1 F1200 X120.01 Y109.262 E96.02257
G0 F6000 X120.01 Y108.697
G1 F1200 X99.678 Y88.365 E96.97893
G0 F6000 X99.678 Y87.799
G1 F1200 X120.01 Y108.131 E97.93528
G0 F6000 X120.01 Y107.565
G1 F1200 X99.678 Y87.233 E98.89164
G0 F6000 X99.678 Y86.667
G1 F1200 X120.01 Y107 E99.84802
G0 F6000 X120.01 Y106.434
G1 F1200 X99.678 Y86.102 E100.80437
G0 F6000 X99.678 Y85.536
G1 F1200 X120.01 Y105.868 E101.76073
G0 F6000 X120.01 Y105.303
G1 F1200 X99.678 Y84.97 E102.7171
G0 F6000 X99.923 Y84.649
G1 F1200 X120.01 Y104.737 E103.66196
G0 F6000 X120.01 Y104.171
G1 F1200 X100.489 Y84.649 E104.58019
G0 F6000 X100.489 Y84.21
G0 X100.885 Y84.266
G0 X102.709 Y85.685
G0 X102.426 Y86.021
G1 F1200 X120.01 Y103.605 E105.40729
G0 F6000 X120.01 Y103.04
G1 F1200 X105.941 Y88.971 E106.06905
G0 F6000 X106.224 Y88.634
G0 X109.739 Y91.584
G0 X109.456 Y91.92
G1 F1200 X120.01 Y102.474 E106.56548
G0 F6000 X120.01 Y101.908
G1 F1200 X112.971 Y94.869 E106.89657
G0 F6000 X113.254 Y94.533
G0 X116.77 Y97.482
G0 X116.486 Y97.819
G1 F1200 X120.01 Y101.343 E107.06233
G0 F6000 X120.361 Y101.343
G1 F2700 E102.06233
;MESH:NONMESH
G0 F300 X120.361 Y101.343 Z0.44
G0 F6000 X120.451 Y101.343
G0 X120.561 Y135.9
;TIME_ELAPSED:175.842068
;LAYER:1
M140 S50
M106 S85
;TYPE:WALL-INNER
;MESH:SideWallswBase52.stl
