;FLAVOR:Marlin
;TIME:10136
;Filament used: 13.5552m
;Layer height: 0.2
;MINX:87.684
;MINY:53
;MINZ:0.2
;MAXX:132.316
;MAXY:167
;MAXZ:142.88
;Generated with Cura_SteamEngine 4.6.1
M140 S50
M105
M190 S50
M104 S200
M105
M109 S200
M82 ;absolute extrusion mode
M201 X500.00 Y500.00 Z100.00 E5000.00 ;Setup machine max acceleration
M203 X500.00 Y500.00 Z10.00 E50.00 ;Setup machine max feedrate
M204 P500.00 R1000.00 T500.00 ;Setup Print/Retract/Travel acceleration
M205 X8.00 Y8.00 Z0.40 E5.00 ;Setup Jerk
M220 S100 ;Reset Feedrate
M221 S100 ;Reset Flowrate

G28 ;Home

G92 E0 ;Reset Extruder
G1 Z2.0 F3000 ;Move Z Axis up
G1 X10.1 Y20 Z0.28 F5000.0 ;Move to start position
G1 X10.1 Y200.0 Z0.28 F1500.0 E15 ;Draw the first line
G1 X10.4 Y200.0 Z0.28 F5000.0 ;Move to side a little
G1 X10.4 Y20 Z0.28 F1500.0 E30 ;Draw the second line
G92 E0 ;Reset Extruder
G1 Z2.0 F3000 ;Move Z Axis up

G92 E0
G92 E0
G1 F2700 E-5
;LAYER_COUNT:597
;LAYER:0
M107
G0 F6000 X121.453 Y53.811 Z0.2
;TYPE:SKIRT
G1 F2700 E0
G1 F1200 X122.355 Y53.864 E0.03005
G1 X123.248 Y53.996 E0.06008
G1 X124.126 Y54.207 E0.09011
G1 X124.982 Y54.495 E0.12015
G1 X125.809 Y54.857 E0.15018
G1 X126.601 Y55.292 E0.18023
G1 X127.352 Y55.794 E0.21027
G1 X128.055 Y56.361 E0.24031
G1 X128.705 Y56.988 E0.27035
G1 X129.297 Y57.67 E0.30039
G1 X129.827 Y58.401 E0.33042
G1 X130.289 Y59.177 E0.36046
G1 X130.682 Y59.99 E0.39049
G1 X131 Y60.835 E0.42052
G1 X131.243 Y61.705 E0.45056
G1 X131.408 Y62.593 E0.4806
G1 X131.503 Y63.723 E0.51832
G1 X131.516 Y64.33 E0.53851
G1 X131.516 Y155.264 E3.56299
G1 X131.506 Y156.117 E3.59136
G1 X131.455 Y157.019 E3.62141
G1 X131.324 Y157.913 E3.65147
G1 X131.115 Y158.791 E3.68148
G1 X130.829 Y159.648 E3.71153
G1 X130.468 Y160.476 E3.74158
G1 X130.036 Y161.268 E3.77158
G1 X129.535 Y162.02 E3.80164
G1 X128.969 Y162.724 E3.83168
G1 X128.344 Y163.375 E3.8617
G1 X127.663 Y163.969 E3.89175
G1 X126.932 Y164.5 E3.9218
G1 X126.158 Y164.964 E3.95182
G1 X125.345 Y165.358 E3.98187
G1 X124.501 Y165.678 E4.01189
G1 X123.631 Y165.923 E4.04195
G1 X122.744 Y166.089 E4.07196
G1 X121.593 Y166.187 E4.11038
G1 X120.986 Y166.2 E4.13058
G1 X99.259 Y166.199 E4.85322
G1 X98.561 Y166.19 E4.87644
G1 X97.66 Y166.139 E4.90645
G1 X96.766 Y166.007 E4.93651
G1 X95.888 Y165.798 E4.96653
G1 X95.031 Y165.511 E4.99659
G1 X94.204 Y165.15 E5.0266
G1 X93.411 Y164.717 E5.05665
G1 X92.66 Y164.216 E5.08668
G1 X91.956 Y163.65 E5.11672
G1 X91.305 Y163.024 E5.14676
G1 X90.712 Y162.343 E5.1768
G1 X90.182 Y161.612 E5.20683
G1 X89.718 Y160.837 E5.23687
G1 X89.324 Y160.024 E5.26692
G1 X89.004 Y159.18 E5.29694
G1 X88.76 Y158.31 E5.32699
G1 X88.594 Y157.422 E5.35704
G1 X88.497 Y156.267 E5.39559
G1 X88.484 Y155.658 E5.41585
G1 X88.484 Y64.674 E8.44199
G1 X88.494 Y63.871 E8.4687
G1 X88.546 Y62.969 E8.49875
G1 X88.678 Y62.076 E8.52877
G1 X88.888 Y61.198 E8.5588
G1 X89.175 Y60.341 E8.58886
G1 X89.537 Y59.514 E8.61889
G1 X89.97 Y58.722 E8.64891
G1 X90.472 Y57.971 E8.67895
G1 X91.039 Y57.267 E8.70902
G1 X91.665 Y56.617 E8.73903
G1 X92.346 Y56.024 E8.76907
G1 X93.078 Y55.494 E8.79913
G1 X93.853 Y55.031 E8.82915
G1 X94.666 Y54.638 E8.85919
G1 X95.511 Y54.318 E8.88924
G1 X96.38 Y54.075 E8.91925
G1 X97.268 Y53.909 E8.9493
G1 X98.407 Y53.813 E8.98731
G1 X99.014 Y53.8 E9.00751
G1 X120.755 Y53.801 E9.73062
G1 X121.453 Y53.811 E9.75383
G0 F6000 X121.459 Y53.411
G1 F1200 X122.378 Y53.464 E9.78445
G1 X123.289 Y53.597 E9.81507
G1 X124.185 Y53.808 E9.84569
G1 X125.059 Y54.096 E9.8763
G1 X125.906 Y54.459 E9.90695
G1 X126.717 Y54.894 E9.93755
G1 X127.487 Y55.398 E9.96816
G1 X128.211 Y55.967 E9.99879
G1 X128.883 Y56.597 E10.02943
G1 X129.498 Y57.282 E10.06005
G1 X130.051 Y58.018 E10.09066
G1 X130.538 Y58.799 E10.12128
G1 X130.955 Y59.62 E10.1519
G1 X131.3 Y60.474 E10.18254
G1 X131.569 Y61.354 E10.21314
G1 X131.761 Y62.255 E10.24378
G1 X131.874 Y63.168 E10.27438
G1 X131.903 Y63.712 E10.2925
G1 X131.916 Y64.33 E10.31306
G1 X131.916 Y155.264 E13.33754
G1 X131.906 Y156.122 E13.36608
G1 X131.855 Y157.041 E13.39669
G1 X131.724 Y157.953 E13.42734
G1 X131.514 Y158.849 E13.45794
G1 X131.228 Y159.724 E13.48856
G1 X130.867 Y160.571 E13.51918
G1 X130.433 Y161.383 E13.54981
G1 X129.931 Y162.155 E13.58044
G1 X129.363 Y162.88 E13.61107
G1 X128.735 Y163.553 E13.64168
G1 X128.051 Y164.169 E13.6723
G1 X127.316 Y164.723 E13.70291
G1 X126.536 Y165.212 E13.73353
G1 X125.716 Y165.631 E13.76416
G1 X124.863 Y165.977 E13.79478
G1 X123.983 Y166.248 E13.8254
G1 X123.083 Y166.441 E13.85602
G1 X122.169 Y166.556 E13.88666
G1 X121.604 Y166.587 E13.90548
G1 X120.986 Y166.6 E13.92603
G1 X99.254 Y166.599 E14.64884
G1 X98.556 Y166.59 E14.67206
G1 X97.637 Y166.538 E14.70268
G1 X96.726 Y166.407 E14.73329
G1 X95.83 Y166.197 E14.7639
G1 X94.955 Y165.91 E14.79453
G1 X94.108 Y165.548 E14.82516
G1 X93.296 Y165.114 E14.85578
G1 X92.525 Y164.612 E14.88638
G1 X91.8 Y164.044 E14.91702
G1 X91.127 Y163.415 E14.94766
G1 X90.512 Y162.731 E14.97825
G1 X89.958 Y161.996 E15.00886
G1 X89.47 Y161.215 E15.03949
G1 X89.051 Y160.395 E15.07012
G1 X88.705 Y159.542 E15.10074
G1 X88.435 Y158.662 E15.13135
G1 X88.242 Y157.761 E15.162
G1 X88.128 Y156.848 E15.1926
G1 X88.097 Y156.277 E15.21162
G1 X88.084 Y155.658 E15.23221
G1 X88.084 Y64.674 E18.25835
G1 X88.094 Y63.866 E18.28523
G1 X88.146 Y62.946 E18.31588
G1 X88.278 Y62.035 E18.34649
G1 X88.489 Y61.139 E18.37711
G1 X88.776 Y60.264 E18.40774
G1 X89.139 Y59.418 E18.43836
G1 X89.573 Y58.606 E18.46898
G1 X90.076 Y57.835 E18.4996
G1 X90.645 Y57.111 E18.53023
G1 X91.273 Y56.439 E18.56082
G1 X91.958 Y55.823 E18.59146
G1 X92.694 Y55.27 E18.62208
G1 X93.475 Y54.782 E18.65271
G1 X94.295 Y54.364 E18.68332
G1 X95.149 Y54.019 E18.71395
G1 X96.029 Y53.749 E18.74457
G1 X96.929 Y53.557 E18.77518
G1 X97.843 Y53.443 E18.80581
G1 X98.396 Y53.413 E18.82423
G1 X99.014 Y53.4 E18.84479
G1 X120.761 Y53.401 E19.5681
G1 X121.459 Y53.411 E19.59132
G0 F6000 X121.465 Y53.011
G1 F1200 X122.401 Y53.065 E19.6225
G1 X123.329 Y53.197 E19.65368
G1 X124.243 Y53.409 E19.68488
G1 X125.135 Y53.698 E19.71607
G1 X126 Y54.061 E19.74727
G1 X126.83 Y54.497 E19.77845
G1 X127.621 Y55.002 E19.80967
G1 X128.365 Y55.573 E19.84086
G1 X129.058 Y56.205 E19.87206
G1 X129.695 Y56.893 E19.90324
G1 X130.27 Y57.634 E19.93444
G1 X130.781 Y58.42 E19.96562
G1 X131.223 Y59.248 E19.99683
G1 X131.592 Y60.11 E20.02802
G1 X131.887 Y61 E20.05921
G1 X132.105 Y61.912 E20.09039
G1 X132.245 Y62.84 E20.12161
G1 X132.303 Y63.701 E20.15031
G1 X132.316 Y64.33 E20.17124
G1 X132.316 Y155.264 E23.19571
G1 X132.306 Y156.127 E23.22442
G1 X132.255 Y157.064 E23.25563
G1 X132.123 Y157.992 E23.28681
G1 X131.914 Y158.906 E23.31799
G1 X131.627 Y159.799 E23.34919
G1 X131.265 Y160.665 E23.38041
G1 X130.831 Y161.496 E23.41159
G1 X130.327 Y162.287 E23.44278
G1 X129.758 Y163.032 E23.47396
G1 X129.127 Y163.727 E23.50518
G1 X128.44 Y164.365 E23.53637
G1 X127.701 Y164.942 E23.56755
G1 X126.915 Y165.454 E23.59875
G1 X126.089 Y165.897 E23.62993
G1 X125.227 Y166.269 E23.66115
G1 X124.338 Y166.565 E23.69232
G1 X123.426 Y166.785 E23.72352
G1 X122.499 Y166.926 E23.75471
G1 X121.615 Y166.987 E23.78418
G1 X120.986 Y167 E23.8051
G1 X99.249 Y166.999 E24.52808
G1 X98.551 Y166.99 E24.5513
G1 X97.615 Y166.938 E24.58248
G1 X96.686 Y166.806 E24.61368
G1 X95.772 Y166.596 E24.64488
G1 X94.879 Y166.309 E24.67607
G1 X94.014 Y165.946 E24.70727
G1 X93.183 Y165.512 E24.73846
G1 X92.392 Y165.008 E24.76965
G1 X91.647 Y164.438 E24.80085
G1 X90.953 Y163.807 E24.83205
G1 X90.316 Y163.12 E24.86321
G1 X89.739 Y162.38 E24.89442
G1 X89.227 Y161.594 E24.92562
G1 X88.784 Y160.767 E24.95682
G1 X88.413 Y159.906 E24.98801
G1 X88.117 Y159.016 E25.0192
G1 X87.898 Y158.104 E25.0504
G1 X87.757 Y157.177 E25.08158
G1 X87.697 Y156.288 E25.11122
G1 X87.684 Y155.658 E25.13218
G1 X87.684 Y64.674 E28.15832
G1 X87.694 Y63.86 E28.18539
G1 X87.747 Y62.924 E28.21657
G1 X87.879 Y61.995 E28.24778
G1 X88.09 Y61.081 E28.27898
G1 X88.378 Y60.189 E28.31016
G1 X88.741 Y59.324 E28.34136
G1 X89.176 Y58.493 E28.37256
G1 X89.68 Y57.703 E28.40372
G1 X90.25 Y56.958 E28.43492
G1 X90.882 Y56.264 E28.46614
G1 X91.57 Y55.627 E28.49733
G1 X92.31 Y55.051 E28.52852
G1 X93.096 Y54.539 E28.55972
G1 X93.923 Y54.097 E28.59091
G1 X94.785 Y53.727 E28.62211
G1 X95.675 Y53.431 E28.6533
G1 X96.587 Y53.213 E28.68449
G1 X97.514 Y53.072 E28.71568
G1 X98.385 Y53.013 E28.74471
G1 X99.014 Y53 E28.76564
G1 X120.767 Y53.001 E29.48914
G1 X121.465 Y53.011 E29.51236
G1 F2700 E24.51236
;MESH:SideWallswBase6.stl
G0 F6000 X120.896 Y63.335
G0 X120.896 Y64.42
G0 X120.534 Y155.218
G0 X99.284 Y155.4
;TYPE:WALL-INNER
G1 F2700 E29.51236
G1 F1200 X99.284 Y64.6 E32.53238
G1 X120.716 Y64.6 E33.24521
G1 X120.716 Y155.4 E36.26523
G1 X99.284 Y155.4 E36.97807
G0 F6000 X98.884 Y155.8
;TYPE:WALL-OUTER
G1 F1200 X98.884 Y64.2 E40.02469
G1 X121.116 Y64.2 E40.76413
G1 X121.116 Y155.8 E43.81076
G1 X98.884 Y155.8 E44.5502
G0 F6000 X99.154 Y155.53
G0 X99.394 Y155.01
G0 X99.674 Y155.01
;TYPE:SKIN
G1 F1200 X99.674 Y64.99 E47.54428
G1 X120.326 Y64.99 E48.23117
G1 X120.326 Y155.01 E51.22524
G1 X99.674 Y155.01 E51.91213
G0 F6000 X99.977 Y154.849
G1 F1200 X99.833 Y154.705 E51.91891
G0 F6000 X99.833 Y154.139
G1 F1200 X100.543 Y154.849 E51.9523
G0 F6000 X101.109 Y154.849
G1 F1200 X99.833 Y153.573 E52.01232
G0 F6000 X99.833 Y153.008
G1 F1200 X101.674 Y154.849 E52.09892
G0 F6000 X102.24 Y154.849
G1 F1200 X99.833 Y152.442 E52.21213
G0 F6000 X99.833 Y151.876
G1 F1200 X102.806 Y154.849 E52.35197
G0 F6000 X103.371 Y154.849
G1 F1200 X99.833 Y151.31 E52.51841
G0 F6000 X99.833 Y150.745
G1 F1200 X103.937 Y154.849 E52.71145
G0 F6000 X104.503 Y154.849
G1 F1200 X99.833 Y150.179 E52.93112
G0 F6000 X99.833 Y149.613
G1 F1200 X105.068 Y154.849 E53.17738
G0 F6000 X105.634 Y154.849
G1 F1200 X99.833 Y149.048 E53.45024
G0 F6000 X99.833 Y148.482
G1 F1200 X106.2 Y154.849 E53.74972
G0 F6000 X106.766 Y154.849
G1 F1200 X99.833 Y147.916 E54.07583
G0 F6000 X99.833 Y147.351
G1 F1200 X107.331 Y154.849 E54.42851
G0 F6000 X107.897 Y154.849
G1 F1200 X99.833 Y146.785 E54.80782
G0 F6000 X99.833 Y146.219
G1 F1200 X108.463 Y154.849 E55.21375
G0 F6000 X109.028 Y154.849
G1 F1200 X99.833 Y145.654 E55.64625
G0 F6000 X99.833 Y145.088
G1 F1200 X109.594 Y154.849 E56.10538
G0 F6000 X110.16 Y154.849
G1 F1200 X99.833 Y144.522 E56.59113
G0 F6000 X99.833 Y143.957
G1 F1200 X110.725 Y154.849 E57.10346
G0 F6000 X111.291 Y154.849
G1 F1200 X99.833 Y143.391 E57.64241
G0 F6000 X99.833 Y142.825
G1 F1200 X111.857 Y154.849 E58.20798
G0 F6000 X112.422 Y154.849
G1 F1200 X99.833 Y142.259 E58.80015
G0 F6000 X99.833 Y141.694
G1 F1200 X112.988 Y154.849 E59.41892
G0 F6000 X113.554 Y154.849
G1 F1200 X99.833 Y141.128 E60.06431
G0 F6000 X99.833 Y140.562
G1 F1200 X114.119 Y154.849 E60.73631
G0 F6000 X114.685 Y154.849
G1 F1200 X99.833 Y139.997 E61.4349
G0 F6000 X99.833 Y139.431
G1 F1200 X115.251 Y154.849 E62.16012
G0 F6000 X115.817 Y154.849
G1 F1200 X99.833 Y138.865 E62.91195
G0 F6000 X99.833 Y138.3
G1 F1200 X116.382 Y154.849 E63.69037
G0 F6000 X116.948 Y154.849
G1 F1200 X99.833 Y137.734 E64.49541
G0 F6000 X99.833 Y137.168
G1 F1200 X117.514 Y154.849 E65.32707
G0 F6000 X118.079 Y154.849
G1 F1200 X99.833 Y136.603 E66.1853
G0 F6000 X99.833 Y136.037
G1 F1200 X118.645 Y154.849 E67.07016
G0 F6000 X119.211 Y154.849
G1 F1200 X99.833 Y135.471 E67.98164
G0 F6000 X99.833 Y134.906
G1 F1200 X119.776 Y154.849 E68.9197
G0 F6000 X120.165 Y154.672
G1 F1200 X99.833 Y134.34 E69.87605
G0 F6000 X99.833 Y133.774
G1 F1200 X120.165 Y154.106 E70.83241
G0 F6000 X120.165 Y153.541
G1 F1200 X99.833 Y133.209 E71.78876
G0 F6000 X99.833 Y132.643
G1 F1200 X120.165 Y152.975 E72.74512
G0 F6000 X120.165 Y152.409
G1 F1200 X99.833 Y132.077 E73.70147
G0 F6000 X99.833 Y131.511
G1 F1200 X120.165 Y151.844 E74.65785
G0 F6000 X120.165 Y151.278
G1 F1200 X99.833 Y130.946 E75.61421
G0 F6000 X99.833 Y130.38
G1 F1200 X120.165 Y150.712 E76.57056
G0 F6000 X120.165 Y150.147
G1 F1200 X99.833 Y129.814 E77.52694
G0 F6000 X99.833 Y129.249
G1 F1200 X120.165 Y149.581 E78.4833
G0 F6000 X120.165 Y149.015
G1 F1200 X99.833 Y128.683 E79.43965
G0 F6000 X99.833 Y128.117
G1 F1200 X120.165 Y148.449 E80.39601
G0 F6000 X120.165 Y147.884
G1 F1200 X99.833 Y127.552 E81.35236
G0 F6000 X99.833 Y126.986
G1 F1200 X120.165 Y147.318 E82.30872
G0 F6000 X120.165 Y146.752
G1 F1200 X99.833 Y126.42 E83.26507
G0 F6000 X99.833 Y125.855
G1 F1200 X120.165 Y146.187 E84.22143
G0 F6000 X120.165 Y145.621
G1 F1200 X99.833 Y125.289 E85.17778
G0 F6000 X99.833 Y124.723
G1 F1200 X120.165 Y145.055 E86.13414
G0 F6000 X120.165 Y144.49
G1 F1200 X99.833 Y124.158 E87.09049
G0 F6000 X99.833 Y123.592
G1 F1200 X120.165 Y143.924 E88.04685
G0 F6000 X120.165 Y143.358
G1 F1200 X99.833 Y123.026 E89.0032
G0 F6000 X99.833 Y122.46
G1 F1200 X120.165 Y142.793 E89.95958
G0 F6000 X120.165 Y142.227
G1 F1200 X99.833 Y121.895 E90.91593
G0 F6000 X99.833 Y121.329
G1 F1200 X120.165 Y141.661 E91.87229
G0 F6000 X120.165 Y141.096
G1 F1200 X99.833 Y120.763 E92.82867
G0 F6000 X99.833 Y120.198
G1 F1200 X120.165 Y140.53 E93.78502
G0 F6000 X120.165 Y139.964
G1 F1200 X99.833 Y119.632 E94.74138
G0 F6000 X99.833 Y119.066
G1 F1200 X120.165 Y139.399 E95.69776
G0 F6000 X120.165 Y138.833
G1 F1200 X99.833 Y118.501 E96.65411
G0 F6000 X99.833 Y117.935
G1 F1200 X120.165 Y138.267 E97.61047
G0 F6000 X120.165 Y137.701
G1 F1200 X99.833 Y117.369 E98.56682
G0 F6000 X99.833 Y116.804
G1 F1200 X120.165 Y137.136 E99.52318
G0 F6000 X120.165 Y136.57
G1 F1200 X99.833 Y116.238 E100.47953
G0 F6000 X99.833 Y115.672
G1 F1200 X120.165 Y136.004 E101.43589
G0 F6000 X120.165 Y135.439
G1 F1200 X99.833 Y115.107 E102.39224
G0 F6000 X99.833 Y114.541
G1 F1200 X120.165 Y134.873 E103.34859
G0 F6000 X120.165 Y134.307
G1 F1200 X99.833 Y113.975 E104.30495
G0 F6000 X99.833 Y113.41
G1 F1200 X120.165 Y133.742 E105.2613
G0 F6000 X120.165 Y133.176
G1 F1200 X99.833 Y112.844 E106.21766
G0 F6000 X99.833 Y112.278
G1 F1200 X120.165 Y132.61 E107.17401
G0 F6000 X120.165 Y132.045
G1 F1200 X99.833 Y111.712 E108.13039
G0 F6000 X99.833 Y111.147
G1 F1200 X120.165 Y131.479 E109.08675
G0 F6000 X120.165 Y130.913
G1 F1200 X99.833 Y110.581 E110.0431
G0 F6000 X99.833 Y110.015
G1 F1200 X120.165 Y130.348 E110.99948
G0 F6000 X120.165 Y129.782
G1 F1200 X99.833 Y109.45 E111.95584
G0 F6000 X99.833 Y108.884
G1 F1200 X120.165 Y129.216 E112.91219
G0 F6000 X120.165 Y128.651
G1 F1200 X99.833 Y108.318 E113.86857
G0 F6000 X99.833 Y107.753
G1 F1200 X120.165 Y128.085 E114.82492
G0 F6000 X120.165 Y127.519
G1 F1200 X99.833 Y107.187 E115.78128
G0 F6000 X99.833 Y106.621
G1 F1200 X120.165 Y126.953 E116.73763
G0 F6000 X120.165 Y126.388
G1 F1200 X99.833 Y106.056 E117.69399
G0 F6000 X99.833 Y105.49
G1 F1200 X120.165 Y125.822 E118.65034
G0 F6000 X120.165 Y125.256
G1 F1200 X99.833 Y104.924 E119.6067
G0 F6000 X99.833 Y104.359
G1 F1200 X120.165 Y124.691 E120.56305
G0 F6000 X120.165 Y124.125
G1 F1200 X99.833 Y103.793 E121.51941
G0 F6000 X99.833 Y103.227
G1 F1200 X120.165 Y123.559 E122.47576
G0 F6000 X120.165 Y122.994
G1 F1200 X99.833 Y102.662 E123.43212
G0 F6000 X99.833 Y102.096
G1 F1200 X120.165 Y122.428 E124.38847
G0 F6000 X120.165 Y121.862
G1 F1200 X99.833 Y101.53 E125.34483
G0 F6000 X99.833 Y100.964
G1 F1200 X120.165 Y121.297 E126.30121
G0 F6000 X120.165 Y120.731
G1 F1200 X99.833 Y100.399 E127.25756
G0 F6000 X99.833 Y99.833
G1 F1200 X120.165 Y120.165 E128.21392
G0 F6000 X120.165 Y119.6
G1 F1200 X99.833 Y99.267 E129.1703
G0 F6000 X99.833 Y98.702
G1 F1200 X120.165 Y119.034 E130.12665
G0 F6000 X120.165 Y118.468
G1 F1200 X99.833 Y98.136 E131.08301
G0 F6000 X99.833 Y97.57
G1 F1200 X120.165 Y117.902 E132.03936
G0 F6000 X120.165 Y117.337
G1 F1200 X99.833 Y97.005 E132.99572
G0 F6000 X99.833 Y96.439
G1 F1200 X120.165 Y116.771 E133.95207
G0 F6000 X120.165 Y116.205
G1 F1200 X99.833 Y95.873 E134.90843
G0 F6000 X99.833 Y95.308
G1 F1200 X120.165 Y115.64 E135.86478
G0 F6000 X120.165 Y115.074
G1 F1200 X99.833 Y94.742 E136.82114
G0 F6000 X99.833 Y94.176
G1 F1200 X120.165 Y114.508 E137.77749
G0 F6000 X120.165 Y113.943
G1 F1200 X99.833 Y93.611 E138.73385
G0 F6000 X99.833 Y93.045
G1 F1200 X120.165 Y113.377 E139.6902
G0 F6000 X120.165 Y112.811
G1 F1200 X99.833 Y92.479 E140.64656
G0 F6000 X99.833 Y91.913
