;FLAVOR:Marlin
;TIME:7415
;Filament used: 10.4223m
;Layer height: 0.2
;MINX:81.784
;MINY:48.335
;MINZ:0.24
;MAXX:139.079
;MAXY:171.664
;MAXZ:71.01
;Generated with Cura_SteamEngine 4.6.1
M140 S50
M105
M190 S50
M104 S200
M105
M109 S200
M82 ;absolute extrusion mode
M201 X500.00 Y500.00 Z100.00 E5000.00 ;Setup machine max acceleration
M203 X500.00 Y500.00 Z10.00 E50.00 ;Setup machine max feedrate
M204 P500.00 R1000.00 T500.00 ;Setup Print/Retract/Travel acceleration
M205 X8.00 Y8.00 Z0.40 E5.00 ;Setup Jerk
M220 S100 ;Reset Feedrate
M221 S100 ;Reset Flowrate

G28 ;Home

G92 E0 ;Reset Extruder
G1 Z2.0 F3000 ;Move Z Axis up
G1 X10.1 Y20 Z0.28 F5000.0 ;Move to start position
G1 X10.1 Y200.0 Z0.28 F1500.0 E15 ;Draw the first line
G1 X10.4 Y200.0 Z0.28 F5000.0 ;Move to side a little
G1 X10.4 Y20 Z0.28 F1500.0 E30 ;Draw the second line
G92 E0 ;Reset Extruder
G1 Z2.0 F3000 ;Move Z Axis up

G92 E0
G92 E0
G1 F2700 E-5
;LAYER_COUNT:293
;LAYER:-6
M107
G0 F12000 X84.461 Y55.871 Z0.24
;TYPE:SUPPORT-INTERFACE
G1 F2700 E0
G1 F1800 X84.972 Y55.157 E0.07009
G1 X85.085 Y55.009 E0.08495
G1 X85.661 Y54.318 E0.15676
G1 X85.762 Y54.205 E0.16886
G1 X86.387 Y53.556 E0.24078
G1 X86.512 Y53.436 E0.25461
G1 X87.183 Y52.833 E0.32663
G1 X87.299 Y52.737 E0.33864
G1 X88.011 Y52.187 E0.41046
G1 X88.17 Y52.074 E0.42603
G1 X88.908 Y51.584 E0.49675
G1 X89.034 Y51.508 E0.50849
G1 X89.828 Y51.062 E0.58119
G1 X89.978 Y50.984 E0.59468
G1 X90.793 Y50.601 E0.66656
G1 X90.936 Y50.541 E0.67894
G1 X91.795 Y50.212 E0.75237
G1 X91.945 Y50.16 E0.76504
G1 X92.795 Y49.905 E0.83588
G1 X92.968 Y49.859 E0.85017
G1 X93.863 Y49.658 E0.92339
G1 X93.993 Y49.635 E0.93393
G1 X94.898 Y49.501 E1.00696
G1 X95.067 Y49.483 E1.02053
G1 X96.14 Y49.408 E1.10639
G1 X96.645 Y49.4 E1.1467
G1 X123.418 Y49.401 E3.28384
G1 X124.542 Y49.446 E3.37363
G1 X125.459 Y49.548 E3.44728
G1 X125.634 Y49.573 E3.4614
G1 X126.523 Y49.737 E3.53356
G1 X126.646 Y49.765 E3.54363
G1 X127.54 Y49.999 E3.61739
G1 X127.703 Y50.048 E3.63098
G1 X128.545 Y50.335 E3.70199
G1 X128.711 Y50.398 E3.71616
G1 X129.514 Y50.739 E3.7858
G1 X129.703 Y50.827 E3.80244
G1 X130.614 Y51.301 E3.88442
G1 X131.393 Y51.776 E3.95725
G1 X131.544 Y51.876 E3.97171
G1 X132.258 Y52.387 E4.04179
G1 X132.406 Y52.5 E4.05666
G1 X133.097 Y53.076 E4.12847
G1 X133.21 Y53.177 E4.14056
G1 X133.859 Y53.802 E4.21249
G1 X133.979 Y53.927 E4.22632
G1 X134.582 Y54.598 E4.29833
G1 X134.678 Y54.714 E4.31035
G1 X135.237 Y55.438 E4.38336
G1 X135.331 Y55.569 E4.39624
G1 X135.831 Y56.323 E4.46845
G1 X135.907 Y56.449 E4.4802
G1 X136.353 Y57.243 E4.55289
G1 X136.431 Y57.393 E4.56639
G1 X136.814 Y58.208 E4.63827
G1 X136.874 Y58.351 E4.65065
G1 X137.203 Y59.21 E4.72408
G1 X137.255 Y59.36 E4.73675
G1 X137.51 Y60.21 E4.80759
G1 X137.556 Y60.383 E4.82188
G1 X137.755 Y61.269 E4.89436
G1 X137.78 Y61.408 E4.90564
G1 X137.913 Y62.307 E4.97818
G1 X137.931 Y62.469 E4.99119
G1 X138.007 Y63.555 E5.07809
G1 X138.015 Y64.056 E5.11809
G1 X138.015 Y155.986 E12.45634
G1 X137.979 Y156.992 E12.5367
G1 X137.969 Y157.127 E12.5475
G1 X137.867 Y158.044 E12.62115
G1 X137.842 Y158.219 E12.63526
G1 X137.68 Y159.097 E12.70653
G1 X137.65 Y159.231 E12.71749
G1 X137.419 Y160.116 E12.7905
G1 X137.367 Y160.288 E12.80485
G1 X137.091 Y161.1 E12.87331
G1 X137.011 Y161.309 E12.89117
G1 X136.676 Y162.099 E12.95967
G1 X136.595 Y162.274 E12.97506
G1 X136.179 Y163.082 E13.04761
G1 X135.639 Y163.978 E13.13111
G1 X135.539 Y164.129 E13.14557
G1 X135.028 Y164.843 E13.21566
G1 X134.915 Y164.991 E13.23052
G1 X134.339 Y165.682 E13.30233
G1 X134.238 Y165.795 E13.31443
G1 X133.613 Y166.444 E13.38635
G1 X133.488 Y166.564 E13.40018
G1 X132.818 Y167.166 E13.47208
G1 X132.701 Y167.263 E13.48421
G1 X131.989 Y167.813 E13.55603
G1 X131.83 Y167.926 E13.5716
G1 X131.092 Y168.416 E13.64232
G1 X130.966 Y168.492 E13.65406
G1 X130.172 Y168.938 E13.72676
G1 X130.021 Y169.016 E13.74032
G1 X129.207 Y169.399 E13.81213
G1 X129.064 Y169.459 E13.82451
G1 X128.205 Y169.788 E13.89794
G1 X128.055 Y169.84 E13.91061
G1 X127.205 Y170.095 E13.98145
G1 X127.032 Y170.141 E13.99574
G1 X126.137 Y170.342 E14.06896
G1 X126.007 Y170.365 E14.0795
G1 X125.102 Y170.499 E14.15253
G1 X124.934 Y170.517 E14.16601
G1 X123.86 Y170.592 E14.25195
G1 X123.355 Y170.6 E14.29227
G1 X96.582 Y170.599 E16.42941
G1 X95.458 Y170.554 E16.5192
G1 X94.541 Y170.452 E16.59285
G1 X94.366 Y170.427 E16.60696
G1 X93.477 Y170.263 E16.67912
G1 X93.354 Y170.235 E16.68919
G1 X92.46 Y170.001 E16.76296
G1 X92.297 Y169.952 E16.77655
G1 X91.455 Y169.665 E16.84756
G1 X91.289 Y169.602 E16.86173
G1 X90.486 Y169.261 E16.93137
G1 X90.297 Y169.173 E16.94801
G1 X89.386 Y168.699 E17.02999
G1 X88.607 Y168.224 E17.10282
G1 X88.456 Y168.124 E17.11727
G1 X87.742 Y167.613 E17.18736
G1 X87.594 Y167.5 E17.20223
G1 X86.903 Y166.924 E17.27403
G1 X86.79 Y166.823 E17.28613
G1 X86.141 Y166.198 E17.35806
G1 X86.021 Y166.073 E17.37189
G1 X85.418 Y165.402 E17.4439
G1 X85.321 Y165.284 E17.45609
G1 X84.763 Y164.562 E17.52893
G1 X84.659 Y164.415 E17.54331
G1 X84.166 Y163.672 E17.61448
G1 X84.093 Y163.551 E17.62576
G1 X83.641 Y162.746 E17.69946
G1 X83.569 Y162.607 E17.71196
G1 X83.172 Y161.761 E17.78655
G1 X83.126 Y161.649 E17.79622
G1 X82.797 Y160.79 E17.86964
G1 X82.74 Y160.625 E17.88358
G1 X82.49 Y159.79 E17.95316
G1 X82.444 Y159.617 E17.96744
G1 X82.242 Y158.716 E18.04115
G1 X82.22 Y158.592 E18.0512
G1 X82.085 Y157.678 E18.12496
G1 X82.068 Y157.518 E18.1378
G1 X81.993 Y156.445 E18.22366
G1 X81.985 Y155.944 E18.26366
G1 X81.985 Y64.014 E25.60191
G1 X82.021 Y63.008 E25.68226
G1 X82.031 Y62.873 E25.69307
G1 X82.133 Y61.956 E25.76672
G1 X82.158 Y61.781 E25.78083
G1 X82.32 Y60.903 E25.8521
G1 X82.35 Y60.769 E25.86306
G1 X82.581 Y59.884 E25.93607
G1 X82.633 Y59.712 E25.95041
G1 X82.92 Y58.87 E26.02142
G1 X82.983 Y58.704 E26.0356
G1 X83.324 Y57.901 E26.10524
G1 X83.405 Y57.726 E26.12063
G1 X83.886 Y56.801 E26.20385
G1 X84.361 Y56.022 E26.27668
G1 X84.461 Y55.871 E26.29114
G0 F12000 X84.8 Y55.397
G1 F1800 X84.8 Y164.609 E35.00891
G0 F12000 X86.4 Y166.447
G1 F1800 X86.4 Y53.543 E44.0214
G0 F12000 X88 Y52.195
G1 F1800 X88 Y167.797 E53.24925
G0 F12000 X89.6 Y168.81
G1 F1800 X89.6 Y51.19 E62.63819
G0 F12000 X91.2 Y50.439
G1 F1800 X91.2 Y169.564 E72.14726
G0 F12000 X92.8 Y170.089
G1 F1800 X92.8 Y49.903 E81.74103
G0 F12000 X94.4 Y49.574
G1 F1800 X94.4 Y170.431 E91.38836
G0 F12000 X96 Y170.575
G1 F1800 X96 Y49.417 E101.05971
G0 F12000 X97.6 Y49.401
G1 F1800 X97.6 Y170.599 E110.73426
G0 F12000 X99.2 Y170.599
G1 F1800 X99.2 Y49.401 E120.40881
G0 F12000 X100.8 Y49.401
G1 F1800 X100.8 Y170.599 E130.08336
G0 F12000 X102.4 Y170.599
G1 F1800 X102.4 Y49.401 E139.7579
G0 F12000 X104 Y49.401
G1 F1800 X104 Y170.599 E149.43245
G0 F12000 X105.6 Y170.599
G1 F1800 X105.6 Y49.401 E159.107
G0 F12000 X107.2 Y49.401
G1 F1800 X107.2 Y170.599 E168.78155
G0 F12000 X108.8 Y170.599
G1 F1800 X108.8 Y49.401 E178.4561
G0 F12000 X110.4 Y49.401
G1 F1800 X110.4 Y170.599 E188.13065
G0 F12000 X112 Y170.599
G1 F1800 X112 Y49.401 E197.8052
G0 F12000 X113.6 Y49.401
G1 F1800 X113.6 Y170.599 E207.47974
G0 F12000 X115.2 Y170.599
G1 F1800 X115.2 Y49.401 E217.15429
G0 F12000 X116.8 Y49.401
G1 F1800 X116.8 Y170.599 E226.82884
G0 F12000 X118.4 Y170.599
G1 F1800 X118.4 Y49.401 E236.50339
G0 F12000 X120 Y49.401
G1 F1800 X120 Y170.599 E246.17794
G0 F12000 X121.6 Y170.599
G1 F1800 X121.6 Y49.401 E255.85249
G0 F12000 X123.2 Y49.401
G1 F1800 X123.2 Y170.599 E265.52703
G0 F12000 X124.8 Y170.527
G1 F1800 X124.8 Y49.475 E275.18993
G0 F12000 X126.4 Y49.715
G1 F1800 X126.4 Y170.283 E284.81419
G0 F12000 X128 Y169.857
G1 F1800 X128 Y50.15 E294.36972
G0 F12000 X129.6 Y50.78
G1 F1800 X129.6 Y169.215 E303.82371
G0 F12000 X131.2 Y168.345
G1 F1800 X131.2 Y51.659 E313.13809
G0 F12000 X132.8 Y52.829
G1 F1800 X132.8 Y167.181 E322.26616
G0 F12000 X134.4 Y165.609
G1 F1800 X134.4 Y54.396 E331.14367
G0 F12000 X136 Y56.615
G1 F1800 X136 Y163.38 E339.66611
G0 F12000 X137.6 Y159.423
G1 F1800 X137.6 Y60.579 E347.55627
G1 F2700 E342.55627
G0 F12000 X138.588 Y60.122
G0 X138.202 Y58.841
G0 X137.381 Y56.914
G0 X136.734 Y55.76
G0 X135.514 Y54.056
G0 X134.618 Y53.055
G0 X133.063 Y51.662
G0 X131.958 Y50.874
G0 X130.164 Y49.868
G0 X128.9 Y49.331
G0 X126.903 Y48.732
G0 X125.587 Y48.491
G0 X123.402 Y48.336
G0 X95.895 Y48.354
G0 X93.827 Y48.583
G0 X92.512 Y48.879
G0 X90.546 Y49.55
G0 X89.328 Y50.122
G0 X87.562 Y51.201
G0 X86.482 Y52.032
G0 X84.977 Y53.486
G0 X84.119 Y54.519
G0 X83.087 Y56.083
G0 X82.22 Y57.778
G0 X83.2 Y58.193
G1 F2700 E347.55627
G1 F1800 X83.2 Y161.82 E355.82822
G0 F300 X83.2 Y161.82 Z0.54
G0 F12000 X84.092 Y163.55
;TIME_ELAPSED:159.265944
;LAYER:-5
M140 S50
;TYPE:SUPPORT
G1 F1800 X84.165 Y163.671 E355.84232
G1 X84.658 Y164.414 E355.93129
G1 X84.763 Y164.561 E355.94932
G1 X85.32 Y165.283 E356.04031
G1 X85.417 Y165.401 E356.05555
G1 X86.02 Y166.072 E356.14556
G1 X86.141 Y166.196 E356.16285
G1 X86.79 Y166.822 E356.25283
G1 X86.902 Y166.923 E356.26787
G1 X87.593 Y167.499 E356.35763
G1 X87.742 Y167.612 E356.37629
G1 X88.456 Y168.123 E356.4639
G1 X88.606 Y168.222 E356.48184
G1 X89.386 Y168.698 E356.57301
G1 X89.627 Y168.823 E356.6001
G1 X83.758 Y162.954 E357.42828
G1 X83.64 Y162.744 E357.45232
G1 X83.568 Y162.606 E357.46785
G1 X83.172 Y161.759 E357.56114
G1 X83.126 Y161.648 E357.57313
G1 X82.797 Y160.789 E357.66491
G1 X82.739 Y160.624 E357.68237
G1 X82.695 Y160.477 E357.69768
G1 X92.103 Y169.885 E359.02525
G1 X92.297 Y169.951 E359.04569
G1 X92.459 Y169.999 E359.06255
G1 X93.353 Y170.234 E359.15479
G1 X93.477 Y170.262 E359.16747
G1 X93.988 Y170.356 E359.21931
G1 X82.218 Y158.585 E360.88026
G1 X82.085 Y157.677 E360.97183
G1 X82.067 Y157.517 E360.98789
G1 X82.03 Y156.983 E361.0413
G1 X95.605 Y170.558 E362.95688
G1 X96.582 Y170.597 E363.05444
G1 X97.058 Y170.597 E363.10194
G1 X81.984 Y155.523 E365.22904
G1 X81.984 Y154.109 E365.37013
G1 X98.473 Y170.597 E367.69684
G1 X99.887 Y170.597 E367.83793
G1 X81.984 Y152.695 E370.36416
G1 X81.984 Y151.281 E370.50525
G1 X101.301 Y170.597 E373.23102
G1 X102.715 Y170.597 E373.37211
G1 X81.984 Y149.867 E376.29741
G1 X81.984 Y148.452 E376.4386
G1 X104.129 Y170.597 E379.5635
G1 X105.544 Y170.597 E379.70468
G1 X81.984 Y147.038 E383.02918
G1 X81.984 Y145.624 E383.17027
G1 X106.958 Y170.597 E386.69431
G1 X108.372 Y170.597 E386.83539
G1 X81.984 Y144.21 E390.55896
G1 X81.984 Y142.795 E390.70015
G1 X109.786 Y170.597 E394.62331
G1 X111.201 Y170.598 E394.7645
G1 X81.984 Y141.381 E398.88733
G1 X81.984 Y139.967 E399.02842
G1 X112.615 Y170.598 E403.35079
G1 X114.03 Y170.598 E403.49197
G1 X81.984 Y138.553 E408.01394
G1 X81.984 Y137.139 E408.15503
G1 X115.444 Y170.598 E412.87653
G1 X116.858 Y170.598 E413.01762
G1 X81.984 Y135.724 E417.93872
G1 X81.984 Y134.31 E418.0798
G1 X118.272 Y170.598 E423.20043
G1 X119.687 Y170.598 E423.34162
G1 X81.984 Y132.896 E428.66185
G1 X81.984 Y131.482 E428.80294
G1 X121.101 Y170.598 E434.3227
G1 X122.515 Y170.598 E434.46379
G1 X81.984 Y130.068 E440.18308
G1 X81.984 Y128.653 E440.32427
G1 X123.918 Y170.587 E446.24161
G1 X124.933 Y170.516 E446.34314
G1 X125.102 Y170.498 E446.3601
G1 X125.225 Y170.479 E446.37251
G1 X81.984 Y127.239 E452.47422
G1 X81.984 Y125.825 E452.61531
G1 X126.433 Y170.274 E458.88754
G1 X127.032 Y170.14 E458.94879
G1 X127.204 Y170.093 E458.96658
G1 X127.56 Y169.987 E459.00364
G1 X81.984 Y124.411 E465.43491
G1 X81.984 Y122.996 E465.5761
G1 X128.616 Y169.628 E472.15637
G1 X129.063 Y169.458 E472.20409
G1 X129.206 Y169.398 E472.21957
G1 X129.61 Y169.208 E472.26411
G1 X81.984 Y121.582 E478.98466
G1 X81.984 Y120.168 E479.12575
G1 X130.543 Y168.727 E485.97795
G1 X130.966 Y168.49 E486.02633
G1 X131.091 Y168.415 E486.04087
G1 X131.424 Y168.193 E486.0808
G1 X81.984 Y118.754 E493.05725
G1 X81.984 Y117.34 E493.19834
G1 X132.253 Y167.608 E500.29177
G1 X132.7 Y167.262 E500.34817
G1 X132.817 Y167.164 E500.3634
G1 X133.031 Y166.972 E500.39209
G1 X81.984 Y115.925 E507.59537
G1 X81.984 Y114.511 E507.73646
G1 X133.761 Y166.288 E515.04276
G1 X134.237 Y165.794 E515.11121
G1 X134.338 Y165.68 E515.1264
G1 X134.443 Y165.556 E515.14262
G1 X81.984 Y113.097 E522.54515
G1 X81.984 Y111.683 E522.68624
G1 X135.076 Y164.774 E530.17802
G1 X135.538 Y164.128 E530.25727
G1 X135.639 Y163.977 E530.27539
G1 X135.659 Y163.944 E530.27924
G1 X81.984 Y110.269 E537.85337
G1 X81.984 Y108.854 E537.99456
G1 X136.19 Y163.06 E545.64361
G1 X136.595 Y162.273 E545.73192
G1 X136.665 Y162.121 E545.74862
G1 X81.984 Y107.439 E553.46477
G1 X81.984 Y106.025 E553.60586
G1 X137.081 Y161.123 E561.38071
G1 X137.091 Y161.098 E561.3834
G1 X137.366 Y160.286 E561.46894
G1 X137.419 Y160.115 E561.4868
G1 X137.433 Y160.061 E561.49237
G1 X81.984 Y104.611 E569.31689
G1 X81.984 Y103.197 E569.45798
G1 X137.711 Y158.925 E577.32174
G1 X137.841 Y158.217 E577.39356
G1 X137.866 Y158.043 E577.4111
G1 X137.904 Y157.703 E577.44524
G1 X81.984 Y101.783 E585.33615
G1 X81.984 Y100.368 E585.47734
G1 X138.001 Y156.385 E593.38195
G1 X138.015 Y155.985 E593.42188
G1 X138.015 Y154.985 E593.52166
G1 X81.984 Y98.954 E601.42824
G1 X81.984 Y97.54 E601.56933
G1 X138.015 Y153.571 E609.47591
G1 X138.015 Y152.157 E609.617
G1 X81.984 Y96.126 E617.52358
G1 X81.984 Y94.712 E617.66467
G1 X138.015 Y150.743 E625.57125
G1 X138.015 Y149.328 E625.71244
G1 X81.984 Y93.297 E633.61902
G1 X81.984 Y91.883 E633.76011
G1 X138.015 Y147.914 E641.66669
G1 X138.015 Y146.5 E641.80778
G1 X81.984 Y90.469 E649.71436
G1 X81.984 Y89.055 E649.85545
G1 X138.015 Y145.086 E657.76203
G1 X138.015 Y143.672 E657.90311
G1 X81.984 Y87.64 E665.80976
G1 X81.984 Y86.226 E665.95085
G1 X138.015 Y142.257 E673.85743
G1 X138.015 Y140.843 E673.99852
G1 X81.984 Y84.812 E681.9051
G1 X81.984 Y83.398 E682.04619
G1 X138.015 Y139.429 E689.95277
G1 X138.015 Y138.015 E690.09386
G1 X81.984 Y81.984 E698.00044
G1 X81.984 Y80.569 E698.14163
G1 X138.015 Y136.601 E706.04828
G1 X138.015 Y135.186 E706.18947
G1 X81.984 Y79.155 E714.09605
G1 X81.984 Y77.741 E714.23714
G1 X138.015 Y133.772 E722.14372
G1 X138.015 Y132.358 E722.28481
G1 X81.984 Y76.327 E730.19139
G1 X81.984 Y74.913 E730.33248
G1 X138.015 Y130.944 E738.23905
G1 X138.015 Y129.529 E738.38024
G1 X81.984 Y73.498 E746.28682
G1 X81.984 Y72.084 E746.42791
G1 X138.015 Y128.115 E754.33449
G1 X138.015 Y126.701 E754.47558
G1 X81.984 Y70.67 E762.38216
G1 X81.984 Y69.256 E762.52325
G1 X138.015 Y125.287 E770.42983
G1 X138.015 Y123.873 E770.57092
G1 X81.984 Y67.841 E778.47757
G1 X81.984 Y66.427 E778.61866
G1 X138.015 Y122.458 E786.52524
G1 X138.015 Y121.044 E786.66633
G1 X81.984 Y65.013 E794.57291
G1 X81.984 Y64.013 E794.67269
G1 X81.998 Y63.613 E794.71262
G1 X138.015 Y119.63 E802.61723
G1 X138.015 Y118.216 E802.75832
G1 X82.094 Y62.295 E810.64937
G1 X82.132 Y61.955 E810.68351
G1 X82.157 Y61.781 E810.70105
G1 X82.287 Y61.074 E810.77278
G1 X138.015 Y116.802 E818.6366
G1 X138.015 Y115.387 E818.77779
G1 X82.565 Y59.937 E826.60238
G1 X82.58 Y59.883 E826.60798
G1 X82.632 Y59.712 E826.62581
G1 X82.916 Y58.875 E826.714
G1 X138.015 Y113.973 E834.489
G1 X138.015 Y112.559 E834.63009
G1 X83.333 Y57.878 E842.34624
G1 X83.403 Y57.726 E842.36293
G1 X83.811 Y56.941 E842.45121
G1 X138.015 Y111.145 E850.09998
G1 X138.014 Y109.73 E850.24117
G1 X84.339 Y56.055 E857.81529
G1 X84.359 Y56.021 E857.81923
G1 X84.46 Y55.87 E857.83735
G1 X84.922 Y55.224 E857.9166
G1 X138.014 Y108.316 E865.40845
G1 X138.014 Y106.901 E865.54964
G1 X85.555 Y54.442 E872.95218
G1 X85.66 Y54.318 E872.96839
G1 X85.761 Y54.204 E872.98359
G1 X86.237 Y53.71 E873.05204
G1 X138.014 Y105.487 E880.35833
G1 X138.014 Y104.073 E880.49942
G1 X86.967 Y53.026 E887.7027
G1 X87.182 Y52.832 E887.7316
G1 X87.298 Y52.736 E887.74662
G1 X87.746 Y52.39 E887.8031
G1 X138.014 Y102.659 E894.89653
G1 X138.014 Y101.244 E895.03772
G1 X88.575 Y51.805 E902.0141
G1 X88.907 Y51.583 E902.05395
G1 X89.033 Y51.508 E902.06858
G1 X89.455 Y51.271 E902.11687
G1 X138.014 Y99.83 E908.96907
G1 X138.014 Y98.416 E909.11016
G1 X90.388 Y50.79 E915.8307
G1 X90.792 Y50.6 E915.87525
G1 X90.935 Y50.541 E915.89069
G1 X91.382 Y50.37 E915.93844
G1 X138.014 Y97.002 E922.51872
G1 X138.014 Y95.588 E922.65981
G1 X92.438 Y50.012 E929.09108
G1 X92.794 Y49.905 E929.12817
G1 X92.966 Y49.858 E929.14596
