;FLAVOR:Marlin
;TIME:17635
;Filament used: 22.6809m
;Layer height: 0.2
;MINX:4.328
;MINY:4.344
;MINZ:0.2
;MAXX:215.671
;MAXY:215.672
;MAXZ:69.92
;Generated with Cura_SteamEngine 4.6.1
M140 S50
M105
M190 S50
M104 S200
M105
M109 S200
M82 ;absolute extrusion mode
M201 X500.00 Y500.00 Z100.00 E5000.00 ;Setup machine max acceleration
M203 X500.00 Y500.00 Z10.00 E50.00 ;Setup machine max feedrate
M204 P500.00 R1000.00 T500.00 ;Setup Print/Retract/Travel acceleration
M205 X8.00 Y8.00 Z0.40 E5.00 ;Setup Jerk
M220 S100 ;Reset Feedrate
M221 S100 ;Reset Flowrate

G28 ;Home

G92 E0 ;Reset Extruder
G1 Z2.0 F3000 ;Move Z Axis up
G1 X10.1 Y20 Z0.28 F5000.0 ;Move to start position
G1 X10.1 Y200.0 Z0.28 F1500.0 E15 ;Draw the first line
G1 X10.4 Y200.0 Z0.28 F5000.0 ;Move to side a little
G1 X10.4 Y20 Z0.28 F1500.0 E30 ;Draw the second line
G92 E0 ;Reset Extruder
G1 Z2.0 F3000 ;Move Z Axis up

G92 E0
G92 E0
G1 F2700 E-5
;LAYER_COUNT:293
;LAYER:0
M107
G0 F6000 X162.191 Y5.356 Z0.2
;TYPE:SKIRT
G1 F2700 E0
G1 F1200 X163.066 Y5.578 E0.03002
G1 X163.918 Y5.876 E0.06005
G1 X164.741 Y6.249 E0.0901
G1 X165.527 Y6.693 E0.12012
G1 X166.271 Y7.205 E0.15016
G1 X167.097 Y7.901 E0.18609
G1 X167.319 Y8.109 E0.19621
G1 X167.555 Y8.337 E0.20712
G1 X211.468 Y52.222 E2.272
G1 X211.974 Y52.741 E2.2961
G1 X212.576 Y53.414 E2.32614
G1 X213.115 Y54.139 E2.35618
G1 X213.588 Y54.908 E2.38621
G1 X213.991 Y55.716 E2.41624
G1 X214.321 Y56.557 E2.44629
G1 X214.575 Y57.424 E2.47634
G1 X214.752 Y58.309 E2.50636
G1 X214.85 Y59.207 E2.5364
G1 X214.868 Y60.11 E2.56644
G1 X214.806 Y61.011 E2.59648
G1 X214.665 Y61.903 E2.62652
G1 X214.445 Y62.779 E2.65656
G1 X214.148 Y63.632 E2.6866
G1 X213.778 Y64.455 E2.71661
G1 X213.336 Y65.243 E2.74666
G1 X212.826 Y65.988 E2.77669
G1 X212.106 Y66.844 E2.81389
G1 X211.874 Y67.091 E2.82516
G1 X211.651 Y67.32 E2.8358
G1 X67.466 Y211.505 E9.61782
G1 X66.977 Y211.981 E9.64051
G1 X66.302 Y212.582 E9.67057
G1 X65.577 Y213.12 E9.7006
G1 X64.808 Y213.593 E9.73063
G1 X63.999 Y213.995 E9.76068
G1 X63.158 Y214.325 E9.79072
G1 X62.292 Y214.578 E9.82073
G1 X61.406 Y214.754 E9.85078
G1 X60.508 Y214.852 E9.88082
G1 X59.605 Y214.869 E9.91086
G1 X58.704 Y214.806 E9.9409
G1 X57.812 Y214.664 E9.97094
G1 X56.937 Y214.443 E10.00096
G1 X56.084 Y214.146 E10.031
G1 X55.26 Y213.775 E10.06106
G1 X54.473 Y213.332 E10.09109
G1 X53.728 Y212.822 E10.12112
G1 X52.84 Y212.07 E10.15982
G1 X52.414 Y211.66 E10.17949
G1 X8.493 Y167.739 E12.2454
G1 X8.025 Y167.259 E12.2677
G1 X7.424 Y166.585 E12.29773
G1 X6.884 Y165.86 E12.3278
G1 X6.411 Y165.091 E12.35783
G1 X6.008 Y164.283 E12.38786
G1 X5.678 Y163.442 E12.41791
G1 X5.424 Y162.576 E12.44792
G1 X5.247 Y161.69 E12.47797
G1 X5.149 Y160.792 E12.50802
G1 X5.131 Y159.889 E12.53806
G1 X5.193 Y158.988 E12.5681
G1 X5.334 Y158.096 E12.59813
G1 X5.554 Y157.22 E12.62817
G1 X5.851 Y156.367 E12.65822
G1 X6.221 Y155.544 E12.68823
G1 X6.663 Y154.756 E12.71828
G1 X7.173 Y154.011 E12.74831
G1 X7.902 Y153.145 E12.78596
G1 X8.112 Y152.922 E12.79614
G1 X8.326 Y152.703 E12.80633
G1 X21.03 Y140 E13.40386
G1 X21.511 Y139.533 E13.42616
G1 X22.186 Y138.933 E13.4562
G1 X22.912 Y138.395 E13.48625
G1 X23.682 Y137.924 E13.51627
G1 X24.491 Y137.522 E13.54632
G1 X25.332 Y137.194 E13.57634
G1 X26.199 Y136.941 E13.60638
G1 X27.085 Y136.767 E13.63642
G1 X27.983 Y136.671 E13.66645
G1 X28.886 Y136.655 E13.69649
G1 X29.824 Y136.723 E13.72777
G1 X32.636 Y137.058 E13.82196
G1 X35.192 Y137.292 E13.90733
G1 X37.718 Y137.45 E13.99151
G1 X40.251 Y137.537 E14.07581
G1 X42.822 Y137.553 E14.16132
G1 X45.325 Y137.497 E14.24459
G1 X47.876 Y137.369 E14.32954
G1 X50.38 Y137.171 E14.41309
G1 X52.951 Y136.895 E14.49909
G1 X55.459 Y136.554 E14.58327
G1 X57.941 Y136.144 E14.66694
G1 X60.447 Y135.658 E14.75185
G1 X62.898 Y135.109 E14.83539
G1 X65.402 Y134.475 E14.9213
G1 X67.805 Y133.792 E15.00439
G1 X70.257 Y133.021 E15.08988
G1 X72.65 Y132.191 E15.17412
G1 X75.026 Y131.293 E15.2586
G1 X77.389 Y130.323 E15.34356
G1 X79.697 Y129.296 E15.42758
G1 X81.977 Y128.205 E15.51165
G1 X84.245 Y127.04 E15.59645
G1 X86.475 Y125.813 E15.68111
G1 X88.676 Y124.519 E15.76603
G1 X90.824 Y123.174 E15.85032
G1 X92.933 Y121.768 E15.93463
G1 X94.981 Y120.318 E16.01809
G1 X97.046 Y118.767 E16.10399
G1 X99.025 Y117.19 E16.18815
G1 X100.952 Y115.563 E16.27203
G1 X102.834 Y113.881 E16.35598
G1 X104.71 Y112.108 E16.44184
G1 X106.5 Y110.315 E16.5261
G1 X108.237 Y108.478 E16.61019
G1 X109.926 Y106.581 E16.69467
G1 X111.564 Y104.639 E16.77917
G1 X113.135 Y102.663 E16.86313
G1 X114.682 Y100.601 E16.94887
G1 X116.129 Y98.554 E17.03225
G1 X117.548 Y96.419 E17.11751
G1 X118.898 Y94.26 E17.2022
G1 X120.156 Y92.115 E17.28491
G1 X121.411 Y89.831 E17.37159
G1 X122.551 Y87.607 E17.45471
G1 X123.65 Y85.305 E17.53955
G1 X124.682 Y82.977 E17.62425
G1 X125.651 Y80.617 E17.7091
G1 X126.535 Y78.268 E17.79258
G1 X127.367 Y75.858 E17.87738
G1 X128.132 Y73.419 E17.9624
G1 X128.816 Y71.002 E18.04594
G1 X129.44 Y68.534 E18.13061
G1 X130.004 Y66.009 E18.21666
G1 X130.478 Y63.547 E18.30005
G1 X130.888 Y61.049 E18.38425
G1 X131.227 Y58.551 E18.4681
G1 X131.498 Y56 E18.55342
G1 X131.693 Y53.494 E18.63702
G1 X131.82 Y50.93 E18.72241
G1 X131.874 Y48.395 E18.80674
G1 X131.857 Y45.863 E18.89096
G1 X131.766 Y43.295 E18.97642
G1 X131.607 Y40.791 E19.05987
G1 X131.375 Y38.277 E19.14384
G1 X131.202 Y36.838 E19.19205
G1 X131.043 Y35.45 E19.23852
G1 X130.98 Y34.549 E19.26856
G1 X130.997 Y33.646 E19.2986
G1 X131.094 Y32.748 E19.32864
G1 X131.27 Y31.862 E19.35868
G1 X131.523 Y30.995 E19.38872
G1 X131.853 Y30.154 E19.41877
G1 X132.255 Y29.346 E19.44879
G1 X132.727 Y28.576 E19.47882
G1 X133.265 Y27.851 E19.50885
G1 X133.753 Y27.294 E19.53348
G1 X133.965 Y27.069 E19.54376
G1 X134.177 Y26.852 E19.55385
G1 X152.557 Y8.473 E20.41837
G1 X153.022 Y8.022 E20.43992
G1 X153.697 Y7.423 E20.46993
G1 X154.423 Y6.885 E20.49999
G1 X155.193 Y6.414 E20.53001
G1 X156.003 Y6.013 E20.56007
G1 X156.844 Y5.685 E20.59009
G1 X157.711 Y5.433 E20.62012
G1 X158.597 Y5.259 E20.65015
G1 X159.495 Y5.163 E20.68019
G1 X160.398 Y5.148 E20.71023
G1 X161.299 Y5.212 E20.74027
G1 X162.191 Y5.356 E20.77032
G0 F6000 X162.079 Y4.926
G1 F1200 X162.975 Y5.135 E20.80093
G1 X163.851 Y5.421 E20.83158
G1 X164.698 Y5.782 E20.8622
G1 X165.51 Y6.215 E20.89281
G1 X166.282 Y6.717 E20.92343
G1 X167.007 Y7.284 E20.95405
G1 X167.37 Y7.609 E20.97025
G1 X167.838 Y8.054 E20.99173
G1 X211.755 Y51.942 E23.05677
G1 X212.261 Y52.461 E23.08088
G1 X212.874 Y53.148 E23.1115
G1 X213.426 Y53.885 E23.14213
G1 X213.911 Y54.667 E23.17273
G1 X214.327 Y55.489 E23.20337
G1 X214.67 Y56.343 E23.23398
G1 X214.938 Y57.224 E23.26461
G1 X215.128 Y58.125 E23.29524
G1 X215.239 Y59.039 E23.32586
G1 X215.271 Y59.959 E23.35648
G1 X215.222 Y60.878 E23.38709
G1 X215.094 Y61.79 E23.41772
G1 X214.887 Y62.687 E23.44834
G1 X214.604 Y63.563 E23.47896
G1 X214.245 Y64.411 E23.50958
G1 X213.814 Y65.224 E23.54019
G1 X213.314 Y65.997 E23.57081
G1 X212.749 Y66.724 E23.60143
G1 X212.397 Y67.118 E23.61901
G1 X212.165 Y67.365 E23.63028
G1 X211.934 Y67.603 E23.64131
G1 X67.745 Y211.792 E30.42352
G1 X67.256 Y212.268 E30.44621
G1 X66.569 Y212.881 E30.47684
G1 X65.831 Y213.432 E30.50747
G1 X65.049 Y213.916 E30.53806
G1 X64.227 Y214.332 E30.5687
G1 X63.372 Y214.674 E30.59933
G1 X62.491 Y214.941 E30.62995
G1 X61.59 Y215.13 E30.66057
G1 X60.676 Y215.241 E30.69119
G1 X59.756 Y215.271 E30.7218
G1 X58.837 Y215.222 E30.75241
G1 X57.925 Y215.094 E30.78304
G1 X57.028 Y214.886 E30.81367
G1 X56.152 Y214.602 E30.8443
G1 X55.305 Y214.242 E30.87491
G1 X54.492 Y213.811 E30.90551
G1 X53.719 Y213.31 E30.93615
G1 X52.992 Y212.745 E30.96678
G1 X52.565 Y212.36 E30.9859
G1 X52.131 Y211.943 E31.00592
G1 X8.206 Y168.018 E33.07201
G1 X7.738 Y167.538 E33.09431
G1 X7.125 Y166.851 E33.12494
G1 X6.573 Y166.114 E33.15556
G1 X6.088 Y165.332 E33.18617
G1 X5.672 Y164.511 E33.21678
G1 X5.329 Y163.656 E33.24742
G1 X5.061 Y162.775 E33.27805
G1 X4.871 Y161.875 E33.30864
G1 X4.76 Y160.961 E33.33926
G1 X4.728 Y160.041 E33.36988
G1 X4.777 Y159.121 E33.40052
G1 X4.905 Y158.209 E33.43116
G1 X5.112 Y157.312 E33.46177
G1 X5.395 Y156.436 E33.49239
G1 X5.754 Y155.589 E33.52299
G1 X6.185 Y154.775 E33.55362
G1 X6.685 Y154.002 E33.58424
G1 X7.25 Y153.275 E33.61487
G1 X7.611 Y152.871 E33.63289
G1 X7.821 Y152.648 E33.64308
G1 X8.043 Y152.42 E33.65366
G1 X20.751 Y139.713 E34.25138
G1 X21.232 Y139.246 E34.27368
G1 X21.92 Y138.634 E34.30431
G1 X22.658 Y138.084 E34.33492
G1 X23.441 Y137.6 E34.36554
G1 X24.264 Y137.186 E34.39618
G1 X25.119 Y136.845 E34.42679
G1 X26 Y136.579 E34.4574
G1 X26.901 Y136.391 E34.48801
G1 X27.816 Y136.281 E34.51867
G1 X28.736 Y136.252 E34.54928
G1 X29.871 Y136.326 E34.58711
G1 X32.683 Y136.661 E34.6813
G1 X35.217 Y136.893 E34.76593
G1 X37.721 Y137.05 E34.84938
G1 X40.268 Y137.137 E34.93414
G1 X42.815 Y137.153 E35.01886
G1 X45.295 Y137.098 E35.10136
G1 X47.862 Y136.969 E35.18685
G1 X50.378 Y136.77 E35.27079
G1 X52.886 Y136.5 E35.35469
G1 X55.372 Y136.163 E35.43813
G1 X57.877 Y135.749 E35.52258
G1 X60.355 Y135.268 E35.60654
G1 X62.818 Y134.716 E35.69049
G1 X65.291 Y134.09 E35.77534
G1 X67.691 Y133.408 E35.85832
G1 X70.143 Y132.637 E35.94381
G1 X72.514 Y131.815 E36.02728
G1 X74.881 Y130.92 E36.11144
G1 X77.211 Y129.963 E36.19522
G1 X79.555 Y128.921 E36.28054
G1 X81.815 Y127.839 E36.36388
G1 X84.048 Y126.692 E36.44737
G1 X86.285 Y125.462 E36.53228
G1 X88.44 Y124.195 E36.61543
G1 X90.611 Y122.835 E36.70063
G1 X92.685 Y121.453 E36.78353
G1 X94.772 Y119.975 E36.86858
G1 X96.802 Y118.449 E36.95305
G1 X98.764 Y116.887 E37.03646
G1 X100.694 Y115.258 E37.12046
G1 X102.576 Y113.576 E37.20441
G1 X104.417 Y111.835 E37.28869
G1 X106.208 Y110.041 E37.373
G1 X107.946 Y108.202 E37.45716
G1 X109.623 Y106.32 E37.541
G1 X111.261 Y104.378 E37.6255
G1 X112.817 Y102.42 E37.70869
G1 X114.35 Y100.376 E37.79367
G1 X115.813 Y98.307 E37.87795
G1 X117.209 Y96.208 E37.96179
G1 X118.541 Y94.078 E38.04535
G1 X119.834 Y91.873 E38.13036
G1 X121.041 Y89.676 E38.21374
G1 X122.191 Y87.431 E38.29763
G1 X123.288 Y85.136 E38.38224
G1 X124.317 Y82.812 E38.46677
G1 X125.276 Y80.479 E38.55067
G1 X126.161 Y78.125 E38.63431
G1 X126.994 Y75.713 E38.71919
G1 X127.743 Y73.327 E38.80236
G1 X128.429 Y70.901 E38.88622
G1 X129.056 Y68.421 E38.9713
G1 X129.608 Y65.95 E39.05551
G1 X130.084 Y63.478 E39.13924
G1 X130.49 Y61.002 E39.22269
G1 X130.831 Y58.487 E39.3071
G1 X131.099 Y55.963 E39.39152
G1 X131.296 Y53.442 E39.47563
G1 X131.42 Y50.938 E39.55901
G1 X131.474 Y48.389 E39.64381
G1 X131.457 Y45.845 E39.72843
G1 X131.369 Y43.372 E39.81073
G1 X131.204 Y40.782 E39.89705
G1 X130.978 Y38.325 E39.97912
G1 X130.805 Y36.883 E40.02742
G1 X130.646 Y35.495 E40.07389
G1 X130.581 Y34.577 E40.1045
G1 X130.596 Y33.656 E40.13513
G1 X130.691 Y32.741 E40.16573
G1 X130.865 Y31.837 E40.19635
G1 X131.116 Y30.951 E40.22698
G1 X131.444 Y30.091 E40.25759
G1 X131.845 Y29.262 E40.28822
G1 X132.316 Y28.471 E40.31884
G1 X132.855 Y27.724 E40.34948
G1 X133.462 Y27.02 E40.38039
G1 X133.674 Y26.795 E40.39068
G1 X133.894 Y26.569 E40.40117
G1 X152.278 Y8.186 E41.26587
G1 X152.743 Y7.735 E41.28742
G1 X153.431 Y7.123 E41.31804
G1 X154.17 Y6.574 E41.34866
G1 X154.953 Y6.09 E41.37928
G1 X155.776 Y5.676 E41.40992
G1 X156.631 Y5.336 E41.44052
G1 X157.513 Y5.07 E41.47116
G1 X158.414 Y4.883 E41.50177
G1 X159.328 Y4.774 E41.53238
G1 X160.248 Y4.745 E41.563
G1 X161.167 Y4.796 E41.59361
G1 X162.079 Y4.926 E41.62425
G0 F6000 X161.963 Y4.499
G1 F1200 X162.88 Y4.695 E41.65544
G1 X163.777 Y4.969 E41.68664
G1 X164.647 Y5.318 E41.71781
G1 X165.485 Y5.739 E41.74901
G1 X166.284 Y6.231 E41.78021
G1 X167.038 Y6.789 E41.81141
G1 X167.644 Y7.317 E41.83815
G1 X167.866 Y7.525 E41.84826
G1 X168.121 Y7.771 E41.86005
G1 X212.041 Y51.663 E43.92525
G1 X212.547 Y52.182 E43.94936
G1 X213.173 Y52.881 E43.98057
G1 X213.736 Y53.63 E44.01173
G1 X214.234 Y54.425 E44.04294
G1 X214.662 Y55.26 E44.07414
G1 X215.018 Y56.128 E44.10535
G1 X215.298 Y57.023 E44.13654
G1 X215.502 Y57.938 E44.16772
G1 X215.626 Y58.868 E44.19892
G1 X215.671 Y59.805 E44.23012
G1 X215.636 Y60.742 E44.26131
G1 X215.521 Y61.673 E44.29251
G1 X215.327 Y62.59 E44.32369
G1 X215.056 Y63.488 E44.35488
G1 X214.709 Y64.359 E44.38607
G1 X214.289 Y65.198 E44.41727
G1 X213.8 Y65.998 E44.44846
G1 X213.244 Y66.753 E44.47965
G1 X212.689 Y67.392 E44.5078
G1 X212.457 Y67.639 E44.51907
G1 X212.217 Y67.886 E44.53052
G1 X68.129 Y211.974 E51.30798
G1 X68.024 Y212.078 E51.3129
G1 X67.535 Y212.554 E51.33559
G1 X66.835 Y213.179 E51.3668
G1 X66.085 Y213.742 E51.398
G1 X65.29 Y214.239 E51.42918
G1 X64.455 Y214.667 E51.46039
G1 X63.587 Y215.022 E51.49158
G1 X62.692 Y215.302 E51.52277
G1 X61.776 Y215.504 E51.55397
G1 X60.847 Y215.628 E51.58514
G1 X59.91 Y215.672 E51.61634
G1 X58.973 Y215.636 E51.64753
G1 X58.042 Y215.52 E51.67873
G1 X57.124 Y215.326 E51.70994
G1 X56.227 Y215.054 E51.74111
G1 X55.356 Y214.707 E51.7723
G1 X54.517 Y214.286 E51.80352
G1 X53.718 Y213.796 E51.83469
G1 X52.963 Y213.239 E51.8659
G1 X52.289 Y212.65 E51.89567
G1 X51.848 Y212.226 E51.91602
G1 X7.92 Y168.297 E53.98228
G1 X7.452 Y167.817 E54.00458
G1 X6.826 Y167.118 E54.03579
G1 X6.263 Y166.369 E54.06695
G1 X5.765 Y165.574 E54.09815
G1 X5.337 Y164.74 E54.12933
G1 X4.981 Y163.872 E54.16053
G1 X4.701 Y162.977 E54.19172
G1 X4.497 Y162.061 E54.22294
G1 X4.373 Y161.132 E54.25411
G1 X4.328 Y160.195 E54.28531
G1 X4.363 Y159.258 E54.3165
G1 X4.478 Y158.327 E54.3477
G1 X4.672 Y157.409 E54.37891
G1 X4.943 Y156.511 E54.4101
G1 X5.29 Y155.64 E54.44129
G1 X5.709 Y154.801 E54.47248
G1 X6.199 Y154.001 E54.50368
G1 X6.755 Y153.246 E54.53487
G1 X7.32 Y152.597 E54.56349
G1 X7.76 Y152.137 E54.58466
G1 X20.473 Y139.426 E55.18259
G1 X20.954 Y138.959 E55.20489
G1 X21.654 Y138.335 E55.23608
G1 X22.404 Y137.773 E55.26725
G1 X23.2 Y137.277 E55.29845
G1 X24.036 Y136.85 E55.32967
G1 X24.904 Y136.496 E55.36085
G1 X25.8 Y136.218 E55.39205
G1 X26.716 Y136.016 E55.42325
G1 X27.646 Y135.894 E55.45444
G1 X28.582 Y135.851 E55.48561
G1 X29.919 Y135.928 E55.53015
G1 X32.735 Y136.264 E55.62448
G1 X35.277 Y136.496 E55.70937
G1 X37.725 Y136.649 E55.79095
G1 X40.283 Y136.737 E55.87608
G1 X42.809 Y136.753 E55.9601
G1 X45.302 Y136.698 E56.04304
G1 X47.809 Y136.571 E56.12653
G1 X50.34 Y136.371 E56.21097
G1 X52.826 Y136.104 E56.29413
G1 X55.324 Y135.765 E56.37798
G1 X57.808 Y135.354 E56.46172
G1 X60.29 Y134.873 E56.54581
G1 X62.703 Y134.332 E56.62806
G1 X65.197 Y133.701 E56.71362
G1 X67.599 Y133.018 E56.79668
G1 X69.997 Y132.264 E56.88029
G1 X72.39 Y131.435 E56.96452
G1 X74.724 Y130.552 E57.04752
G1 X77.075 Y129.587 E57.13204
G1 X79.355 Y128.573 E57.21504
G1 X81.638 Y127.48 E57.29922
G1 X83.879 Y126.329 E57.38302
G1 X86.069 Y125.124 E57.46615
G1 X88.246 Y123.844 E57.55015
G1 X90.383 Y122.506 E57.63401
G1 X92.478 Y121.11 E57.71774
G1 X94.546 Y119.645 E57.80203
G1 X96.519 Y118.163 E57.88411
G1 X98.519 Y116.57 E57.96915
G1 X100.432 Y114.955 E58.05242
G1 X102.327 Y113.261 E58.13696
G1 X104.143 Y111.544 E58.22008
G1 X105.917 Y109.767 E58.30359
G1 X107.657 Y107.926 E58.38785
G1 X109.32 Y106.06 E58.47098
G1 X110.941 Y104.137 E58.55463
G1 X112.5 Y102.177 E58.63793
G1 X114.037 Y100.128 E58.72312
G1 X115.47 Y98.101 E58.80569
G1 X116.864 Y96.004 E58.88944
G1 X118.205 Y93.858 E58.9736
G1 X119.481 Y91.683 E59.05747
G1 X120.699 Y89.466 E59.14161
G1 X121.832 Y87.255 E59.22424
G1 X122.919 Y84.98 E59.3081
G1 X123.953 Y82.647 E59.39298
G1 X124.907 Y80.323 E59.47653
G1 X125.785 Y77.991 E59.55941
G1 X126.606 Y75.611 E59.64315
G1 X127.362 Y73.204 E59.72706
G1 X128.051 Y70.766 E59.81132
G1 X128.664 Y68.341 E59.89452
G1 X129.211 Y65.892 E59.97798
G1 X129.689 Y63.409 E60.06208
G1 X130.098 Y60.914 E60.14617
G1 X130.436 Y58.429 E60.22958
G1 X130.698 Y55.961 E60.31213
G1 X130.896 Y53.427 E60.39667
G1 X131.02 Y50.909 E60.48052
G1 X131.074 Y48.383 E60.56455
G1 X131.057 Y45.862 E60.6484
G1 X130.969 Y43.375 E60.73117
G1 X130.808 Y40.843 E60.81556
G1 X130.578 Y38.342 E60.89909
G1 X130.407 Y36.929 E60.94643
G1 X130.248 Y35.541 E60.9929
G1 X130.182 Y34.605 E61.02411
G1 X130.195 Y33.668 E61.05527
G1 X130.287 Y32.734 E61.08649
G1 X130.459 Y31.812 E61.11769
G1 X130.709 Y30.908 E61.14888
G1 X131.035 Y30.029 E61.18006
